P3
256 256
255
255 0 0 20 20 30 20 20 30 20 20 30 20 20 30 20 20 30 20 20 30 20 20 30 20 20 30 20 20 30 20 20 30 20 20 30 20 20 30 20 20 30 20 20 30 20 20 30 20 20 30 20 20 30 20 20 30 20 20 30 20 20 30 20 20 30 20 20 30 20 20 30 20 20 30 20 20 30 20 20 30 20 20 30 20 20 30 20 20 30 20 20 30 20 20 30 20 20 30 20 20 30 20 20 30 20 20 30 20 20 30 20 20 30 20 20 30 20 20 30 20 20 30 20 20 30 20 20 30 20 20 30 20 20 30 20 20 30 20 20 30 20 20 30 20 20 30 20 20 30 20 20 30 20 20 30 20 20 30 20 20 30 20 20 30 20 20 30 20 20 30 20 20 30 20 20 30 20 20 30 20 20 30 20 20 30 20 20 30 20 20 30 20 20 30 20 20 30 20 20 30 20 20 30 20 20 30 20 20 30 20 20 30 20 20 30 20 20 30 20 20 30 20 20 30 20 20 30 20 20 30 20 20 30 20 20 30 20 20 30 20 20 30 20 20 30 20 20 30 20 20 30 20 20 30 20 20 30 20 20 30 20 20 30 20 20 30 20 20 30 20 20 30 20 20 30 20 20 30 20 20 30 20 20 30 20 20 30 20 20 30 20 20 30 20 20 30 20 20 30 20 20 30 20 20 30 20 20 30 20 20 30 20 20 30 20 20 30 20 20 30 20 20 30 20 20 30 20 20 30 20 20 30 20 20 30 20 20 30 20 20 30 20 20 30 20 20 30 20 20 30 20 20 30 20 20 30 20 20 30 20 20 30 20 20 30 20 20 30 20 20 30 20 20 30 20 20 30 20 20 30 20 20 30 20 20 30 20 20 30 20 20 30 20 20 30 20 20 30 20 20 30 20 20 30 20 20 30 20 20 30 20 20 30 20 20 30 20 20 30 20 20 30 20 20 30 20 20 30 20 20 30 20 20 30 20 20 30 20 20 30 20 20 30 20 20 30 20 20 30 20 20 30 20 20 30 20 20 30 20 20 30 20 20 30 20 20 30 20 20 30 20 20 30 20 20 30 20 20 30 20 20 30 20 20 30 20 20 30 20 20 30 20 20 30 20 20 30 20 20 30 20 20 30 20 20 30 20 20 30 20 20 30 20 20 30 20 20 30 20 20 30 20 20 30 20 20 30 20 20 30 20 20 30 20 20 30 20 20 30 20 20 30 20 20 30 20 20 30 20 20 30 20 20 30 20 20 30 20 20 30 20 20 30 20 20 30 20 20 30 20 20 30 20 20 30 20 20 30 20 20 30 20 20 30 20 20 30 20 20 30 20 20 30 20 20 30 20 20 30 20 20 30 20 20 30 20 20 30 20 20 30 20 20 30 20 20 30 20 20 30 20 20 30 20 20 30 20 20 30 20 20 30 20 20 30 20 20 30 20 20 30 20 20 30 20 20 30 20 20 30 20 20 30 20 20 30 20 20 30 20 20 30 20 20 30 20 20 30 20 20 30 20 20 30 20 20 30 20 20 30 20 20 30 20 20 30 20 20 30 20 20 30 20 20 30 20 20 30 20 20 30 20 20 30 20 20 30 20 20 30 20 20 30 20 20 30 20 20 30 20 20 30 20 20 30 20 20 30 20 20 30 20 20 30 20 20 30 20 20 30 20 20 30 20 20 30 20 20 30 20 20 30 20 20 30 20 20 30 20 20 30 20 20 30 0 255 0 
20 20 30 255 0 0 20 20 30 20 20 30 20 20 30 20 20 30 20 20 30 20 20 30 20 20 30 20 20 30 20 20 30 20 20 30 20 20 30 20 20 30 20 20 30 20 20 30 20 20 30 20 20 30 20 20 30 20 20 30 20 20 30 20 20 30 20 20 30 20 20 30 20 20 30 20 20 30 20 20 30 20 20 30 20 20 30 20 20 30 20 20 30 20 20 30 20 20 30 20 20 30 20 20 30 20 20 30 20 20 30 20 20 30 20 20 30 20 20 30 20 20 30 20 20 30 20 20 30 20 20 30 20 20 30 20 20 30 20 20 30 20 20 30 20 20 30 20 20 30 20 20 30 20 20 30 20 20 30 20 20 30 20 20 30 20 20 30 20 20 30 20 20 30 20 20 30 20 20 30 20 20 30 20 20 30 20 20 30 20 20 30 20 20 30 20 20 30 20 20 30 20 20 30 20 20 30 20 20 30 20 20 30 20 20 30 20 20 30 20 20 30 20 20 30 20 20 30 20 20 30 20 20 30 20 20 30 20 20 30 20 20 30 20 20 30 20 20 30 20 20 30 20 20 30 20 20 30 20 20 30 20 20 30 20 20 30 20 20 30 20 20 30 20 20 30 20 20 30 20 20 30 20 20 30 20 20 30 20 20 30 20 20 30 20 20 30 20 20 30 20 20 30 20 20 30 20 20 30 20 20 30 20 20 30 20 20 30 20 20 30 20 20 30 20 20 30 20 20 30 20 20 30 20 20 30 20 20 30 20 20 30 20 20 30 20 20 30 20 20 30 20 20 30 20 20 30 20 20 30 20 20 30 20 20 30 20 20 30 20 20 30 20 20 30 20 20 30 20 20 30 20 20 30 20 20 30 20 20 30 20 20 30 20 20 30 20 20 30 20 20 30 20 20 30 20 20 30 20 20 30 20 20 30 20 20 30 20 20 30 20 20 30 20 20 30 20 20 30 20 20 30 20 20 30 20 20 30 20 20 30 20 20 30 20 20 30 20 20 30 20 20 30 20 20 30 20 20 30 20 20 30 20 20 30 20 20 30 20 20 30 20 20 30 20 20 30 20 20 30 20 20 30 20 20 30 20 20 30 20 20 30 20 20 30 20 20 30 20 20 30 20 20 30 20 20 30 20 20 30 20 20 30 20 20 30 20 20 30 20 20 30 20 20 30 20 20 30 20 20 30 20 20 30 20 20 30 20 20 30 20 20 30 20 20 30 20 20 30 20 20 30 20 20 30 20 20 30 20 20 30 20 20 30 20 20 30 20 20 30 20 20 30 20 20 30 20 20 30 20 20 30 20 20 30 20 20 30 20 20 30 20 20 30 20 20 30 20 20 30 20 20 30 20 20 30 20 20 30 20 20 30 20 20 30 20 20 30 20 20 30 20 20 30 20 20 30 20 20 30 20 20 30 20 20 30 20 20 30 20 20 30 20 20 30 20 20 30 20 20 30 20 20 30 20 20 30 20 20 30 20 20 30 20 20 30 20 20 30 20 20 30 20 20 30 20 20 30 20 20 30 20 20 30 20 20 30 20 20 30 20 20 30 20 20 30 20 20 30 20 20 30 20 20 30 20 20 30 20 20 30 20 20 30 20 20 30 20 20 30 20 20 30 20 20 30 20 20 30 20 20 30 20 20 30 20 20 30 20 20 30 20 20 30 20 20 30 20 20 30 20 20 30 20 20 30 20 20 30 20 20 30 0 255 0 20 20 30 
20 20 30 20 20 30 255 0 0 20 20 30 20 20 30 20 20 30 20 20 30 20 20 30 20 20 30 20 20 30 20 20 30 20 20 30 20 20 30 20 20 30 20 20 30 20 20 30 20 20 30 20 20 30 20 20 30 20 20 30 20 20 30 20 20 30 20 20 30 20 20 30 20 20 30 20 20 30 20 20 30 20 20 30 20 20 30 20 20 30 20 20 30 20 20 30 20 20 30 20 20 30 20 20 30 20 20 30 20 20 30 20 20 30 20 20 30 20 20 30 20 20 30 20 20 30 20 20 30 20 20 30 20 20 30 20 20 30 20 20 30 20 20 30 20 20 30 20 20 30 20 20 30 20 20 30 20 20 30 20 20 30 20 20 30 20 20 30 20 20 30 20 20 30 20 20 30 20 20 30 20 20 30 20 20 30 20 20 30 20 20 30 20 20 30 20 20 30 20 20 30 20 20 30 20 20 30 20 20 30 20 20 30 20 20 30 20 20 30 20 20 30 20 20 30 20 20 30 20 20 30 20 20 30 20 20 30 20 20 30 20 20 30 20 20 30 20 20 30 20 20 30 20 20 30 20 20 30 20 20 30 20 20 30 20 20 30 20 20 30 20 20 30 20 20 30 20 20 30 20 20 30 20 20 30 20 20 30 20 20 30 20 20 30 20 20 30 20 20 30 20 20 30 20 20 30 20 20 30 20 20 30 20 20 30 20 20 30 20 20 30 20 20 30 20 20 30 20 20 30 20 20 30 20 20 30 20 20 30 20 20 30 20 20 30 20 20 30 20 20 30 20 20 30 20 20 30 20 20 30 20 20 30 20 20 30 20 20 30 20 20 30 20 20 30 20 20 30 20 20 30 20 20 30 20 20 30 20 20 30 20 20 30 20 20 30 20 20 30 20 20 30 20 20 30 20 20 30 20 20 30 20 20 30 20 20 30 20 20 30 20 20 30 20 20 30 20 20 30 20 20 30 20 20 30 20 20 30 20 20 30 20 20 30 20 20 30 20 20 30 20 20 30 20 20 30 20 20 30 20 20 30 20 20 30 20 20 30 20 20 30 20 20 30 20 20 30 20 20 30 20 20 30 20 20 30 20 20 30 20 20 30 20 20 30 20 20 30 20 20 30 20 20 30 20 20 30 20 20 30 20 20 30 20 20 30 20 20 30 20 20 30 20 20 30 20 20 30 20 20 30 20 20 30 20 20 30 20 20 30 20 20 30 20 20 30 20 20 30 20 20 30 20 20 30 20 20 30 20 20 30 20 20 30 20 20 30 20 20 30 20 20 30 20 20 30 20 20 30 20 20 30 20 20 30 20 20 30 20 20 30 20 20 30 20 20 30 20 20 30 20 20 30 20 20 30 20 20 30 20 20 30 20 20 30 20 20 30 20 20 30 20 20 30 20 20 30 20 20 30 20 20 30 20 20 30 20 20 30 20 20 30 20 20 30 20 20 30 20 20 30 20 20 30 20 20 30 20 20 30 20 20 30 20 20 30 20 20 30 20 20 30 20 20 30 20 20 30 20 20 30 20 20 30 20 20 30 20 20 30 20 20 30 20 20 30 20 20 30 20 20 30 20 20 30 20 20 30 20 20 30 20 20 30 20 20 30 20 20 30 20 20 30 20 20 30 20 20 30 20 20 30 20 20 30 20 20 30 20 20 30 20 20 30 20 20 30 20 20 30 20 20 30 20 20 30 20 20 30 0 255 0 20 20 30 20 20 30 
20 20 30 20 20 30 20 20 30 255 0 0 20 20 30 20 20 30 20 20 30 20 20 30 20 20 30 20 20 30 20 20 30 20 20 30 20 20 30 20 20 30 20 20 30 20 20 30 20 20 30 20 20 30 20 20 30 20 20 30 20 20 30 20 20 30 20 20 30 20 20 30 20 20 30 20 20 30 20 20 30 20 20 30 20 20 30 20 20 30 20 20 30 20 20 30 20 20 30 20 20 30 20 20 30 20 20 30 20 20 30 20 20 30 20 20 30 20 20 30 20 20 30 20 20 30 20 20 30 20 20 30 20 20 30 20 20 30 20 20 30 20 20 30 20 20 30 20 20 30 20 20 30 20 20 30 20 20 30 20 20 30 20 20 30 20 20 30 20 20 30 20 20 30 20 20 30 20 20 30 20 20 30 20 20 30 20 20 30 20 20 30 20 20 30 20 20 30 20 20 30 20 20 30 20 20 30 20 20 30 20 20 30 20 20 30 20 20 30 20 20 30 20 20 30 20 20 30 20 20 30 20 20 30 20 20 30 20 20 30 20 20 30 20 20 30 20 20 30 20 20 30 20 20 30 20 20 30 20 20 30 20 20 30 20 20 30 20 20 30 20 20 30 20 20 30 20 20 30 20 20 30 20 20 30 20 20 30 20 20 30 20 20 30 20 20 30 20 20 30 20 20 30 20 20 30 20 20 30 20 20 30 20 20 30 20 20 30 20 20 30 20 20 30 20 20 30 20 20 30 20 20 30 20 20 30 20 20 30 20 20 30 20 20 30 20 20 30 20 20 30 20 20 30 20 20 30 20 20 30 20 20 30 20 20 30 20 20 30 20 20 30 20 20 30 20 20 30 20 20 30 20 20 30 20 20 30 20 20 30 20 20 30 20 20 30 20 20 30 20 20 30 20 20 30 20 20 30 20 20 30 20 20 30 20 20 30 20 20 30 20 20 30 20 20 30 20 20 30 20 20 30 20 20 30 20 20 30 20 20 30 20 20 30 20 20 30 20 20 30 20 20 30 20 20 30 20 20 30 20 20 30 20 20 30 20 20 30 20 20 30 20 20 30 20 20 30 20 20 30 20 20 30 20 20 30 20 20 30 20 20 30 20 20 30 20 20 30 20 20 30 20 20 30 20 20 30 20 20 30 20 20 30 20 20 30 20 20 30 20 20 30 20 20 30 20 20 30 20 20 30 20 20 30 20 20 30 20 20 30 20 20 30 20 20 30 20 20 30 20 20 30 20 20 30 20 20 30 20 20 30 20 20 30 20 20 30 20 20 30 20 20 30 20 20 30 20 20 30 20 20 30 20 20 30 20 20 30 20 20 30 20 20 30 20 20 30 20 20 30 20 20 30 20 20 30 20 20 30 20 20 30 20 20 30 20 20 30 20 20 30 20 20 30 20 20 30 20 20 30 20 20 30 20 20 30 20 20 30 20 20 30 20 20 30 20 20 30 20 20 30 20 20 30 20 20 30 20 20 30 20 20 30 20 20 30 20 20 30 20 20 30 20 20 30 20 20 30 20 20 30 20 20 30 20 20 30 20 20 30 20 20 30 20 20 30 20 20 30 20 20 30 20 20 30 20 20 30 20 20 30 20 20 30 20 20 30 20 20 30 20 20 30 20 20 30 20 20 30 20 20 30 20 20 30 20 20 30 20 20 30 20 20 30 20 20 30 20 20 30 20 20 30 20 20 30 0 255 0 20 20 30 20 20 30 20 20 30 
20 20 30 20 20 30 20 20 30 20 20 30 255 0 0 20 20 30 20 20 30 20 20 30 20 20 30 20 20 30 20 20 30 20 20 30 20 20 30 20 20 30 20 20 30 20 20 30 20 20 30 20 20 30 20 20 30 20 20 30 20 20 30 20 20 30 20 20 30 20 20 30 20 20 30 20 20 30 20 20 30 20 20 30 20 20 30 20 20 30 20 20 30 20 20 30 20 20 30 20 20 30 20 20 30 20 20 30 20 20 30 20 20 30 20 20 30 20 20 30 20 20 30 20 20 30 20 20 30 20 20 30 20 20 30 20 20 30 20 20 30 20 20 30 20 20 30 20 20 30 20 20 30 20 20 30 20 20 30 20 20 30 20 20 30 20 20 30 20 20 30 20 20 30 20 20 30 20 20 30 20 20 30 20 20 30 20 20 30 20 20 30 20 20 30 20 20 30 20 20 30 20 20 30 20 20 30 20 20 30 20 20 30 20 20 30 20 20 30 20 20 30 20 20 30 20 20 30 20 20 30 20 20 30 20 20 30 20 20 30 20 20 30 20 20 30 20 20 30 20 20 30 20 20 30 20 20 30 20 20 30 20 20 30 20 20 30 20 20 30 20 20 30 20 20 30 20 20 30 20 20 30 20 20 30 20 20 30 20 20 30 20 20 30 20 20 30 20 20 30 20 20 30 20 20 30 20 20 30 20 20 30 20 20 30 20 20 30 20 20 30 20 20 30 20 20 30 20 20 30 20 20 30 20 20 30 20 20 30 20 20 30 20 20 30 20 20 30 20 20 30 20 20 30 20 20 30 20 20 30 20 20 30 20 20 30 20 20 30 20 20 30 20 20 30 20 20 30 20 20 30 20 20 30 20 20 30 20 20 30 20 20 30 20 20 30 20 20 30 20 20 30 20 20 30 20 20 30 20 20 30 20 20 30 20 20 30 20 20 30 20 20 30 20 20 30 20 20 30 20 20 30 20 20 30 20 20 30 20 20 30 20 20 30 20 20 30 20 20 30 20 20 30 20 20 30 20 20 30 20 20 30 20 20 30 20 20 30 20 20 30 20 20 30 20 20 30 20 20 30 20 20 30 20 20 30 20 20 30 20 20 30 20 20 30 20 20 30 20 20 30 20 20 30 20 20 30 20 20 30 20 20 30 20 20 30 20 20 30 20 20 30 20 20 30 20 20 30 20 20 30 20 20 30 20 20 30 20 20 30 20 20 30 20 20 30 20 20 30 20 20 30 20 20 30 20 20 30 20 20 30 20 20 30 20 20 30 20 20 30 20 20 30 20 20 30 20 20 30 20 20 30 20 20 30 20 20 30 20 20 30 20 20 30 20 20 30 20 20 30 20 20 30 20 20 30 20 20 30 20 20 30 20 20 30 20 20 30 20 20 30 20 20 30 20 20 30 20 20 30 20 20 30 20 20 30 20 20 30 20 20 30 20 20 30 20 20 30 20 20 30 20 20 30 20 20 30 20 20 30 20 20 30 20 20 30 20 20 30 20 20 30 20 20 30 20 20 30 20 20 30 20 20 30 20 20 30 20 20 30 20 20 30 20 20 30 20 20 30 20 20 30 20 20 30 20 20 30 20 20 30 20 20 30 20 20 30 20 20 30 20 20 30 20 20 30 20 20 30 20 20 30 20 20 30 20 20 30 20 20 30 20 20 30 20 20 30 20 20 30 20 20 30 0 255 0 20 20 30 20 20 30 20 20 30 20 20 30 
20 20 30 20 20 30 20 20 30 20 20 30 20 20 30 255 0 0 20 20 30 20 20 30 20 20 30 20 20 30 20 20 30 20 20 30 20 20 30 20 20 30 20 20 30 20 20 30 20 20 30 20 20 30 20 20 30 20 20 30 20 20 30 20 20 30 20 20 30 20 20 30 20 20 30 20 20 30 20 20 30 20 20 30 20 20 30 20 20 30 20 20 30 20 20 30 20 20 30 20 20 30 20 20 30 20 20 30 20 20 30 20 20 30 20 20 30 20 20 30 20 20 30 20 20 30 20 20 30 20 20 30 20 20 30 20 20 30 20 20 30 20 20 30 20 20 30 20 20 30 20 20 30 20 20 30 20 20 30 20 20 30 20 20 30 20 20 30 20 20 30 20 20 30 20 20 30 20 20 30 20 20 30 20 20 30 20 20 30 20 20 30 20 20 30 20 20 30 20 20 30 20 20 30 20 20 30 20 20 30 20 20 30 20 20 30 20 20 30 20 20 30 20 20 30 20 20 30 20 20 30 20 20 30 20 20 30 20 20 30 20 20 30 20 20 30 20 20 30 20 20 30 20 20 30 20 20 30 20 20 30 20 20 30 20 20 30 20 20 30 20 20 30 20 20 30 20 20 30 20 20 30 20 20 30 20 20 30 20 20 30 20 20 30 20 20 30 20 20 30 20 20 30 20 20 30 20 20 30 20 20 30 20 20 30 20 20 30 20 20 30 20 20 30 20 20 30 20 20 30 20 20 30 20 20 30 20 20 30 20 20 30 20 20 30 20 20 30 20 20 30 20 20 30 20 20 30 20 20 30 20 20 30 20 20 30 20 20 30 20 20 30 20 20 30 20 20 30 20 20 30 20 20 30 20 20 30 20 20 30 20 20 30 20 20 30 20 20 30 20 20 30 20 20 30 20 20 30 20 20 30 20 20 30 20 20 30 20 20 30 20 20 30 20 20 30 20 20 30 20 20 30 20 20 30 20 20 30 20 20 30 20 20 30 20 20 30 20 20 30 20 20 30 20 20 30 20 20 30 20 20 30 20 20 30 20 20 30 20 20 30 20 20 30 20 20 30 20 20 30 20 20 30 20 20 30 20 20 30 20 20 30 20 20 30 20 20 30 20 20 30 20 20 30 20 20 30 20 20 30 20 20 30 20 20 30 20 20 30 20 20 30 20 20 30 20 20 30 20 20 30 20 20 30 20 20 30 20 20 30 20 20 30 20 20 30 20 20 30 20 20 30 20 20 30 20 20 30 20 20 30 20 20 30 20 20 30 20 20 30 20 20 30 20 20 30 20 20 30 20 20 30 20 20 30 20 20 30 20 20 30 20 20 30 20 20 30 20 20 30 20 20 30 20 20 30 20 20 30 20 20 30 20 20 30 20 20 30 20 20 30 20 20 30 20 20 30 20 20 30 20 20 30 20 20 30 20 20 30 20 20 30 20 20 30 20 20 30 20 20 30 20 20 30 20 20 30 20 20 30 20 20 30 20 20 30 20 20 30 20 20 30 20 20 30 20 20 30 20 20 30 20 20 30 20 20 30 20 20 30 20 20 30 20 20 30 20 20 30 20 20 30 20 20 30 20 20 30 20 20 30 20 20 30 20 20 30 20 20 30 20 20 30 20 20 30 20 20 30 20 20 30 20 20 30 20 20 30 20 20 30 20 20 30 20 20 30 20 20 30 0 255 0 20 20 30 20 20 30 20 20 30 20 20 30 20 20 30 
20 20 30 20 20 30 20 20 30 20 20 30 20 20 30 20 20 30 255 0 0 20 20 30 20 20 30 20 20 30 20 20 30 20 20 30 20 20 30 20 20 30 20 20 30 20 20 30 20 20 30 20 20 30 20 20 30 20 20 30 20 20 30 20 20 30 20 20 30 20 20 30 20 20 30 20 20 30 20 20 30 20 20 30 20 20 30 20 20 30 20 20 30 20 20 30 20 20 30 20 20 30 20 20 30 20 20 30 20 20 30 20 20 30 20 20 30 20 20 30 20 20 30 20 20 30 20 20 30 20 20 30 20 20 30 20 20 30 20 20 30 20 20 30 20 20 30 20 20 30 20 20 30 20 20 30 20 20 30 20 20 30 20 20 30 20 20 30 20 20 30 20 20 30 20 20 30 20 20 30 20 20 30 20 20 30 20 20 30 20 20 30 20 20 30 20 20 30 20 20 30 20 20 30 20 20 30 20 20 30 20 20 30 20 20 30 20 20 30 20 20 30 20 20 30 20 20 30 20 20 30 20 20 30 20 20 30 20 20 30 20 20 30 20 20 30 20 20 30 20 20 30 20 20 30 20 20 30 20 20 30 20 20 30 20 20 30 20 20 30 20 20 30 20 20 30 20 20 30 20 20 30 20 20 30 20 20 30 20 20 30 20 20 30 20 20 30 20 20 30 20 20 30 20 20 30 20 20 30 20 20 30 20 20 30 20 20 30 20 20 30 20 20 30 20 20 30 20 20 30 20 20 30 20 20 30 20 20 30 20 20 30 20 20 30 20 20 30 20 20 30 20 20 30 20 20 30 20 20 30 20 20 30 20 20 30 20 20 30 20 20 30 20 20 30 20 20 30 20 20 30 20 20 30 20 20 30 20 20 30 20 20 30 20 20 30 20 20 30 20 20 30 20 20 30 20 20 30 20 20 30 20 20 30 20 20 30 20 20 30 20 20 30 20 20 30 20 20 30 20 20 30 20 20 30 20 20 30 20 20 30 20 20 30 20 20 30 20 20 30 20 20 30 20 20 30 20 20 30 20 20 30 20 20 30 20 20 30 20 20 30 20 20 30 20 20 30 20 20 30 20 20 30 20 20 30 20 20 30 20 20 30 20 20 30 20 20 30 20 20 30 20 20 30 20 20 30 20 20 30 20 20 30 20 20 30 20 20 30 20 20 30 20 20 30 20 20 30 20 20 30 20 20 30 20 20 30 20 20 30 20 20 30 20 20 30 20 20 30 20 20 30 20 20 30 20 20 30 20 20 30 20 20 30 20 20 30 20 20 30 20 20 30 20 20 30 20 20 30 20 20 30 20 20 30 20 20 30 20 20 30 20 20 30 20 20 30 20 20 30 20 20 30 20 20 30 20 20 30 20 20 30 20 20 30 20 20 30 20 20 30 20 20 30 20 20 30 20 20 30 20 20 30 20 20 30 20 20 30 20 20 30 20 20 30 20 20 30 20 20 30 20 20 30 20 20 30 20 20 30 20 20 30 20 20 30 20 20 30 20 20 30 20 20 30 20 20 30 20 20 30 20 20 30 20 20 30 20 20 30 20 20 30 20 20 30 20 20 30 20 20 30 20 20 30 20 20 30 20 20 30 20 20 30 20 20 30 20 20 30 20 20 30 20 20 30 20 20 30 20 20 30 20 20 30 20 20 30 20 20 30 20 20 30 20 20 30 0 255 0 20 20 30 20 20 30 20 20 30 20 20 30 20 20 30 20 20 30 
20 20 30 20 20 30 20 20 30 20 20 30 20 20 30 20 20 30 20 20 30 255 0 0 20 20 30 20 20 30 20 20 30 20 20 30 20 20 30 20 20 30 20 20 30 20 20 30 20 20 30 20 20 30 20 20 30 20 20 30 20 20 30 20 20 30 20 20 30 20 20 30 20 20 30 20 20 30 20 20 30 20 20 30 20 20 30 20 20 30 20 20 30 20 20 30 20 20 30 20 20 30 20 20 30 20 20 30 20 20 30 20 20 30 20 20 30 20 20 30 20 20 30 20 20 30 20 20 30 20 20 30 20 20 30 20 20 30 20 20 30 20 20 30 20 20 30 20 20 30 20 20 30 20 20 30 20 20 30 20 20 30 20 20 30 20 20 30 20 20 30 20 20 30 20 20 30 20 20 30 20 20 30 20 20 30 20 20 30 20 20 30 20 20 30 20 20 30 20 20 30 20 20 30 20 20 30 20 20 30 20 20 30 20 20 30 20 20 30 20 20 30 20 20 30 20 20 30 20 20 30 20 20 30 20 20 30 20 20 30 20 20 30 20 20 30 20 20 30 20 20 30 20 20 30 20 20 30 20 20 30 20 20 30 20 20 30 20 20 30 20 20 30 20 20 30 20 20 30 20 20 30 20 20 30 20 20 30 20 20 30 20 20 30 20 20 30 20 20 30 20 20 30 20 20 30 20 20 30 20 20 30 20 20 30 20 20 30 20 20 30 20 20 30 20 20 30 20 20 30 20 20 30 20 20 30 20 20 30 20 20 30 20 20 30 20 20 30 20 20 30 20 20 30 20 20 30 20 20 30 20 20 30 20 20 30 20 20 30 20 20 30 20 20 30 20 20 30 20 20 30 20 20 30 20 20 30 20 20 30 20 20 30 20 20 30 20 20 30 20 20 30 20 20 30 20 20 30 20 20 30 20 20 30 20 20 30 20 20 30 20 20 30 20 20 30 20 20 30 20 20 30 20 20 30 20 20 30 20 20 30 20 20 30 20 20 30 20 20 30 20 20 30 20 20 30 20 20 30 20 20 30 20 20 30 20 20 30 20 20 30 20 20 30 20 20 30 20 20 30 20 20 30 20 20 30 20 20 30 20 20 30 20 20 30 20 20 30 20 20 30 20 20 30 20 20 30 20 20 30 20 20 30 20 20 30 20 20 30 20 20 30 20 20 30 20 20 30 20 20 30 20 20 30 20 20 30 20 20 30 20 20 30 20 20 30 20 20 30 20 20 30 20 20 30 20 20 30 20 20 30 20 20 30 20 20 30 20 20 30 20 20 30 20 20 30 20 20 30 20 20 30 20 20 30 20 20 30 20 20 30 20 20 30 20 20 30 20 20 30 20 20 30 20 20 30 20 20 30 20 20 30 20 20 30 20 20 30 20 20 30 20 20 30 20 20 30 20 20 30 20 20 30 20 20 30 20 20 30 20 20 30 20 20 30 20 20 30 20 20 30 20 20 30 20 20 30 20 20 30 20 20 30 20 20 30 20 20 30 20 20 30 20 20 30 20 20 30 20 20 30 20 20 30 20 20 30 20 20 30 20 20 30 20 20 30 20 20 30 20 20 30 20 20 30 20 20 30 20 20 30 20 20 30 20 20 30 20 20 30 20 20 30 20 20 30 20 20 30 20 20 30 20 20 30 20 20 30 20 20 30 20 20 30 0 255 0 20 20 30 20 20 30 20 20 30 20 20 30 20 20 30 20 20 30 20 20 30 
20 20 30 20 20 30 20 20 30 20 20 30 20 20 30 20 20 30 20 20 30 20 20 30 255 0 0 20 20 30 20 20 30 20 20 30 20 20 30 20 20 30 20 20 30 20 20 30 20 20 30 20 20 30 20 20 30 20 20 30 20 20 30 20 20 30 20 20 30 20 20 30 20 20 30 20 20 30 20 20 30 20 20 30 20 20 30 20 20 30 20 20 30 20 20 30 20 20 30 20 20 30 20 20 30 20 20 30 20 20 30 20 20 30 20 20 30 20 20 30 20 20 30 20 20 30 20 20 30 20 20 30 20 20 30 20 20 30 20 20 30 20 20 30 20 20 30 20 20 30 20 20 30 20 20 30 20 20 30 20 20 30 20 20 30 20 20 30 20 20 30 20 20 30 20 20 30 20 20 30 20 20 30 20 20 30 20 20 30 20 20 30 20 20 30 20 20 30 20 20 30 20 20 30 20 20 30 20 20 30 20 20 30 20 20 30 20 20 30 20 20 30 20 20 30 20 20 30 20 20 30 20 20 30 20 20 30 20 20 30 20 20 30 20 20 30 20 20 30 20 20 30 20 20 30 20 20 30 20 20 30 20 20 30 20 20 30 20 20 30 20 20 30 20 20 30 20 20 30 20 20 30 20 20 30 20 20 30 20 20 30 20 20 30 20 20 30 20 20 30 20 20 30 20 20 30 20 20 30 20 20 30 20 20 30 20 20 30 20 20 30 20 20 30 20 20 30 20 20 30 20 20 30 20 20 30 20 20 30 20 20 30 20 20 30 20 20 30 20 20 30 20 20 30 20 20 30 20 20 30 20 20 30 20 20 30 20 20 30 20 20 30 20 20 30 20 20 30 20 20 30 20 20 30 20 20 30 20 20 30 20 20 30 20 20 30 20 20 30 20 20 30 20 20 30 20 20 30 20 20 30 20 20 30 20 20 30 20 20 30 20 20 30 20 20 30 20 20 30 20 20 30 20 20 30 20 20 30 20 20 30 20 20 30 20 20 30 20 20 30 20 20 30 20 20 30 20 20 30 20 20 30 20 20 30 20 20 30 20 20 30 20 20 30 20 20 30 20 20 30 20 20 30 20 20 30 20 20 30 20 20 30 20 20 30 20 20 30 20 20 30 20 20 30 20 20 30 20 20 30 20 20 30 20 20 30 20 20 30 20 20 30 20 20 30 20 20 30 20 20 30 20 20 30 20 20 30 20 20 30 20 20 30 20 20 30 20 20 30 20 20 30 20 20 30 20 20 30 20 20 30 20 20 30 20 20 30 20 20 30 20 20 30 20 20 30 20 20 30 20 20 30 20 20 30 20 20 30 20 20 30 20 20 30 20 20 30 20 20 30 20 20 30 20 20 30 20 20 30 20 20 30 20 20 30 20 20 30 20 20 30 20 20 30 20 20 30 20 20 30 20 20 30 20 20 30 20 20 30 20 20 30 20 20 30 20 20 30 20 20 30 20 20 30 20 20 30 20 20 30 20 20 30 20 20 30 20 20 30 20 20 30 20 20 30 20 20 30 20 20 30 20 20 30 20 20 30 20 20 30 20 20 30 20 20 30 20 20 30 20 20 30 20 20 30 20 20 30 20 20 30 20 20 30 20 20 30 20 20 30 20 20 30 20 20 30 20 20 30 20 20 30 20 20 30 20 20 30 20 20 30 0 255 0 20 20 30 20 20 30 20 20 30 20 20 30 20 20 30 20 20 30 20 20 30 20 20 30 
20 20 30 20 20 30 20 20 30 20 20 30 20 20 30 20 20 30 20 20 30 20 20 30 20 20 30 255 0 0 20 20 30 20 20 30 20 20 30 20 20 30 20 20 30 20 20 30 20 20 30 20 20 30 20 20 30 20 20 30 20 20 30 20 20 30 20 20 30 20 20 30 20 20 30 20 20 30 20 20 30 20 20 30 20 20 30 20 20 30 20 20 30 20 20 30 20 20 30 20 20 30 20 20 30 20 20 30 20 20 30 20 20 30 20 20 30 20 20 30 20 20 30 20 20 30 20 20 30 20 20 30 20 20 30 20 20 30 20 20 30 20 20 30 20 20 30 20 20 30 20 20 30 20 20 30 20 20 30 20 20 30 20 20 30 20 20 30 20 20 30 20 20 30 20 20 30 20 20 30 20 20 30 20 20 30 20 20 30 20 20 30 20 20 30 20 20 30 20 20 30 20 20 30 20 20 30 20 20 30 20 20 30 20 20 30 20 20 30 20 20 30 20 20 30 20 20 30 20 20 30 20 20 30 20 20 30 20 20 30 20 20 30 20 20 30 20 20 30 20 20 30 20 20 30 20 20 30 20 20 30 20 20 30 20 20 30 20 20 30 20 20 30 20 20 30 20 20 30 20 20 30 20 20 30 20 20 30 20 20 30 20 20 30 20 20 30 20 20 30 20 20 30 20 20 30 20 20 30 20 20 30 20 20 30 20 20 30 20 20 30 20 20 30 20 20 30 20 20 30 20 20 30 20 20 30 20 20 30 20 20 30 20 20 30 20 20 30 20 20 30 20 20 30 20 20 30 20 20 30 20 20 30 20 20 30 20 20 30 20 20 30 20 20 30 20 20 30 20 20 30 20 20 30 20 20 30 20 20 30 20 20 30 20 20 30 20 20 30 20 20 30 20 20 30 20 20 30 20 20 30 20 20 30 20 20 30 20 20 30 20 20 30 20 20 30 20 20 30 20 20 30 20 20 30 20 20 30 20 20 30 20 20 30 20 20 30 20 20 30 20 20 30 20 20 30 20 20 30 20 20 30 20 20 30 20 20 30 20 20 30 20 20 30 20 20 30 20 20 30 20 20 30 20 20 30 20 20 30 20 20 30 20 20 30 20 20 30 20 20 30 20 20 30 20 20 30 20 20 30 20 20 30 20 20 30 20 20 30 20 20 30 20 20 30 20 20 30 20 20 30 20 20 30 20 20 30 20 20 30 20 20 30 20 20 30 20 20 30 20 20 30 20 20 30 20 20 30 20 20 30 20 20 30 20 20 30 20 20 30 20 20 30 20 20 30 20 20 30 20 20 30 20 20 30 20 20 30 20 20 30 20 20 30 20 20 30 20 20 30 20 20 30 20 20 30 20 20 30 20 20 30 20 20 30 20 20 30 20 20 30 20 20 30 20 20 30 20 20 30 20 20 30 20 20 30 20 20 30 20 20 30 20 20 30 20 20 30 20 20 30 20 20 30 20 20 30 20 20 30 20 20 30 20 20 30 20 20 30 20 20 30 20 20 30 20 20 30 20 20 30 20 20 30 20 20 30 20 20 30 20 20 30 20 20 30 20 20 30 20 20 30 20 20 30 20 20 30 20 20 30 20 20 30 20 20 30 20 20 30 20 20 30 20 20 30 20 20 30 20 20 30 20 20 30 20 20 30 0 255 0 20 20 30 20 20 30 20 20 30 20 20 30 20 20 30 20 20 30 20 20 30 20 20 30 20 20 30 
20 20 30 20 20 30 20 20 30 20 20 30 20 20 30 20 20 30 20 20 30 20 20 30 20 20 30 20 20 30 255 0 0 20 20 30 20 20 30 20 20 30 20 20 30 20 20 30 20 20 30 20 20 30 20 20 30 20 20 30 20 20 30 20 20 30 20 20 30 20 20 30 20 20 30 20 20 30 20 20 30 20 20 30 20 20 30 20 20 30 20 20 30 20 20 30 20 20 30 20 20 30 20 20 30 20 20 30 20 20 30 20 20 30 20 20 30 20 20 30 20 20 30 20 20 30 20 20 30 20 20 30 20 20 30 20 20 30 20 20 30 20 20 30 20 20 30 20 20 30 20 20 30 20 20 30 20 20 30 20 20 30 20 20 30 20 20 30 20 20 30 20 20 30 20 20 30 20 20 30 20 20 30 20 20 30 20 20 30 20 20 30 20 20 30 20 20 30 20 20 30 20 20 30 20 20 30 20 20 30 20 20 30 20 20 30 20 20 30 20 20 30 20 20 30 20 20 30 20 20 30 20 20 30 20 20 30 20 20 30 20 20 30 20 20 30 20 20 30 20 20 30 20 20 30 20 20 30 20 20 30 20 20 30 20 20 30 20 20 30 20 20 30 20 20 30 20 20 30 20 20 30 20 20 30 20 20 30 20 20 30 20 20 30 20 20 30 20 20 30 20 20 30 20 20 30 20 20 30 20 20 30 20 20 30 20 20 30 20 20 30 20 20 30 20 20 30 20 20 30 20 20 30 20 20 30 20 20 30 20 20 30 20 20 30 20 20 30 20 20 30 20 20 30 20 20 30 20 20 30 20 20 30 20 20 30 20 20 30 20 20 30 20 20 30 20 20 30 20 20 30 20 20 30 20 20 30 20 20 30 20 20 30 20 20 30 20 20 30 20 20 30 20 20 30 20 20 30 20 20 30 20 20 30 20 20 30 20 20 30 20 20 30 20 20 30 20 20 30 20 20 30 20 20 30 20 20 30 20 20 30 20 20 30 20 20 30 20 20 30 20 20 30 20 20 30 20 20 30 20 20 30 20 20 30 20 20 30 20 20 30 20 20 30 20 20 30 20 20 30 20 20 30 20 20 30 20 20 30 20 20 30 20 20 30 20 20 30 20 20 30 20 20 30 20 20 30 20 20 30 20 20 30 20 20 30 20 20 30 20 20 30 20 20 30 20 20 30 20 20 30 20 20 30 20 20 30 20 20 30 20 20 30 20 20 30 20 20 30 20 20 30 20 20 30 20 20 30 20 20 30 20 20 30 20 20 30 20 20 30 20 20 30 20 20 30 20 20 30 20 20 30 20 20 30 20 20 30 20 20 30 20 20 30 20 20 30 20 20 30 20 20 30 20 20 30 20 20 30 20 20 30 20 20 30 20 20 30 20 20 30 20 20 30 20 20 30 20 20 30 20 20 30 20 20 30 20 20 30 20 20 30 20 20 30 20 20 30 20 20 30 20 20 30 20 20 30 20 20 30 20 20 30 20 20 30 20 20 30 20 20 30 20 20 30 20 20 30 20 20 30 20 20 30 20 20 30 20 20 30 20 20 30 20 20 30 20 20 30 20 20 30 20 20 30 20 20 30 20 20 30 20 20 30 20 20 30 20 20 30 20 20 30 20 20 30 20 20 30 20 20 30 20 20 30 0 255 0 20 20 30 20 20 30 20 20 30 20 20 30 20 20 30 20 20 30 20 20 30 20 20 30 20 20 30 20 20 30 
20 20 30 20 20 30 20 20 30 20 20 30 20 20 30 20 20 30 20 20 30 20 20 30 20 20 30 20 20 30 20 20 30 255 0 0 20 20 30 20 20 30 20 20 30 20 20 30 20 20 30 20 20 30 20 20 30 20 20 30 20 20 30 20 20 30 20 20 30 20 20 30 20 20 30 20 20 30 20 20 30 20 20 30 20 20 30 20 20 30 20 20 30 20 20 30 20 20 30 20 20 30 20 20 30 20 20 30 20 20 30 20 20 30 20 20 30 20 20 30 20 20 30 20 20 30 20 20 30 20 20 30 20 20 30 20 20 30 20 20 30 20 20 30 20 20 30 20 20 30 20 20 30 20 20 30 20 20 30 20 20 30 20 20 30 20 20 30 20 20 30 20 20 30 20 20 30 20 20 30 20 20 30 20 20 30 20 20 30 20 20 30 20 20 30 20 20 30 20 20 30 20 20 30 20 20 30 20 20 30 20 20 30 20 20 30 20 20 30 20 20 30 20 20 30 20 20 30 20 20 30 20 20 30 20 20 30 20 20 30 20 20 30 20 20 30 20 20 30 20 20 30 20 20 30 20 20 30 20 20 30 20 20 30 20 20 30 20 20 30 20 20 30 20 20 30 20 20 30 20 20 30 20 20 30 20 20 30 20 20 30 20 20 30 20 20 30 20 20 30 20 20 30 20 20 30 20 20 30 20 20 30 20 20 30 20 20 30 20 20 30 20 20 30 20 20 30 20 20 30 20 20 30 20 20 30 20 20 30 20 20 30 20 20 30 20 20 30 20 20 30 20 20 30 20 20 30 20 20 30 20 20 30 20 20 30 20 20 30 20 20 30 20 20 30 20 20 30 20 20 30 20 20 30 20 20 30 20 20 30 20 20 30 20 20 30 20 20 30 20 20 30 20 20 30 20 20 30 20 20 30 20 20 30 20 20 30 20 20 30 20 20 30 20 20 30 20 20 30 20 20 30 20 20 30 20 20 30 20 20 30 20 20 30 20 20 30 20 20 30 20 20 30 20 20 30 20 20 30 20 20 30 20 20 30 20 20 30 20 20 30 20 20 30 20 20 30 20 20 30 20 20 30 20 20 30 20 20 30 20 20 30 20 20 30 20 20 30 20 20 30 20 20 30 20 20 30 20 20 30 20 20 30 20 20 30 20 20 30 20 20 30 20 20 30 20 20 30 20 20 30 20 20 30 20 20 30 20 20 30 20 20 30 20 20 30 20 20 30 20 20 30 20 20 30 20 20 30 20 20 30 20 20 30 20 20 30 20 20 30 20 20 30 20 20 30 20 20 30 20 20 30 20 20 30 20 20 30 20 20 30 20 20 30 20 20 30 20 20 30 20 20 30 20 20 30 20 20 30 20 20 30 20 20 30 20 20 30 20 20 30 20 20 30 20 20 30 20 20 30 20 20 30 20 20 30 20 20 30 20 20 30 20 20 30 20 20 30 20 20 30 20 20 30 20 20 30 20 20 30 20 20 30 20 20 30 20 20 30 20 20 30 20 20 30 20 20 30 20 20 30 20 20 30 20 20 30 20 20 30 20 20 30 20 20 30 20 20 30 20 20 30 20 20 30 20 20 30 20 20 30 20 20 30 20 20 30 20 20 30 20 20 30 20 20 30 20 20 30 20 20 30 0 255 0 20 20 30 20 20 30 20 20 30 20 20 30 20 20 30 20 20 30 20 20 30 20 20 30 20 20 30 20 20 30 20 20 30 
20 20 30 20 20 30 20 20 30 20 20 30 20 20 30 20 20 30 20 20 30 20 20 30 20 20 30 20 20 30 20 20 30 20 20 30 255 0 0 20 20 30 20 20 30 20 20 30 20 20 30 20 20 30 20 20 30 20 20 30 20 20 30 20 20 30 20 20 30 20 20 30 20 20 30 20 20 30 20 20 30 20 20 30 20 20 30 20 20 30 20 20 30 20 20 30 20 20 30 20 20 30 20 20 30 20 20 30 20 20 30 20 20 30 20 20 30 20 20 30 20 20 30 20 20 30 20 20 30 20 20 30 20 20 30 20 20 30 20 20 30 20 20 30 20 20 30 20 20 30 20 20 30 20 20 30 20 20 30 20 20 30 20 20 30 20 20 30 20 20 30 20 20 30 20 20 30 20 20 30 20 20 30 20 20 30 20 20 30 20 20 30 20 20 30 20 20 30 20 20 30 20 20 30 20 20 30 20 20 30 20 20 30 20 20 30 20 20 30 20 20 30 20 20 30 20 20 30 20 20 30 20 20 30 20 20 30 20 20 30 20 20 30 20 20 30 20 20 30 20 20 30 20 20 30 20 20 30 20 20 30 20 20 30 20 20 30 20 20 30 20 20 30 20 20 30 20 20 30 20 20 30 20 20 30 20 20 30 20 20 30 20 20 30 20 20 30 20 20 30 20 20 30 20 20 30 20 20 30 20 20 30 20 20 30 20 20 30 20 20 30 20 20 30 20 20 30 20 20 30 20 20 30 20 20 30 20 20 30 20 20 30 20 20 30 20 20 30 20 20 30 20 20 30 20 20 30 20 20 30 20 20 30 20 20 30 20 20 30 20 20 30 20 20 30 20 20 30 20 20 30 20 20 30 20 20 30 20 20 30 20 20 30 20 20 30 20 20 30 20 20 30 20 20 30 20 20 30 20 20 30 20 20 30 20 20 30 20 20 30 20 20 30 20 20 30 20 20 30 20 20 30 20 20 30 20 20 30 20 20 30 20 20 30 20 20 30 20 20 30 20 20 30 20 20 30 20 20 30 20 20 30 20 20 30 20 20 30 20 20 30 20 20 30 20 20 30 20 20 30 20 20 30 20 20 30 20 20 30 20 20 30 20 20 30 20 20 30 20 20 30 20 20 30 20 20 30 20 20 30 20 20 30 20 20 30 20 20 30 20 20 30 20 20 30 20 20 30 20 20 30 20 20 30 20 20 30 20 20 30 20 20 30 20 20 30 20 20 30 20 20 30 20 20 30 20 20 30 20 20 30 20 20 30 20 20 30 20 20 30 20 20 30 20 20 30 20 20 30 20 20 30 20 20 30 20 20 30 20 20 30 20 20 30 20 20 30 20 20 30 20 20 30 20 20 30 20 20 30 20 20 30 20 20 30 20 20 30 20 20 30 20 20 30 20 20 30 20 20 30 20 20 30 20 20 30 20 20 30 20 20 30 20 20 30 20 20 30 20 20 30 20 20 30 20 20 30 20 20 30 20 20 30 20 20 30 20 20 30 20 20 30 20 20 30 20 20 30 20 20 30 20 20 30 20 20 30 20 20 30 20 20 30 20 20 30 20 20 30 20 20 30 20 20 30 20 20 30 20 20 30 20 20 30 20 20 30 20 20 30 20 20 30 20 20 30 20 20 30 0 255 0 20 20 30 20 20 30 20 20 30 20 20 30 20 20 30 20 20 30 20 20 30 20 20 30 20 20 30 20 20 30 20 20 30 20 20 30 
20 20 30 20 20 30 20 20 30 20 20 30 20 20 30 20 20 30 20 20 30 20 20 30 20 20 30 20 20 30 20 20 30 20 20 30 20 20 30 255 0 0 20 20 30 20 20 30 20 20 30 20 20 30 20 20 30 20 20 30 20 20 30 20 20 30 20 20 30 20 20 30 20 20 30 20 20 30 20 20 30 20 20 30 20 20 30 20 20 30 20 20 30 20 20 30 20 20 30 20 20 30 20 20 30 20 20 30 20 20 30 20 20 30 20 20 30 20 20 30 20 20 30 20 20 30 20 20 30 20 20 30 20 20 30 20 20 30 20 20 30 20 20 30 20 20 30 20 20 30 20 20 30 20 20 30 20 20 30 20 20 30 20 20 30 20 20 30 20 20 30 20 20 30 20 20 30 20 20 30 20 20 30 20 20 30 20 20 30 20 20 30 20 20 30 20 20 30 20 20 30 20 20 30 20 20 30 20 20 30 20 20 30 20 20 30 20 20 30 20 20 30 20 20 30 20 20 30 20 20 30 20 20 30 20 20 30 20 20 30 20 20 30 20 20 30 20 20 30 20 20 30 20 20 30 20 20 30 20 20 30 20 20 30 20 20 30 20 20 30 20 20 30 20 20 30 20 20 30 20 20 30 20 20 30 20 20 30 20 20 30 20 20 30 20 20 30 20 20 30 20 20 30 20 20 30 20 20 30 20 20 30 20 20 30 20 20 30 20 20 30 20 20 30 20 20 30 20 20 30 20 20 30 20 20 30 20 20 30 20 20 30 20 20 30 20 20 30 20 20 30 20 20 30 20 20 30 20 20 30 20 20 30 20 20 30 20 20 30 20 20 30 20 20 30 20 20 30 20 20 30 20 20 30 20 20 30 20 20 30 20 20 30 20 20 30 20 20 30 20 20 30 20 20 30 20 20 30 20 20 30 20 20 30 20 20 30 20 20 30 20 20 30 20 20 30 20 20 30 20 20 30 20 20 30 20 20 30 20 20 30 20 20 30 20 20 30 20 20 30 20 20 30 20 20 30 20 20 30 20 20 30 20 20 30 20 20 30 20 20 30 20 20 30 20 20 30 20 20 30 20 20 30 20 20 30 20 20 30 20 20 30 20 20 30 20 20 30 20 20 30 20 20 30 20 20 30 20 20 30 20 20 30 20 20 30 20 20 30 20 20 30 20 20 30 20 20 30 20 20 30 20 20 30 20 20 30 20 20 30 20 20 30 20 20 30 20 20 30 20 20 30 20 20 30 20 20 30 20 20 30 20 20 30 20 20 30 20 20 30 20 20 30 20 20 30 20 20 30 20 20 30 20 20 30 20 20 30 20 20 30 20 20 30 20 20 30 20 20 30 20 20 30 20 20 30 20 20 30 20 20 30 20 20 30 20 20 30 20 20 30 20 20 30 20 20 30 20 20 30 20 20 30 20 20 30 20 20 30 20 20 30 20 20 30 20 20 30 20 20 30 20 20 30 20 20 30 20 20 30 20 20 30 20 20 30 20 20 30 20 20 30 20 20 30 20 20 30 20 20 30 20 20 30 20 20 30 20 20 30 20 20 30 20 20 30 20 20 30 20 20 30 20 20 30 20 20 30 20 20 30 20 20 30 20 20 30 20 20 30 20 20 30 20 20 30 0 255 0 20 20 30 20 20 30 20 20 30 20 20 30 20 20 30 20 20 30 20 20 30 20 20 30 20 20 30 20 20 30 20 20 30 20 20 30 20 20 30 
20 20 30 20 20 30 20 20 30 20 20 30 20 20 30 20 20 30 20 20 30 20 20 30 20 20 30 20 20 30 20 20 30 20 20 30 20 20 30 20 20 30 255 0 0 20 20 30 20 20 30 20 20 30 20 20 30 20 20 30 20 20 30 20 20 30 20 20 30 20 20 30 20 20 30 20 20 30 20 20 30 20 20 30 20 20 30 20 20 30 20 20 30 20 20 30 20 20 30 20 20 30 20 20 30 20 20 30 20 20 30 20 20 30 20 20 30 20 20 30 20 20 30 20 20 30 20 20 30 20 20 30 20 20 30 20 20 30 20 20 30 20 20 30 20 20 30 20 20 30 20 20 30 20 20 30 20 20 30 20 20 30 20 20 30 20 20 30 20 20 30 20 20 30 20 20 30 20 20 30 20 20 30 20 20 30 20 20 30 20 20 30 20 20 30 20 20 30 20 20 30 20 20 30 20 20 30 20 20 30 20 20 30 20 20 30 20 20 30 20 20 30 20 20 30 20 20 30 20 20 30 20 20 30 20 20 30 20 20 30 20 20 30 20 20 30 20 20 30 20 20 30 20 20 30 20 20 30 20 20 30 20 20 30 20 20 30 20 20 30 20 20 30 20 20 30 20 20 30 20 20 30 20 20 30 20 20 30 20 20 30 20 20 30 20 20 30 20 20 30 20 20 30 20 20 30 20 20 30 20 20 30 20 20 30 20 20 30 20 20 30 20 20 30 20 20 30 20 20 30 20 20 30 20 20 30 20 20 30 20 20 30 20 20 30 20 20 30 20 20 30 20 20 30 20 20 30 20 20 30 20 20 30 20 20 30 20 20 30 20 20 30 20 20 30 20 20 30 20 20 30 20 20 30 20 20 30 20 20 30 20 20 30 20 20 30 20 20 30 20 20 30 20 20 30 20 20 30 20 20 30 20 20 30 20 20 30 20 20 30 20 20 30 20 20 30 20 20 30 20 20 30 20 20 30 20 20 30 20 20 30 20 20 30 20 20 30 20 20 30 20 20 30 20 20 30 20 20 30 20 20 30 20 20 30 20 20 30 20 20 30 20 20 30 20 20 30 20 20 30 20 20 30 20 20 30 20 20 30 20 20 30 20 20 30 20 20 30 20 20 30 20 20 30 20 20 30 20 20 30 20 20 30 20 20 30 20 20 30 20 20 30 20 20 30 20 20 30 20 20 30 20 20 30 20 20 30 20 20 30 20 20 30 20 20 30 20 20 30 20 20 30 20 20 30 20 20 30 20 20 30 20 20 30 20 20 30 20 20 30 20 20 30 20 20 30 20 20 30 20 20 30 20 20 30 20 20 30 20 20 30 20 20 30 20 20 30 20 20 30 20 20 30 20 20 30 20 20 30 20 20 30 20 20 30 20 20 30 20 20 30 20 20 30 20 20 30 20 20 30 20 20 30 20 20 30 20 20 30 20 20 30 20 20 30 20 20 30 20 20 30 20 20 30 20 20 30 20 20 30 20 20 30 20 20 30 20 20 30 20 20 30 20 20 30 20 20 30 20 20 30 20 20 30 20 20 30 20 20 30 20 20 30 20 20 30 20 20 30 20 20 30 20 20 30 20 20 30 20 20 30 20 20 30 20 20 30 20 20 30 20 20 30 0 255 0 20 20 30 20 20 30 20 20 30 20 20 30 20 20 30 20 20 30 20 20 30 20 20 30 20 20 30 20 20 30 20 20 30 20 20 30 20 20 30 20 20 30 
20 20 30 20 20 30 20 20 30 20 20 30 20 20 30 20 20 30 20 20 30 20 20 30 20 20 30 20 20 30 20 20 30 20 20 30 20 20 30 20 20 30 20 20 30 255 0 0 20 20 30 20 20 30 20 20 30 20 20 30 20 20 30 20 20 30 20 20 30 20 20 30 20 20 30 20 20 30 20 20 30 20 20 30 20 20 30 20 20 30 20 20 30 20 20 30 20 20 30 20 20 30 20 20 30 20 20 30 20 20 30 20 20 30 20 20 30 20 20 30 20 20 30 20 20 30 20 20 30 20 20 30 20 20 30 20 20 30 20 20 30 20 20 30 20 20 30 20 20 30 20 20 30 20 20 30 20 20 30 20 20 30 20 20 30 20 20 30 20 20 30 20 20 30 20 20 30 20 20 30 20 20 30 20 20 30 20 20 30 20 20 30 20 20 30 20 20 30 20 20 30 20 20 30 20 20 30 20 20 30 20 20 30 20 20 30 20 20 30 20 20 30 20 20 30 20 20 30 20 20 30 20 20 30 20 20 30 20 20 30 20 20 30 20 20 30 20 20 30 20 20 30 20 20 30 20 20 30 20 20 30 20 20 30 20 20 30 20 20 30 20 20 30 20 20 30 20 20 30 20 20 30 20 20 30 20 20 30 20 20 30 20 20 30 20 20 30 20 20 30 20 20 30 20 20 30 20 20 30 20 20 30 20 20 30 20 20 30 20 20 30 20 20 30 20 20 30 20 20 30 20 20 30 20 20 30 20 20 30 20 20 30 20 20 30 20 20 30 20 20 30 20 20 30 20 20 30 20 20 30 20 20 30 20 20 30 20 20 30 20 20 30 20 20 30 20 20 30 20 20 30 20 20 30 20 20 30 20 20 30 20 20 30 20 20 30 20 20 30 20 20 30 20 20 30 20 20 30 20 20 30 20 20 30 20 20 30 20 20 30 20 20 30 20 20 30 20 20 30 20 20 30 20 20 30 20 20 30 20 20 30 20 20 30 20 20 30 20 20 30 20 20 30 20 20 30 20 20 30 20 20 30 20 20 30 20 20 30 20 20 30 20 20 30 20 20 30 20 20 30 20 20 30 20 20 30 20 20 30 20 20 30 20 20 30 20 20 30 20 20 30 20 20 30 20 20 30 20 20 30 20 20 30 20 20 30 20 20 30 20 20 30 20 20 30 20 20 30 20 20 30 20 20 30 20 20 30 20 20 30 20 20 30 20 20 30 20 20 30 20 20 30 20 20 30 20 20 30 20 20 30 20 20 30 20 20 30 20 20 30 20 20 30 20 20 30 20 20 30 20 20 30 20 20 30 20 20 30 20 20 30 20 20 30 20 20 30 20 20 30 20 20 30 20 20 30 20 20 30 20 20 30 20 20 30 20 20 30 20 20 30 20 20 30 20 20 30 20 20 30 20 20 30 20 20 30 20 20 30 20 20 30 20 20 30 20 20 30 20 20 30 20 20 30 20 20 30 20 20 30 20 20 30 20 20 30 20 20 30 20 20 30 20 20 30 20 20 30 20 20 30 20 20 30 20 20 30 20 20 30 20 20 30 20 20 30 20 20 30 20 20 30 20 20 30 20 20 30 20 20 30 20 20 30 20 20 30 20 20 30 0 255 0 20 20 30 20 20 30 20 20 30 20 20 30 20 20 30 20 20 30 20 20 30 20 20 30 20 20 30 20 20 30 20 20 30 20 20 30 20 20 30 20 20 30 20 20 30 
20 20 30 20 20 30 20 20 30 20 20 30 20 20 30 20 20 30 20 20 30 20 20 30 20 20 30 20 20 30 20 20 30 20 20 30 20 20 30 20 20 30 20 20 30 20 20 30 255 0 0 20 20 30 20 20 30 20 20 30 20 20 30 20 20 30 20 20 30 20 20 30 20 20 30 20 20 30 20 20 30 20 20 30 20 20 30 20 20 30 20 20 30 20 20 30 20 20 30 20 20 30 20 20 30 20 20 30 20 20 30 20 20 30 20 20 30 20 20 30 20 20 30 20 20 30 20 20 30 20 20 30 20 20 30 20 20 30 20 20 30 20 20 30 20 20 30 20 20 30 20 20 30 20 20 30 20 20 30 20 20 30 20 20 30 20 20 30 20 20 30 20 20 30 20 20 30 20 20 30 20 20 30 20 20 30 20 20 30 20 20 30 20 20 30 20 20 30 20 20 30 20 20 30 20 20 30 20 20 30 20 20 30 20 20 30 20 20 30 20 20 30 20 20 30 20 20 30 20 20 30 20 20 30 20 20 30 20 20 30 20 20 30 20 20 30 20 20 30 20 20 30 20 20 30 20 20 30 20 20 30 20 20 30 20 20 30 20 20 30 20 20 30 20 20 30 20 20 30 20 20 30 20 20 30 20 20 30 20 20 30 20 20 30 20 20 30 20 20 30 20 20 30 20 20 30 20 20 30 20 20 30 20 20 30 20 20 30 20 20 30 20 20 30 20 20 30 20 20 30 20 20 30 20 20 30 20 20 30 20 20 30 20 20 30 20 20 30 20 20 30 20 20 30 20 20 30 20 20 30 20 20 30 20 20 30 20 20 30 20 20 30 20 20 30 20 20 30 20 20 30 20 20 30 20 20 30 20 20 30 20 20 30 20 20 30 20 20 30 20 20 30 20 20 30 20 20 30 20 20 30 20 20 30 20 20 30 20 20 30 20 20 30 20 20 30 20 20 30 20 20 30 20 20 30 20 20 30 20 20 30 20 20 30 20 20 30 20 20 30 20 20 30 20 20 30 20 20 30 20 20 30 20 20 30 20 20 30 20 20 30 20 20 30 20 20 30 20 20 30 20 20 30 20 20 30 20 20 30 20 20 30 20 20 30 20 20 30 20 20 30 20 20 30 20 20 30 20 20 30 20 20 30 20 20 30 20 20 30 20 20 30 20 20 30 20 20 30 20 20 30 20 20 30 20 20 30 20 20 30 20 20 30 20 20 30 20 20 30 20 20 30 20 20 30 20 20 30 20 20 30 20 20 30 20 20 30 20 20 30 20 20 30 20 20 30 20 20 30 20 20 30 20 20 30 20 20 30 20 20 30 20 20 30 20 20 30 20 20 30 20 20 30 20 20 30 20 20 30 20 20 30 20 20 30 20 20 30 20 20 30 20 20 30 20 20 30 20 20 30 20 20 30 20 20 30 20 20 30 20 20 30 20 20 30 20 20 30 20 20 30 20 20 30 20 20 30 20 20 30 20 20 30 20 20 30 20 20 30 20 20 30 20 20 30 20 20 30 20 20 30 20 20 30 20 20 30 20 20 30 20 20 30 20 20 30 20 20 30 20 20 30 20 20 30 20 20 30 20 20 30 20 20 30 20 20 30 0 255 0 20 20 30 20 20 30 20 20 30 20 20 30 20 20 30 20 20 30 20 20 30 20 20 30 20 20 30 20 20 30 20 20 30 20 20 30 20 20 30 20 20 30 20 20 30 20 20 30 
20 20 30 20 20 30 20 20 30 20 20 30 20 20 30 20 20 30 20 20 30 20 20 30 20 20 30 20 20 30 20 20 30 20 20 30 20 20 30 20 20 30 20 20 30 20 20 30 20 20 30 255 0 0 20 20 30 20 20 30 20 20 30 20 20 30 20 20 30 20 20 30 20 20 30 20 20 30 20 20 30 20 20 30 20 20 30 20 20 30 20 20 30 20 20 30 20 20 30 20 20 30 20 20 30 20 20 30 20 20 30 20 20 30 20 20 30 20 20 30 20 20 30 20 20 30 20 20 30 20 20 30 20 20 30 20 20 30 20 20 30 20 20 30 20 20 30 20 20 30 20 20 30 20 20 30 20 20 30 20 20 30 20 20 30 20 20 30 20 20 30 20 20 30 20 20 30 20 20 30 20 20 30 20 20 30 20 20 30 20 20 30 20 20 30 20 20 30 20 20 30 20 20 30 20 20 30 20 20 30 20 20 30 20 20 30 20 20 30 20 20 30 20 20 30 20 20 30 20 20 30 20 20 30 20 20 30 20 20 30 20 20 30 20 20 30 20 20 30 20 20 30 20 20 30 20 20 30 20 20 30 20 20 30 20 20 30 20 20 30 20 20 30 20 20 30 20 20 30 20 20 30 20 20 30 20 20 30 20 20 30 20 20 30 20 20 30 20 20 30 20 20 30 20 20 30 20 20 30 20 20 30 20 20 30 20 20 30 20 20 30 20 20 30 20 20 30 20 20 30 20 20 30 20 20 30 20 20 30 20 20 30 20 20 30 20 20 30 20 20 30 20 20 30 20 20 30 20 20 30 20 20 30 20 20 30 20 20 30 20 20 30 20 20 30 20 20 30 20 20 30 20 20 30 20 20 30 20 20 30 20 20 30 20 20 30 20 20 30 20 20 30 20 20 30 20 20 30 20 20 30 20 20 30 20 20 30 20 20 30 20 20 30 20 20 30 20 20 30 20 20 30 20 20 30 20 20 30 20 20 30 20 20 30 20 20 30 20 20 30 20 20 30 20 20 30 20 20 30 20 20 30 20 20 30 20 20 30 20 20 30 20 20 30 20 20 30 20 20 30 20 20 30 20 20 30 20 20 30 20 20 30 20 20 30 20 20 30 20 20 30 20 20 30 20 20 30 20 20 30 20 20 30 20 20 30 20 20 30 20 20 30 20 20 30 20 20 30 20 20 30 20 20 30 20 20 30 20 20 30 20 20 30 20 20 30 20 20 30 20 20 30 20 20 30 20 20 30 20 20 30 20 20 30 20 20 30 20 20 30 20 20 30 20 20 30 20 20 30 20 20 30 20 20 30 20 20 30 20 20 30 20 20 30 20 20 30 20 20 30 20 20 30 20 20 30 20 20 30 20 20 30 20 20 30 20 20 30 20 20 30 20 20 30 20 20 30 20 20 30 20 20 30 20 20 30 20 20 30 20 20 30 20 20 30 20 20 30 20 20 30 20 20 30 20 20 30 20 20 30 20 20 30 20 20 30 20 20 30 20 20 30 20 20 30 20 20 30 20 20 30 20 20 30 20 20 30 20 20 30 20 20 30 20 20 30 20 20 30 20 20 30 20 20 30 20 20 30 20 20 30 20 20 30 0 255 0 20 20 30 20 20 30 20 20 30 20 20 30 20 20 30 20 20 30 20 20 30 20 20 30 20 20 30 20 20 30 20 20 30 20 20 30 20 20 30 20 20 30 20 20 30 20 20 30 20 20 30 
20 20 30 20 20 30 20 20 30 20 20 30 20 20 30 20 20 30 20 20 30 20 20 30 20 20 30 20 20 30 20 20 30 20 20 30 20 20 30 20 20 30 20 20 30 20 20 30 20 20 30 20 20 30 255 0 0 20 20 30 20 20 30 20 20 30 20 20 30 20 20 30 20 20 30 20 20 30 20 20 30 20 20 30 20 20 30 20 20 30 20 20 30 20 20 30 20 20 30 20 20 30 20 20 30 20 20 30 20 20 30 20 20 30 20 20 30 20 20 30 20 20 30 20 20 30 20 20 30 20 20 30 20 20 30 20 20 30 20 20 30 20 20 30 20 20 30 20 20 30 20 20 30 20 20 30 20 20 30 20 20 30 20 20 30 20 20 30 20 20 30 20 20 30 20 20 30 20 20 30 20 20 30 20 20 30 20 20 30 20 20 30 20 20 30 20 20 30 20 20 30 20 20 30 20 20 30 20 20 30 20 20 30 20 20 30 20 20 30 20 20 30 20 20 30 20 20 30 20 20 30 20 20 30 20 20 30 20 20 30 20 20 30 20 20 30 20 20 30 20 20 30 20 20 30 20 20 30 20 20 30 20 20 30 20 20 30 20 20 30 20 20 30 20 20 30 20 20 30 20 20 30 20 20 30 20 20 30 20 20 30 20 20 30 20 20 30 20 20 30 20 20 30 20 20 30 20 20 30 20 20 30 20 20 30 20 20 30 20 20 30 20 20 30 20 20 30 20 20 30 20 20 30 20 20 30 20 20 30 20 20 30 20 20 30 20 20 30 20 20 30 20 20 30 20 20 30 20 20 30 20 20 30 20 20 30 20 20 30 20 20 30 20 20 30 20 20 30 20 20 30 20 20 30 20 20 30 20 20 30 20 20 30 20 20 30 20 20 30 20 20 30 20 20 30 20 20 30 20 20 30 20 20 30 20 20 30 20 20 30 20 20 30 20 20 30 20 20 30 20 20 30 20 20 30 20 20 30 20 20 30 20 20 30 20 20 30 20 20 30 20 20 30 20 20 30 20 20 30 20 20 30 20 20 30 20 20 30 20 20 30 20 20 30 20 20 30 20 20 30 20 20 30 20 20 30 20 20 30 20 20 30 20 20 30 20 20 30 20 20 30 20 20 30 20 20 30 20 20 30 20 20 30 20 20 30 20 20 30 20 20 30 20 20 30 20 20 30 20 20 30 20 20 30 20 20 30 20 20 30 20 20 30 20 20 30 20 20 30 20 20 30 20 20 30 20 20 30 20 20 30 20 20 30 20 20 30 20 20 30 20 20 30 20 20 30 20 20 30 20 20 30 20 20 30 20 20 30 20 20 30 20 20 30 20 20 30 20 20 30 20 20 30 20 20 30 20 20 30 20 20 30 20 20 30 20 20 30 20 20 30 20 20 30 20 20 30 20 20 30 20 20 30 20 20 30 20 20 30 20 20 30 20 20 30 20 20 30 20 20 30 20 20 30 20 20 30 20 20 30 20 20 30 20 20 30 20 20 30 20 20 30 20 20 30 20 20 30 20 20 30 20 20 30 20 20 30 20 20 30 20 20 30 20 20 30 20 20 30 20 20 30 20 20 30 20 20 30 20 20 30 0 255 0 20 20 30 20 20 30 20 20 30 20 20 30 20 20 30 20 20 30 20 20 30 20 20 30 20 20 30 20 20 30 20 20 30 20 20 30 20 20 30 20 20 30 20 20 30 20 20 30 20 20 30 20 20 30 
20 20 30 20 20 30 20 20 30 20 20 30 20 20 30 20 20 30 20 20 30 20 20 30 20 20 30 20 20 30 20 20 30 20 20 30 20 20 30 20 20 30 20 20 30 20 20 30 20 20 30 20 20 30 20 20 30 255 0 0 20 20 30 20 20 30 20 20 30 20 20 30 20 20 30 20 20 30 20 20 30 20 20 30 20 20 30 20 20 30 20 20 30 20 20 30 20 20 30 20 20 30 20 20 30 20 20 30 20 20 30 20 20 30 20 20 30 20 20 30 20 20 30 20 20 30 20 20 30 20 20 30 20 20 30 20 20 30 20 20 30 20 20 30 20 20 30 20 20 30 20 20 30 20 20 30 20 20 30 20 20 30 20 20 30 20 20 30 20 20 30 20 20 30 20 20 30 20 20 30 20 20 30 20 20 30 20 20 30 20 20 30 20 20 30 20 20 30 20 20 30 20 20 30 20 20 30 20 20 30 20 20 30 20 20 30 20 20 30 20 20 30 20 20 30 20 20 30 20 20 30 20 20 30 20 20 30 20 20 30 20 20 30 20 20 30 20 20 30 20 20 30 20 20 30 20 20 30 20 20 30 20 20 30 20 20 30 20 20 30 20 20 30 20 20 30 20 20 30 20 20 30 20 20 30 20 20 30 20 20 30 20 20 30 20 20 30 20 20 30 20 20 30 20 20 30 20 20 30 20 20 30 20 20 30 20 20 30 20 20 30 20 20 30 20 20 30 20 20 30 20 20 30 20 20 30 20 20 30 20 20 30 20 20 30 20 20 30 20 20 30 20 20 30 20 20 30 20 20 30 20 20 30 20 20 30 20 20 30 20 20 30 20 20 30 20 20 30 20 20 30 20 20 30 20 20 30 20 20 30 20 20 30 20 20 30 20 20 30 20 20 30 20 20 30 20 20 30 20 20 30 20 20 30 20 20 30 20 20 30 20 20 30 20 20 30 20 20 30 20 20 30 20 20 30 20 20 30 20 20 30 20 20 30 20 20 30 20 20 30 20 20 30 20 20 30 20 20 30 20 20 30 20 20 30 20 20 30 20 20 30 20 20 30 20 20 30 20 20 30 20 20 30 20 20 30 20 20 30 20 20 30 20 20 30 20 20 30 20 20 30 20 20 30 20 20 30 20 20 30 20 20 30 20 20 30 20 20 30 20 20 30 20 20 30 20 20 30 20 20 30 20 20 30 20 20 30 20 20 30 20 20 30 20 20 30 20 20 30 20 20 30 20 20 30 20 20 30 20 20 30 20 20 30 20 20 30 20 20 30 20 20 30 20 20 30 20 20 30 20 20 30 20 20 30 20 20 30 20 20 30 20 20 30 20 20 30 20 20 30 20 20 30 20 20 30 20 20 30 20 20 30 20 20 30 20 20 30 20 20 30 20 20 30 20 20 30 20 20 30 20 20 30 20 20 30 20 20 30 20 20 30 20 20 30 20 20 30 20 20 30 20 20 30 20 20 30 20 20 30 20 20 30 20 20 30 20 20 30 20 20 30 20 20 30 20 20 30 20 20 30 20 20 30 20 20 30 20 20 30 20 20 30 20 20 30 20 20 30 20 20 30 20 20 30 20 20 30 0 255 0 20 20 30 20 20 30 20 20 30 20 20 30 20 20 30 20 20 30 20 20 30 20 20 30 20 20 30 20 20 30 20 20 30 20 20 30 20 20 30 20 20 30 20 20 30 20 20 30 20 20 30 20 20 30 20 20 30 
20 20 30 20 20 30 20 20 30 20 20 30 20 20 30 20 20 30 20 20 30 20 20 30 20 20 30 20 20 30 20 20 30 20 20 30 20 20 30 20 20 30 20 20 30 20 20 30 20 20 30 20 20 30 20 20 30 20 20 30 255 255 0 255 255 0 255 255 0 255 255 0 255 255 0 255 255 0 255 255 0 255 255 0 255 255 0 255 255 0 255 255 0 255 255 0 255 255 0 255 255 0 255 255 0 255 255 0 255 255 0 255 255 0 255 255 0 255 255 0 255 255 0 255 255 0 255 255 0 255 255 0 255 255 0 255 255 0 255 255 0 255 255 0 255 255 0 255 255 0 255 255 0 255 255 0 255 255 0 255 255 0 255 255 0 255 255 0 255 255 0 255 255 0 255 255 0 255 255 0 255 255 0 255 255 0 255 255 0 255 255 0 255 255 0 255 255 0 255 255 0 255 255 0 255 255 0 255 255 0 255 255 0 255 255 0 255 255 0 255 255 0 255 255 0 255 255 0 255 255 0 255 255 0 255 255 0 255 255 0 255 255 0 255 255 0 255 255 0 255 255 0 255 255 0 255 255 0 255 255 0 255 255 0 255 255 0 255 255 0 255 255 0 255 255 0 255 255 0 255 255 0 255 255 0 255 255 0 255 255 0 255 255 0 255 255 0 255 255 0 255 255 0 20 20 30 20 20 30 20 20 30 20 20 30 20 20 30 20 20 30 20 20 30 20 20 30 20 20 30 20 20 30 20 20 30 20 20 30 20 20 30 20 20 30 20 20 30 20 20 30 20 20 30 20 20 30 20 20 30 20 20 30 20 20 30 20 20 30 20 20 30 20 20 30 20 20 30 20 20 30 20 20 30 20 20 30 20 20 30 20 20 30 20 20 30 20 20 30 20 20 30 20 20 30 20 20 30 20 20 30 20 20 30 20 20 30 20 20 30 20 20 30 20 20 30 20 20 30 20 20 30 20 20 30 20 20 30 20 20 30 20 20 30 20 20 30 20 20 30 20 20 30 20 20 30 20 20 30 20 20 30 20 20 30 20 20 30 20 20 30 20 20 30 20 20 30 20 20 30 20 20 30 20 20 30 20 20 30 20 20 30 20 20 30 20 20 30 20 20 30 20 20 30 20 20 30 20 20 30 20 20 30 20 20 30 20 20 30 20 20 30 20 20 30 20 20 30 20 20 30 20 20 30 20 20 30 20 20 30 20 20 30 20 20 30 20 20 30 20 20 30 20 20 30 20 20 30 20 20 30 20 20 30 20 20 30 20 20 30 20 20 30 20 20 30 20 20 30 20 20 30 20 20 30 20 20 30 20 20 30 20 20 30 20 20 30 20 20 30 20 20 30 20 20 30 20 20 30 20 20 30 20 20 30 20 20 30 20 20 30 20 20 30 20 20 30 20 20 30 20 20 30 20 20 30 20 20 30 20 20 30 20 20 30 20 20 30 20 20 30 20 20 30 20 20 30 20 20 30 20 20 30 20 20 30 20 20 30 20 20 30 20 20 30 20 20 30 20 20 30 20 20 30 20 20 30 20 20 30 20 20 30 20 20 30 20 20 30 20 20 30 20 20 30 0 255 0 20 20 30 20 20 30 20 20 30 20 20 30 20 20 30 20 20 30 20 20 30 20 20 30 20 20 30 20 20 30 20 20 30 20 20 30 20 20 30 20 20 30 20 20 30 20 20 30 20 20 30 20 20 30 20 20 30 20 20 30 
20 20 30 20 20 30 20 20 30 20 20 30 20 20 30 20 20 30 20 20 30 20 20 30 20 20 30 20 20 30 20 20 30 20 20 30 20 20 30 20 20 30 20 20 30 20 20 30 20 20 30 20 20 30 20 20 30 20 20 30 255 255 0 255 0 0 20 20 30 20 20 30 20 20 30 20 20 30 20 20 30 20 20 30 20 20 30 20 20 30 20 20 30 20 20 30 20 20 30 20 20 30 20 20 30 20 20 30 20 20 30 20 20 30 20 20 30 20 20 30 20 20 30 20 20 30 20 20 30 20 20 30 20 20 30 20 20 30 20 20 30 20 20 30 20 20 30 20 20 30 20 20 30 20 20 30 20 20 30 20 20 30 20 20 30 20 20 30 20 20 30 20 20 30 20 20 30 20 20 30 20 20 30 20 20 30 20 20 30 20 20 30 20 20 30 20 20 30 20 20 30 20 20 30 20 20 30 20 20 30 20 20 30 20 20 30 20 20 30 20 20 30 20 20 30 20 20 30 20 20 30 20 20 30 20 20 30 20 20 30 20 20 30 20 20 30 20 20 30 20 20 30 20 20 30 20 20 30 20 20 30 20 20 30 20 20 30 20 20 30 20 20 30 20 20 30 20 20 30 20 20 30 20 20 30 20 20 30 20 20 30 20 20 30 20 20 30 20 20 30 255 255 0 20 20 30 20 20 30 20 20 30 20 20 30 20 20 30 20 20 30 20 20 30 20 20 30 20 20 30 20 20 30 20 20 30 20 20 30 20 20 30 20 20 30 20 20 30 20 20 30 20 20 30 20 20 30 20 20 30 20 20 30 20 20 30 20 20 30 20 20 30 20 20 30 20 20 30 20 20 30 20 20 30 20 20 30 20 20 30 20 20 30 20 20 30 20 20 30 20 20 30 20 20 30 20 20 30 20 20 30 20 20 30 20 20 30 20 20 30 20 20 30 20 20 30 20 20 30 20 20 30 20 20 30 20 20 30 20 20 30 20 20 30 20 20 30 20 20 30 20 20 30 20 20 30 20 20 30 20 20 30 20 20 30 20 20 30 20 20 30 20 20 30 20 20 30 20 20 30 20 20 30 20 20 30 20 20 30 20 20 30 20 20 30 20 20 30 20 20 30 20 20 30 20 20 30 20 20 30 20 20 30 20 20 30 20 20 30 20 20 30 20 20 30 20 20 30 20 20 30 20 20 30 20 20 30 20 20 30 20 20 30 20 20 30 20 20 30 20 20 30 20 20 30 20 20 30 20 20 30 20 20 30 20 20 30 20 20 30 20 20 30 20 20 30 20 20 30 20 20 30 20 20 30 20 20 30 20 20 30 20 20 30 20 20 30 20 20 30 20 20 30 20 20 30 20 20 30 20 20 30 20 20 30 20 20 30 20 20 30 20 20 30 20 20 30 20 20 30 20 20 30 20 20 30 20 20 30 20 20 30 20 20 30 20 20 30 20 20 30 20 20 30 20 20 30 20 20 30 20 20 30 20 20 30 20 20 30 20 20 30 20 20 30 20 20 30 20 20 30 20 20 30 20 20 30 20 20 30 20 20 30 20 20 30 20 20 30 20 20 30 0 255 0 20 20 30 20 20 30 20 20 30 20 20 30 20 20 30 20 20 30 20 20 30 20 20 30 20 20 30 20 20 30 20 20 30 20 20 30 20 20 30 20 20 30 20 20 30 20 20 30 20 20 30 20 20 30 20 20 30 20 20 30 20 20 30 
20 20 30 20 20 30 20 20 30 20 20 30 20 20 30 20 20 30 20 20 30 20 20 30 20 20 30 20 20 30 20 20 30 20 20 30 20 20 30 20 20 30 20 20 30 20 20 30 20 20 30 20 20 30 20 20 30 20 20 30 255 255 0 20 20 30 255 0 0 20 20 30 20 20 30 20 20 30 20 20 30 20 20 30 20 20 30 20 20 30 20 20 30 20 20 30 20 20 30 20 20 30 20 20 30 20 20 30 20 20 30 20 20 30 20 20 30 20 20 30 20 20 30 20 20 30 20 20 30 20 20 30 20 20 30 20 20 30 20 20 30 20 20 30 20 20 30 20 20 30 20 20 30 20 20 30 20 20 30 20 20 30 20 20 30 20 20 30 20 20 30 20 20 30 20 20 30 20 20 30 20 20 30 20 20 30 20 20 30 20 20 30 20 20 30 20 20 30 20 20 30 20 20 30 20 20 30 20 20 30 20 20 30 20 20 30 20 20 30 20 20 30 20 20 30 20 20 30 20 20 30 20 20 30 20 20 30 20 20 30 20 20 30 20 20 30 20 20 30 20 20 30 20 20 30 20 20 30 20 20 30 20 20 30 20 20 30 20 20 30 20 20 30 20 20 30 20 20 30 20 20 30 20 20 30 20 20 30 20 20 30 20 20 30 20 20 30 20 20 30 255 255 0 20 20 30 20 20 30 20 20 30 20 20 30 20 20 30 20 20 30 20 20 30 20 20 30 20 20 30 20 20 30 20 20 30 20 20 30 20 20 30 20 20 30 20 20 30 20 20 30 20 20 30 20 20 30 20 20 30 20 20 30 20 20 30 20 20 30 20 20 30 20 20 30 20 20 30 20 20 30 20 20 30 20 20 30 20 20 30 20 20 30 20 20 30 20 20 30 20 20 30 20 20 30 20 20 30 20 20 30 20 20 30 20 20 30 20 20 30 20 20 30 20 20 30 20 20 30 20 20 30 20 20 30 20 20 30 20 20 30 20 20 30 20 20 30 20 20 30 20 20 30 20 20 30 20 20 30 20 20 30 20 20 30 20 20 30 20 20 30 20 20 30 20 20 30 20 20 30 20 20 30 20 20 30 20 20 30 20 20 30 20 20 30 20 20 30 20 20 30 20 20 30 20 20 30 20 20 30 20 20 30 20 20 30 20 20 30 20 20 30 20 20 30 20 20 30 20 20 30 20 20 30 20 20 30 20 20 30 20 20 30 20 20 30 20 20 30 20 20 30 20 20 30 20 20 30 20 20 30 20 20 30 20 20 30 20 20 30 20 20 30 20 20 30 20 20 30 20 20 30 20 20 30 20 20 30 20 20 30 20 20 30 20 20 30 20 20 30 20 20 30 20 20 30 20 20 30 20 20 30 20 20 30 20 20 30 20 20 30 20 20 30 20 20 30 20 20 30 20 20 30 20 20 30 20 20 30 20 20 30 20 20 30 20 20 30 20 20 30 20 20 30 20 20 30 20 20 30 20 20 30 20 20 30 20 20 30 20 20 30 20 20 30 20 20 30 20 20 30 20 20 30 20 20 30 20 20 30 20 20 30 20 20 30 20 20 30 0 255 0 20 20 30 20 20 30 20 20 30 20 20 30 20 20 30 20 20 30 20 20 30 20 20 30 20 20 30 20 20 30 20 20 30 20 20 30 20 20 30 20 20 30 20 20 30 20 20 30 20 20 30 20 20 30 20 20 30 20 20 30 20 20 30 20 20 30 
20 20 30 20 20 30 20 20 30 20 20 30 20 20 30 20 20 30 20 20 30 20 20 30 20 20 30 20 20 30 20 20 30 20 20 30 20 20 30 20 20 30 20 20 30 20 20 30 20 20 30 20 20 30 20 20 30 20 20 30 255 255 0 20 20 30 20 20 30 255 0 0 20 20 30 20 20 30 20 20 30 20 20 30 20 20 30 20 20 30 20 20 30 20 20 30 20 20 30 20 20 30 20 20 30 20 20 30 20 20 30 20 20 30 20 20 30 20 20 30 20 20 30 20 20 30 20 20 30 20 20 30 20 20 30 20 20 30 20 20 30 20 20 30 20 20 30 20 20 30 20 20 30 20 20 30 20 20 30 20 20 30 20 20 30 20 20 30 20 20 30 20 20 30 20 20 30 20 20 30 20 20 30 20 20 30 20 20 30 20 20 30 20 20 30 20 20 30 20 20 30 20 20 30 20 20 30 20 20 30 20 20 30 20 20 30 20 20 30 20 20 30 20 20 30 20 20 30 20 20 30 20 20 30 20 20 30 20 20 30 20 20 30 20 20 30 20 20 30 20 20 30 20 20 30 20 20 30 20 20 30 20 20 30 20 20 30 20 20 30 20 20 30 20 20 30 20 20 30 20 20 30 20 20 30 20 20 30 20 20 30 20 20 30 20 20 30 20 20 30 255 255 0 20 20 30 20 20 30 20 20 30 20 20 30 20 20 30 20 20 30 20 20 30 20 20 30 20 20 30 20 20 30 20 20 30 20 20 30 20 20 30 20 20 30 20 20 30 20 20 30 20 20 30 20 20 30 20 20 30 20 20 30 20 20 30 20 20 30 20 20 30 20 20 30 20 20 30 20 20 30 20 20 30 20 20 30 20 20 30 20 20 30 20 20 30 20 20 30 20 20 30 20 20 30 20 20 30 20 20 30 20 20 30 20 20 30 20 20 30 20 20 30 20 20 30 20 20 30 20 20 30 20 20 30 20 20 30 20 20 30 20 20 30 20 20 30 20 20 30 20 20 30 20 20 30 20 20 30 20 20 30 20 20 30 20 20 30 20 20 30 20 20 30 20 20 30 20 20 30 20 20 30 20 20 30 20 20 30 20 20 30 20 20 30 20 20 30 20 20 30 20 20 30 20 20 30 20 20 30 20 20 30 20 20 30 20 20 30 20 20 30 20 20 30 20 20 30 20 20 30 20 20 30 20 20 30 20 20 30 20 20 30 20 20 30 20 20 30 20 20 30 20 20 30 20 20 30 20 20 30 20 20 30 20 20 30 20 20 30 20 20 30 20 20 30 20 20 30 20 20 30 20 20 30 20 20 30 20 20 30 20 20 30 20 20 30 20 20 30 20 20 30 20 20 30 20 20 30 20 20 30 20 20 30 20 20 30 20 20 30 20 20 30 20 20 30 20 20 30 20 20 30 20 20 30 20 20 30 20 20 30 20 20 30 20 20 30 20 20 30 20 20 30 20 20 30 20 20 30 20 20 30 20 20 30 20 20 30 20 20 30 20 20 30 20 20 30 20 20 30 20 20 30 20 20 30 20 20 30 20 20 30 20 20 30 0 255 0 20 20 30 20 20 30 20 20 30 20 20 30 20 20 30 20 20 30 20 20 30 20 20 30 20 20 30 20 20 30 20 20 30 20 20 30 20 20 30 20 20 30 20 20 30 20 20 30 20 20 30 20 20 30 20 20 30 20 20 30 20 20 30 20 20 30 20 20 30 
20 20 30 20 20 30 20 20 30 20 20 30 20 20 30 20 20 30 20 20 30 20 20 30 20 20 30 20 20 30 20 20 30 20 20 30 20 20 30 20 20 30 20 20 30 20 20 30 20 20 30 20 20 30 20 20 30 20 20 30 255 255 0 20 20 30 20 20 30 20 20 30 255 0 0 20 20 30 20 20 30 20 20 30 20 20 30 20 20 30 20 20 30 20 20 30 20 20 30 20 20 30 20 20 30 20 20 30 20 20 30 20 20 30 20 20 30 20 20 30 20 20 30 20 20 30 20 20 30 20 20 30 20 20 30 20 20 30 20 20 30 20 20 30 20 20 30 20 20 30 20 20 30 20 20 30 20 20 30 20 20 30 20 20 30 20 20 30 20 20 30 20 20 30 20 20 30 20 20 30 20 20 30 20 20 30 20 20 30 20 20 30 20 20 30 20 20 30 20 20 30 20 20 30 20 20 30 20 20 30 20 20 30 20 20 30 20 20 30 20 20 30 20 20 30 20 20 30 20 20 30 20 20 30 20 20 30 20 20 30 20 20 30 20 20 30 20 20 30 20 20 30 20 20 30 20 20 30 20 20 30 20 20 30 20 20 30 20 20 30 20 20 30 20 20 30 20 20 30 20 20 30 20 20 30 20 20 30 20 20 30 20 20 30 20 20 30 20 20 30 255 255 0 20 20 30 20 20 30 20 20 30 20 20 30 20 20 30 20 20 30 20 20 30 20 20 30 20 20 30 20 20 30 20 20 30 20 20 30 20 20 30 20 20 30 20 20 30 20 20 30 20 20 30 20 20 30 20 20 30 20 20 30 20 20 30 20 20 30 20 20 30 20 20 30 20 20 30 20 20 30 20 20 30 20 20 30 20 20 30 20 20 30 20 20 30 20 20 30 20 20 30 20 20 30 20 20 30 20 20 30 20 20 30 20 20 30 20 20 30 20 20 30 20 20 30 20 20 30 20 20 30 20 20 30 20 20 30 20 20 30 20 20 30 20 20 30 20 20 30 20 20 30 20 20 30 20 20 30 20 20 30 20 20 30 20 20 30 20 20 30 20 20 30 20 20 30 20 20 30 20 20 30 20 20 30 20 20 30 20 20 30 20 20 30 20 20 30 20 20 30 20 20 30 20 20 30 20 20 30 20 20 30 20 20 30 20 20 30 20 20 30 20 20 30 20 20 30 20 20 30 20 20 30 20 20 30 20 20 30 20 20 30 20 20 30 20 20 30 20 20 30 20 20 30 20 20 30 20 20 30 20 20 30 20 20 30 20 20 30 20 20 30 20 20 30 20 20 30 20 20 30 20 20 30 20 20 30 20 20 30 20 20 30 20 20 30 20 20 30 20 20 30 20 20 30 20 20 30 20 20 30 20 20 30 20 20 30 20 20 30 20 20 30 20 20 30 20 20 30 20 20 30 20 20 30 20 20 30 20 20 30 20 20 30 20 20 30 20 20 30 20 20 30 20 20 30 20 20 30 20 20 30 20 20 30 20 20 30 20 20 30 20 20 30 20 20 30 20 20 30 20 20 30 20 20 30 20 20 30 20 20 30 0 255 0 20 20 30 20 20 30 20 20 30 20 20 30 20 20 30 20 20 30 20 20 30 20 20 30 20 20 30 20 20 30 20 20 30 20 20 30 20 20 30 20 20 30 20 20 30 20 20 30 20 20 30 20 20 30 20 20 30 20 20 30 20 20 30 20 20 30 20 20 30 20 20 30 
20 20 30 20 20 30 20 20 30 20 20 30 20 20 30 20 20 30 20 20 30 20 20 30 20 20 30 20 20 30 20 20 30 20 20 30 20 20 30 20 20 30 20 20 30 20 20 30 20 20 30 20 20 30 20 20 30 20 20 30 255 255 0 20 20 30 20 20 30 20 20 30 20 20 30 255 0 0 20 20 30 20 20 30 20 20 30 20 20 30 20 20 30 20 20 30 20 20 30 20 20 30 20 20 30 20 20 30 20 20 30 20 20 30 20 20 30 20 20 30 20 20 30 20 20 30 20 20 30 20 20 30 20 20 30 20 20 30 20 20 30 20 20 30 20 20 30 20 20 30 20 20 30 20 20 30 20 20 30 20 20 30 20 20 30 20 20 30 20 20 30 20 20 30 20 20 30 20 20 30 20 20 30 20 20 30 20 20 30 20 20 30 20 20 30 20 20 30 20 20 30 20 20 30 20 20 30 20 20 30 20 20 30 20 20 30 20 20 30 20 20 30 20 20 30 20 20 30 20 20 30 20 20 30 20 20 30 20 20 30 20 20 30 20 20 30 20 20 30 20 20 30 20 20 30 20 20 30 20 20 30 20 20 30 20 20 30 20 20 30 20 20 30 20 20 30 20 20 30 20 20 30 20 20 30 20 20 30 20 20 30 20 20 30 20 20 30 20 20 30 255 255 0 20 20 30 20 20 30 20 20 30 20 20 30 20 20 30 20 20 30 20 20 30 20 20 30 20 20 30 20 20 30 20 20 30 20 20 30 20 20 30 20 20 30 20 20 30 20 20 30 20 20 30 20 20 30 20 20 30 20 20 30 20 20 30 20 20 30 20 20 30 20 20 30 20 20 30 20 20 30 20 20 30 20 20 30 20 20 30 20 20 30 20 20 30 20 20 30 20 20 30 20 20 30 20 20 30 20 20 30 20 20 30 20 20 30 20 20 30 20 20 30 20 20 30 20 20 30 20 20 30 20 20 30 20 20 30 20 20 30 20 20 30 20 20 30 20 20 30 20 20 30 20 20 30 20 20 30 20 20 30 20 20 30 20 20 30 20 20 30 20 20 30 20 20 30 20 20 30 20 20 30 20 20 30 20 20 30 20 20 30 20 20 30 20 20 30 20 20 30 20 20 30 20 20 30 20 20 30 20 20 30 20 20 30 20 20 30 20 20 30 20 20 30 20 20 30 20 20 30 20 20 30 20 20 30 20 20 30 20 20 30 20 20 30 20 20 30 20 20 30 20 20 30 20 20 30 20 20 30 20 20 30 20 20 30 20 20 30 20 20 30 20 20 30 20 20 30 20 20 30 20 20 30 20 20 30 20 20 30 20 20 30 20 20 30 20 20 30 20 20 30 20 20 30 20 20 30 20 20 30 20 20 30 20 20 30 20 20 30 20 20 30 20 20 30 20 20 30 20 20 30 20 20 30 20 20 30 20 20 30 20 20 30 20 20 30 20 20 30 20 20 30 20 20 30 20 20 30 20 20 30 20 20 30 20 20 30 20 20 30 20 20 30 20 20 30 20 20 30 20 20 30 20 20 30 20 20 30 0 255 0 20 20 30 20 20 30 20 20 30 20 20 30 20 20 30 20 20 30 20 20 30 20 20 30 20 20 30 20 20 30 20 20 30 20 20 30 20 20 30 20 20 30 20 20 30 20 20 30 20 20 30 20 20 30 20 20 30 20 20 30 20 20 30 20 20 30 20 20 30 20 20 30 20 20 30 
20 20 30 20 20 30 20 20 30 20 20 30 20 20 30 20 20 30 20 20 30 20 20 30 20 20 30 20 20 30 20 20 30 20 20 30 20 20 30 20 20 30 20 20 30 20 20 30 20 20 30 20 20 30 20 20 30 20 20 30 255 255 0 20 20 30 20 20 30 20 20 30 20 20 30 20 20 30 255 0 0 20 20 30 20 20 30 20 20 30 20 20 30 20 20 30 20 20 30 20 20 30 20 20 30 20 20 30 20 20 30 20 20 30 20 20 30 20 20 30 20 20 30 20 20 30 20 20 30 20 20 30 20 20 30 20 20 30 20 20 30 20 20 30 20 20 30 20 20 30 20 20 30 20 20 30 20 20 30 20 20 30 20 20 30 20 20 30 20 20 30 20 20 30 20 20 30 20 20 30 20 20 30 20 20 30 20 20 30 20 20 30 20 20 30 20 20 30 20 20 30 20 20 30 20 20 30 20 20 30 20 20 30 20 20 30 20 20 30 20 20 30 20 20 30 20 20 30 20 20 30 20 20 30 20 20 30 20 20 30 20 20 30 20 20 30 20 20 30 20 20 30 20 20 30 20 20 30 20 20 30 20 20 30 20 20 30 20 20 30 20 20 30 20 20 30 20 20 30 20 20 30 20 20 30 20 20 30 20 20 30 20 20 30 20 20 30 20 20 30 255 255 0 20 20 30 20 20 30 20 20 30 20 20 30 20 20 30 20 20 30 20 20 30 20 20 30 20 20 30 20 20 30 20 20 30 20 20 30 20 20 30 20 20 30 20 20 30 20 20 30 20 20 30 20 20 30 20 20 30 20 20 30 20 20 30 20 20 30 20 20 30 20 20 30 20 20 30 20 20 30 20 20 30 20 20 30 20 20 30 20 20 30 20 20 30 20 20 30 20 20 30 20 20 30 20 20 30 20 20 30 20 20 30 20 20 30 20 20 30 20 20 30 20 20 30 20 20 30 20 20 30 20 20 30 20 20 30 20 20 30 20 20 30 20 20 30 20 20 30 20 20 30 20 20 30 20 20 30 20 20 30 20 20 30 20 20 30 20 20 30 20 20 30 20 20 30 20 20 30 20 20 30 20 20 30 20 20 30 20 20 30 20 20 30 20 20 30 20 20 30 20 20 30 20 20 30 20 20 30 20 20 30 20 20 30 20 20 30 20 20 30 20 20 30 20 20 30 20 20 30 20 20 30 20 20 30 20 20 30 20 20 30 20 20 30 20 20 30 20 20 30 20 20 30 20 20 30 20 20 30 20 20 30 20 20 30 20 20 30 20 20 30 20 20 30 20 20 30 20 20 30 20 20 30 20 20 30 20 20 30 20 20 30 20 20 30 20 20 30 20 20 30 20 20 30 20 20 30 20 20 30 20 20 30 20 20 30 20 20 30 20 20 30 20 20 30 20 20 30 20 20 30 20 20 30 20 20 30 20 20 30 20 20 30 20 20 30 20 20 30 20 20 30 20 20 30 20 20 30 20 20 30 20 20 30 20 20 30 20 20 30 20 20 30 20 20 30 20 20 30 20 20 30 20 20 30 0 255 0 20 20 30 20 20 30 20 20 30 20 20 30 20 20 30 20 20 30 20 20 30 20 20 30 20 20 30 20 20 30 20 20 30 20 20 30 20 20 30 20 20 30 20 20 30 20 20 30 20 20 30 20 20 30 20 20 30 20 20 30 20 20 30 20 20 30 20 20 30 20 20 30 20 20 30 20 20 30 
20 20 30 20 20 30 20 20 30 20 20 30 20 20 30 20 20 30 20 20 30 20 20 30 20 20 30 20 20 30 20 20 30 20 20 30 20 20 30 20 20 30 20 20 30 20 20 30 20 20 30 20 20 30 20 20 30 20 20 30 255 255 0 20 20 30 20 20 30 20 20 30 20 20 30 20 20 30 20 20 30 255 0 0 20 20 30 20 20 30 20 20 30 20 20 30 20 20 30 20 20 30 20 20 30 20 20 30 20 20 30 20 20 30 20 20 30 20 20 30 20 20 30 20 20 30 20 20 30 20 20 30 20 20 30 20 20 30 20 20 30 20 20 30 20 20 30 20 20 30 20 20 30 20 20 30 20 20 30 20 20 30 20 20 30 20 20 30 20 20 30 20 20 30 20 20 30 20 20 30 20 20 30 20 20 30 20 20 30 20 20 30 20 20 30 20 20 30 20 20 30 20 20 30 20 20 30 20 20 30 20 20 30 20 20 30 20 20 30 20 20 30 20 20 30 20 20 30 20 20 30 20 20 30 20 20 30 20 20 30 20 20 30 20 20 30 20 20 30 20 20 30 20 20 30 20 20 30 20 20 30 20 20 30 20 20 30 20 20 30 20 20 30 20 20 30 20 20 30 20 20 30 20 20 30 20 20 30 20 20 30 20 20 30 20 20 30 20 20 30 255 255 0 20 20 30 20 20 30 20 20 30 20 20 30 20 20 30 20 20 30 20 20 30 20 20 30 20 20 30 20 20 30 20 20 30 20 20 30 20 20 30 20 20 30 20 20 30 20 20 30 20 20 30 20 20 30 20 20 30 20 20 30 20 20 30 20 20 30 20 20 30 20 20 30 20 20 30 20 20 30 20 20 30 20 20 30 20 20 30 20 20 30 20 20 30 20 20 30 20 20 30 20 20 30 20 20 30 20 20 30 20 20 30 20 20 30 20 20 30 20 20 30 20 20 30 20 20 30 20 20 30 20 20 30 20 20 30 20 20 30 20 20 30 20 20 30 20 20 30 20 20 30 20 20 30 20 20 30 20 20 30 20 20 30 20 20 30 20 20 30 20 20 30 20 20 30 20 20 30 20 20 30 20 20 30 20 20 30 20 20 30 20 20 30 20 20 30 20 20 30 20 20 30 20 20 30 20 20 30 20 20 30 20 20 30 20 20 30 20 20 30 20 20 30 20 20 30 20 20 30 20 20 30 20 20 30 20 20 30 20 20 30 20 20 30 20 20 30 20 20 30 20 20 30 20 20 30 20 20 30 20 20 30 20 20 30 20 20 30 20 20 30 20 20 30 20 20 30 20 20 30 20 20 30 20 20 30 20 20 30 20 20 30 20 20 30 20 20 30 20 20 30 20 20 30 20 20 30 20 20 30 20 20 30 20 20 30 20 20 30 20 20 30 20 20 30 20 20 30 20 20 30 20 20 30 20 20 30 20 20 30 20 20 30 20 20 30 20 20 30 20 20 30 20 20 30 20 20 30 20 20 30 20 20 30 20 20 30 20 20 30 20 20 30 20 20 30 20 20 30 20 20 30 0 255 0 20 20 30 20 20 30 20 20 30 20 20 30 20 20 30 20 20 30 20 20 30 20 20 30 20 20 30 20 20 30 20 20 30 20 20 30 20 20 30 20 20 30 20 20 30 20 20 30 20 20 30 20 20 30 20 20 30 20 20 30 20 20 30 20 20 30 20 20 30 20 20 30 20 20 30 20 20 30 20 20 30 
20 20 30 20 20 30 20 20 30 20 20 30 20 20 30 20 20 30 20 20 30 20 20 30 20 20 30 20 20 30 20 20 30 20 20 30 20 20 30 20 20 30 20 20 30 20 20 30 20 20 30 20 20 30 20 20 30 20 20 30 255 255 0 20 20 30 20 20 30 20 20 30 20 20 30 20 20 30 20 20 30 20 20 30 255 0 0 20 20 30 20 20 30 20 20 30 20 20 30 20 20 30 20 20 30 20 20 30 20 20 30 20 20 30 20 20 30 20 20 30 20 20 30 20 20 30 20 20 30 20 20 30 20 20 30 20 20 30 20 20 30 20 20 30 20 20 30 20 20 30 20 20 30 20 20 30 20 20 30 20 20 30 20 20 30 20 20 30 20 20 30 20 20 30 20 20 30 20 20 30 20 20 30 20 20 30 20 20 30 20 20 30 20 20 30 20 20 30 20 20 30 20 20 30 20 20 30 20 20 30 20 20 30 20 20 30 20 20 30 20 20 30 20 20 30 20 20 30 20 20 30 20 20 30 20 20 30 20 20 30 20 20 30 20 20 30 20 20 30 20 20 30 20 20 30 20 20 30 20 20 30 20 20 30 20 20 30 20 20 30 20 20 30 20 20 30 20 20 30 20 20 30 20 20 30 20 20 30 20 20 30 20 20 30 20 20 30 20 20 30 255 255 0 20 20 30 20 20 30 20 20 30 20 20 30 20 20 30 20 20 30 20 20 30 20 20 30 20 20 30 20 20 30 20 20 30 20 20 30 20 20 30 20 20 30 20 20 30 20 20 30 20 20 30 20 20 30 20 20 30 20 20 30 20 20 30 20 20 30 20 20 30 20 20 30 20 20 30 20 20 30 20 20 30 20 20 30 20 20 30 20 20 30 20 20 30 20 20 30 20 20 30 20 20 30 20 20 30 20 20 30 20 20 30 20 20 30 20 20 30 20 20 30 20 20 30 20 20 30 20 20 30 20 20 30 20 20 30 20 20 30 20 20 30 20 20 30 20 20 30 20 20 30 20 20 30 20 20 30 20 20 30 20 20 30 20 20 30 20 20 30 20 20 30 20 20 30 20 20 30 20 20 30 20 20 30 20 20 30 20 20 30 20 20 30 20 20 30 20 20 30 20 20 30 20 20 30 20 20 30 20 20 30 20 20 30 20 20 30 20 20 30 20 20 30 20 20 30 20 20 30 20 20 30 20 20 30 20 20 30 20 20 30 20 20 30 20 20 30 20 20 30 20 20 30 20 20 30 20 20 30 20 20 30 20 20 30 20 20 30 20 20 30 20 20 30 20 20 30 20 20 30 20 20 30 20 20 30 20 20 30 20 20 30 20 20 30 20 20 30 20 20 30 20 20 30 20 20 30 20 20 30 20 20 30 20 20 30 20 20 30 20 20 30 20 20 30 20 20 30 20 20 30 20 20 30 20 20 30 20 20 30 20 20 30 20 20 30 20 20 30 20 20 30 20 20 30 20 20 30 20 20 30 20 20 30 20 20 30 20 20 30 20 20 30 20 20 30 20 20 30 0 255 0 20 20 30 20 20 30 20 20 30 20 20 30 20 20 30 20 20 30 20 20 30 20 20 30 20 20 30 20 20 30 20 20 30 20 20 30 20 20 30 20 20 30 20 20 30 20 20 30 20 20 30 20 20 30 20 20 30 20 20 30 20 20 30 20 20 30 20 20 30 20 20 30 20 20 30 20 20 30 20 20 30 20 20 30 
20 20 30 20 20 30 20 20 30 20 20 30 20 20 30 20 20 30 20 20 30 20 20 30 20 20 30 20 20 30 20 20 30 20 20 30 20 20 30 20 20 30 20 20 30 20 20 30 20 20 30 20 20 30 20 20 30 20 20 30 255 255 0 20 20 30 20 20 30 20 20 30 20 20 30 20 20 30 20 20 30 20 20 30 20 20 30 255 0 0 20 20 30 20 20 30 20 20 30 20 20 30 20 20 30 20 20 30 20 20 30 20 20 30 20 20 30 20 20 30 20 20 30 20 20 30 20 20 30 20 20 30 20 20 30 20 20 30 20 20 30 20 20 30 20 20 30 20 20 30 20 20 30 20 20 30 20 20 30 20 20 30 20 20 30 20 20 30 20 20 30 20 20 30 20 20 30 20 20 30 20 20 30 20 20 30 20 20 30 20 20 30 20 20 30 20 20 30 20 20 30 20 20 30 20 20 30 20 20 30 20 20 30 20 20 30 20 20 30 20 20 30 20 20 30 20 20 30 20 20 30 20 20 30 20 20 30 20 20 30 20 20 30 20 20 30 20 20 30 20 20 30 20 20 30 20 20 30 20 20 30 20 20 30 20 20 30 20 20 30 20 20 30 20 20 30 20 20 30 20 20 30 20 20 30 20 20 30 20 20 30 20 20 30 20 20 30 20 20 30 255 255 0 20 20 30 20 20 30 20 20 30 20 20 30 20 20 30 20 20 30 20 20 30 20 20 30 20 20 30 20 20 30 20 20 30 20 20 30 20 20 30 20 20 30 20 20 30 20 20 30 20 20 30 20 20 30 20 20 30 20 20 30 20 20 30 20 20 30 20 20 30 20 20 30 20 20 30 20 20 30 20 20 30 20 20 30 20 20 30 20 20 30 20 20 30 20 20 30 20 20 30 20 20 30 20 20 30 20 20 30 20 20 30 20 20 30 20 20 30 20 20 30 20 20 30 20 20 30 20 20 30 20 20 30 20 20 30 20 20 30 20 20 30 20 20 30 20 20 30 20 20 30 20 20 30 20 20 30 20 20 30 20 20 30 20 20 30 20 20 30 20 20 30 20 20 30 20 20 30 20 20 30 20 20 30 20 20 30 20 20 30 20 20 30 20 20 30 20 20 30 20 20 30 20 20 30 20 20 30 20 20 30 20 20 30 20 20 30 20 20 30 20 20 30 20 20 30 20 20 30 20 20 30 20 20 30 20 20 30 20 20 30 20 20 30 20 20 30 20 20 30 20 20 30 20 20 30 20 20 30 20 20 30 20 20 30 20 20 30 20 20 30 20 20 30 20 20 30 20 20 30 20 20 30 20 20 30 20 20 30 20 20 30 20 20 30 20 20 30 20 20 30 20 20 30 20 20 30 20 20 30 20 20 30 20 20 30 20 20 30 20 20 30 20 20 30 20 20 30 20 20 30 20 20 30 20 20 30 20 20 30 20 20 30 20 20 30 20 20 30 20 20 30 20 20 30 20 20 30 20 20 30 20 20 30 20 20 30 20 20 30 20 20 30 20 20 30 0 255 0 20 20 30 20 20 30 20 20 30 20 20 30 20 20 30 20 20 30 20 20 30 20 20 30 20 20 30 20 20 30 20 20 30 20 20 30 20 20 30 20 20 30 20 20 30 20 20 30 20 20 30 20 20 30 20 20 30 20 20 30 20 20 30 20 20 30 20 20 30 20 20 30 20 20 30 20 20 30 20 20 30 20 20 30 20 20 30 
20 20 30 20 20 30 20 20 30 20 20 30 20 20 30 20 20 30 20 20 30 20 20 30 20 20 30 20 20 30 20 20 30 20 20 30 20 20 30 20 20 30 20 20 30 20 20 30 20 20 30 20 20 30 20 20 30 20 20 30 255 255 0 20 20 30 20 20 30 20 20 30 20 20 30 20 20 30 20 20 30 20 20 30 20 20 30 20 20 30 255 0 0 20 20 30 20 20 30 20 20 30 20 20 30 20 20 30 20 20 30 20 20 30 20 20 30 20 20 30 20 20 30 20 20 30 20 20 30 20 20 30 20 20 30 20 20 30 20 20 30 20 20 30 20 20 30 20 20 30 20 20 30 20 20 30 20 20 30 20 20 30 20 20 30 20 20 30 20 20 30 20 20 30 20 20 30 20 20 30 20 20 30 20 20 30 20 20 30 20 20 30 20 20 30 20 20 30 20 20 30 20 20 30 20 20 30 20 20 30 20 20 30 20 20 30 20 20 30 20 20 30 20 20 30 20 20 30 20 20 30 20 20 30 20 20 30 20 20 30 20 20 30 20 20 30 20 20 30 20 20 30 20 20 30 20 20 30 20 20 30 20 20 30 20 20 30 20 20 30 20 20 30 20 20 30 20 20 30 20 20 30 20 20 30 20 20 30 20 20 30 20 20 30 20 20 30 20 20 30 255 255 0 20 20 30 20 20 30 20 20 30 20 20 30 20 20 30 20 20 30 20 20 30 20 20 30 20 20 30 20 20 30 20 20 30 20 20 30 20 20 30 20 20 30 20 20 30 20 20 30 20 20 30 20 20 30 20 20 30 20 20 30 20 20 30 20 20 30 20 20 30 20 20 30 20 20 30 20 20 30 20 20 30 20 20 30 20 20 30 20 20 30 20 20 30 20 20 30 20 20 30 20 20 30 20 20 30 20 20 30 20 20 30 20 20 30 20 20 30 20 20 30 20 20 30 20 20 30 20 20 30 20 20 30 20 20 30 20 20 30 20 20 30 20 20 30 20 20 30 20 20 30 20 20 30 20 20 30 20 20 30 20 20 30 20 20 30 20 20 30 20 20 30 20 20 30 20 20 30 20 20 30 20 20 30 20 20 30 20 20 30 20 20 30 20 20 30 20 20 30 20 20 30 20 20 30 20 20 30 20 20 30 20 20 30 20 20 30 20 20 30 20 20 30 20 20 30 20 20 30 20 20 30 20 20 30 20 20 30 20 20 30 20 20 30 20 20 30 20 20 30 20 20 30 20 20 30 20 20 30 20 20 30 20 20 30 20 20 30 20 20 30 20 20 30 20 20 30 20 20 30 20 20 30 20 20 30 20 20 30 20 20 30 20 20 30 20 20 30 20 20 30 20 20 30 20 20 30 20 20 30 20 20 30 20 20 30 20 20 30 20 20 30 20 20 30 20 20 30 20 20 30 20 20 30 20 20 30 20 20 30 20 20 30 20 20 30 20 20 30 20 20 30 20 20 30 20 20 30 20 20 30 20 20 30 20 20 30 20 20 30 20 20 30 0 255 0 20 20 30 20 20 30 20 20 30 20 20 30 20 20 30 20 20 30 20 20 30 20 20 30 20 20 30 20 20 30 20 20 30 20 20 30 20 20 30 20 20 30 20 20 30 20 20 30 20 20 30 20 20 30 20 20 30 20 20 30 20 20 30 20 20 30 20 20 30 20 20 30 20 20 30 20 20 30 20 20 30 20 20 30 20 20 30 20 20 30 
20 20 30 20 20 30 20 20 30 20 20 30 20 20 30 20 20 30 20 20 30 20 20 30 20 20 30 20 20 30 20 20 30 20 20 30 20 20 30 20 20 30 20 20 30 20 20 30 20 20 30 20 20 30 20 20 30 20 20 30 255 255 0 20 20 30 20 20 30 20 20 30 20 20 30 20 20 30 20 20 30 20 20 30 20 20 30 20 20 30 20 20 30 255 0 0 20 20 30 20 20 30 20 20 30 20 20 30 20 20 30 20 20 30 20 20 30 20 20 30 20 20 30 20 20 30 20 20 30 20 20 30 20 20 30 20 20 30 20 20 30 20 20 30 20 20 30 20 20 30 20 20 30 20 20 30 20 20 30 20 20 30 20 20 30 20 20 30 20 20 30 20 20 30 20 20 30 20 20 30 20 20 30 20 20 30 20 20 30 20 20 30 20 20 30 20 20 30 20 20 30 20 20 30 20 20 30 20 20 30 20 20 30 20 20 30 20 20 30 20 20 30 20 20 30 20 20 30 20 20 30 20 20 30 20 20 30 20 20 30 20 20 30 20 20 30 20 20 30 20 20 30 20 20 30 20 20 30 20 20 30 20 20 30 20 20 30 20 20 30 20 20 30 20 20 30 20 20 30 20 20 30 20 20 30 20 20 30 20 20 30 20 20 30 20 20 30 20 20 30 255 255 0 20 20 30 20 20 30 20 20 30 20 20 30 20 20 30 20 20 30 20 20 30 20 20 30 20 20 30 20 20 30 20 20 30 20 20 30 20 20 30 20 20 30 20 20 30 20 20 30 20 20 30 20 20 30 20 20 30 20 20 30 20 20 30 20 20 30 20 20 30 20 20 30 20 20 30 20 20 30 20 20 30 20 20 30 20 20 30 20 20 30 20 20 30 20 20 30 20 20 30 20 20 30 20 20 30 20 20 30 20 20 30 20 20 30 20 20 30 20 20 30 20 20 30 20 20 30 20 20 30 20 20 30 20 20 30 20 20 30 20 20 30 20 20 30 20 20 30 20 20 30 20 20 30 20 20 30 20 20 30 20 20 30 20 20 30 20 20 30 20 20 30 20 20 30 20 20 30 20 20 30 20 20 30 20 20 30 20 20 30 20 20 30 20 20 30 20 20 30 20 20 30 20 20 30 20 20 30 20 20 30 20 20 30 20 20 30 20 20 30 20 20 30 20 20 30 20 20 30 20 20 30 20 20 30 20 20 30 20 20 30 20 20 30 20 20 30 20 20 30 20 20 30 20 20 30 20 20 30 20 20 30 20 20 30 20 20 30 20 20 30 20 20 30 20 20 30 20 20 30 20 20 30 20 20 30 20 20 30 20 20 30 20 20 30 20 20 30 20 20 30 20 20 30 20 20 30 20 20 30 20 20 30 20 20 30 20 20 30 20 20 30 20 20 30 20 20 30 20 20 30 20 20 30 20 20 30 20 20 30 20 20 30 20 20 30 20 20 30 20 20 30 20 20 30 20 20 30 20 20 30 20 20 30 20 20 30 20 20 30 0 255 0 20 20 30 20 20 30 20 20 30 20 20 30 20 20 30 20 20 30 20 20 30 20 20 30 20 20 30 20 20 30 20 20 30 20 20 30 20 20 30 20 20 30 20 20 30 20 20 30 20 20 30 20 20 30 20 20 30 20 20 30 20 20 30 20 20 30 20 20 30 20 20 30 20 20 30 20 20 30 20 20 30 20 20 30 20 20 30 20 20 30 20 20 30 
20 20 30 20 20 30 20 20 30 20 20 30 20 20 30 20 20 30 20 20 30 20 20 30 20 20 30 20 20 30 20 20 30 20 20 30 20 20 30 20 20 30 20 20 30 20 20 30 20 20 30 20 20 30 20 20 30 20 20 30 255 255 0 20 20 30 20 20 30 20 20 30 20 20 30 20 20 30 20 20 30 20 20 30 20 20 30 20 20 30 20 20 30 20 20 30 255 0 0 20 20 30 20 20 30 20 20 30 20 20 30 20 20 30 20 20 30 20 20 30 20 20 30 20 20 30 20 20 30 20 20 30 20 20 30 20 20 30 20 20 30 20 20 30 20 20 30 20 20 30 20 20 30 20 20 30 20 20 30 20 20 30 20 20 30 20 20 30 20 20 30 20 20 30 20 20 30 20 20 30 20 20 30 20 20 30 20 20 30 20 20 30 20 20 30 20 20 30 20 20 30 20 20 30 20 20 30 20 20 30 20 20 30 20 20 30 20 20 30 20 20 30 20 20 30 20 20 30 20 20 30 20 20 30 20 20 30 20 20 30 20 20 30 20 20 30 20 20 30 20 20 30 20 20 30 20 20 30 20 20 30 20 20 30 20 20 30 20 20 30 20 20 30 20 20 30 20 20 30 20 20 30 20 20 30 20 20 30 20 20 30 20 20 30 20 20 30 20 20 30 255 255 0 20 20 30 20 20 30 20 20 30 20 20 30 20 20 30 20 20 30 20 20 30 20 20 30 20 20 30 20 20 30 20 20 30 20 20 30 20 20 30 20 20 30 20 20 30 20 20 30 20 20 30 20 20 30 20 20 30 20 20 30 20 20 30 20 20 30 20 20 30 20 20 30 20 20 30 20 20 30 20 20 30 20 20 30 20 20 30 20 20 30 20 20 30 20 20 30 20 20 30 20 20 30 20 20 30 20 20 30 20 20 30 20 20 30 20 20 30 20 20 30 20 20 30 20 20 30 20 20 30 20 20 30 20 20 30 20 20 30 20 20 30 20 20 30 20 20 30 20 20 30 20 20 30 20 20 30 20 20 30 20 20 30 20 20 30 20 20 30 20 20 30 20 20 30 20 20 30 20 20 30 20 20 30 20 20 30 20 20 30 20 20 30 20 20 30 20 20 30 20 20 30 20 20 30 20 20 30 20 20 30 20 20 30 20 20 30 20 20 30 20 20 30 20 20 30 20 20 30 20 20 30 20 20 30 20 20 30 20 20 30 20 20 30 20 20 30 20 20 30 20 20 30 20 20 30 20 20 30 20 20 30 20 20 30 20 20 30 20 20 30 20 20 30 20 20 30 20 20 30 20 20 30 20 20 30 20 20 30 20 20 30 20 20 30 20 20 30 20 20 30 20 20 30 20 20 30 20 20 30 20 20 30 20 20 30 20 20 30 20 20 30 20 20 30 20 20 30 20 20 30 20 20 30 20 20 30 20 20 30 20 20 30 20 20 30 20 20 30 20 20 30 20 20 30 20 20 30 20 20 30 20 20 30 20 20 30 0 255 0 20 20 30 20 20 30 20 20 30 20 20 30 20 20 30 20 20 30 20 20 30 20 20 30 20 20 30 20 20 30 20 20 30 20 20 30 20 20 30 20 20 30 20 20 30 20 20 30 20 20 30 20 20 30 20 20 30 20 20 30 20 20 30 20 20 30 20 20 30 20 20 30 20 20 30 20 20 30 20 20 30 20 20 30 20 20 30 20 20 30 20 20 30 20 20 30 
20 20 30 20 20 30 20 20 30 20 20 30 20 20 30 20 20 30 20 20 30 20 20 30 20 20 30 20 20 30 20 20 30 20 20 30 20 20 30 20 20 30 20 20 30 20 20 30 20 20 30 20 20 30 20 20 30 20 20 30 255 255 0 20 20 30 20 20 30 20 20 30 20 20 30 20 20 30 20 20 30 20 20 30 20 20 30 20 20 30 20 20 30 20 20 30 20 20 30 255 0 0 20 20 30 20 20 30 20 20 30 20 20 30 20 20 30 20 20 30 20 20 30 20 20 30 20 20 30 20 20 30 20 20 30 20 20 30 20 20 30 20 20 30 20 20 30 20 20 30 20 20 30 20 20 30 20 20 30 20 20 30 20 20 30 20 20 30 20 20 30 20 20 30 20 20 30 20 20 30 20 20 30 20 20 30 20 20 30 20 20 30 20 20 30 20 20 30 20 20 30 20 20 30 20 20 30 20 20 30 20 20 30 20 20 30 20 20 30 20 20 30 20 20 30 20 20 30 20 20 30 20 20 30 20 20 30 20 20 30 20 20 30 20 20 30 20 20 30 20 20 30 20 20 30 20 20 30 20 20 30 20 20 30 20 20 30 20 20 30 20 20 30 20 20 30 20 20 30 20 20 30 20 20 30 20 20 30 20 20 30 20 20 30 20 20 30 20 20 30 255 255 0 20 20 30 20 20 30 20 20 30 20 20 30 20 20 30 20 20 30 20 20 30 20 20 30 20 20 30 20 20 30 20 20 30 20 20 30 20 20 30 20 20 30 20 20 30 20 20 30 20 20 30 20 20 30 20 20 30 20 20 30 20 20 30 20 20 30 20 20 30 20 20 30 20 20 30 20 20 30 20 20 30 20 20 30 20 20 30 20 20 30 20 20 30 20 20 30 20 20 30 20 20 30 20 20 30 20 20 30 20 20 30 20 20 30 20 20 30 20 20 30 20 20 30 20 20 30 20 20 30 20 20 30 20 20 30 20 20 30 20 20 30 20 20 30 20 20 30 20 20 30 20 20 30 20 20 30 20 20 30 20 20 30 20 20 30 20 20 30 20 20 30 20 20 30 20 20 30 20 20 30 20 20 30 20 20 30 20 20 30 20 20 30 20 20 30 20 20 30 20 20 30 20 20 30 20 20 30 20 20 30 20 20 30 20 20 30 20 20 30 20 20 30 20 20 30 20 20 30 20 20 30 20 20 30 20 20 30 20 20 30 20 20 30 20 20 30 20 20 30 20 20 30 20 20 30 20 20 30 20 20 30 20 20 30 20 20 30 20 20 30 20 20 30 20 20 30 20 20 30 20 20 30 20 20 30 20 20 30 20 20 30 20 20 30 20 20 30 20 20 30 20 20 30 20 20 30 20 20 30 20 20 30 20 20 30 20 20 30 20 20 30 20 20 30 20 20 30 20 20 30 20 20 30 20 20 30 20 20 30 20 20 30 20 20 30 20 20 30 20 20 30 20 20 30 20 20 30 20 20 30 20 20 30 0 255 0 20 20 30 20 20 30 20 20 30 20 20 30 20 20 30 20 20 30 20 20 30 20 20 30 20 20 30 20 20 30 20 20 30 20 20 30 20 20 30 20 20 30 20 20 30 20 20 30 20 20 30 20 20 30 20 20 30 20 20 30 20 20 30 20 20 30 20 20 30 20 20 30 20 20 30 20 20 30 20 20 30 20 20 30 20 20 30 20 20 30 20 20 30 20 20 30 20 20 30 
20 20 30 20 20 30 20 20 30 20 20 30 20 20 30 20 20 30 20 20 30 20 20 30 20 20 30 20 20 30 20 20 30 20 20 30 20 20 30 20 20 30 20 20 30 20 20 30 20 20 30 20 20 30 20 20 30 20 20 30 255 255 0 20 20 30 20 20 30 20 20 30 20 20 30 20 20 30 20 20 30 20 20 30 20 20 30 20 20 30 20 20 30 20 20 30 20 20 30 20 20 30 255 0 0 20 20 30 20 20 30 20 20 30 20 20 30 20 20 30 20 20 30 20 20 30 20 20 30 20 20 30 20 20 30 20 20 30 20 20 30 20 20 30 20 20 30 20 20 30 20 20 30 20 20 30 20 20 30 20 20 30 20 20 30 20 20 30 20 20 30 20 20 30 20 20 30 20 20 30 20 20 30 20 20 30 20 20 30 20 20 30 20 20 30 20 20 30 20 20 30 20 20 30 20 20 30 20 20 30 20 20 30 20 20 30 20 20 30 20 20 30 20 20 30 20 20 30 20 20 30 20 20 30 20 20 30 20 20 30 20 20 30 20 20 30 20 20 30 20 20 30 20 20 30 20 20 30 20 20 30 20 20 30 20 20 30 20 20 30 20 20 30 20 20 30 20 20 30 20 20 30 20 20 30 20 20 30 20 20 30 20 20 30 20 20 30 20 20 30 255 255 0 20 20 30 20 20 30 20 20 30 20 20 30 20 20 30 20 20 30 20 20 30 20 20 30 20 20 30 20 20 30 20 20 30 20 20 30 20 20 30 20 20 30 20 20 30 20 20 30 20 20 30 20 20 30 20 20 30 20 20 30 20 20 30 20 20 30 20 20 30 20 20 30 20 20 30 20 20 30 20 20 30 20 20 30 20 20 30 20 20 30 20 20 30 20 20 30 20 20 30 20 20 30 20 20 30 20 20 30 20 20 30 20 20 30 20 20 30 20 20 30 20 20 30 20 20 30 20 20 30 20 20 30 20 20 30 20 20 30 20 20 30 20 20 30 20 20 30 20 20 30 20 20 30 20 20 30 20 20 30 20 20 30 20 20 30 20 20 30 20 20 30 20 20 30 20 20 30 20 20 30 20 20 30 20 20 30 20 20 30 20 20 30 20 20 30 20 20 30 20 20 30 20 20 30 20 20 30 20 20 30 20 20 30 20 20 30 20 20 30 20 20 30 20 20 30 20 20 30 20 20 30 20 20 30 20 20 30 20 20 30 20 20 30 20 20 30 20 20 30 20 20 30 20 20 30 20 20 30 20 20 30 20 20 30 20 20 30 20 20 30 20 20 30 20 20 30 20 20 30 20 20 30 20 20 30 20 20 30 20 20 30 20 20 30 20 20 30 20 20 30 20 20 30 20 20 30 20 20 30 20 20 30 20 20 30 20 20 30 20 20 30 20 20 30 20 20 30 20 20 30 20 20 30 20 20 30 20 20 30 20 20 30 20 20 30 20 20 30 20 20 30 20 20 30 20 20 30 20 20 30 0 255 0 20 20 30 20 20 30 20 20 30 20 20 30 20 20 30 20 20 30 20 20 30 20 20 30 20 20 30 20 20 30 20 20 30 20 20 30 20 20 30 20 20 30 20 20 30 20 20 30 20 20 30 20 20 30 20 20 30 20 20 30 20 20 30 20 20 30 20 20 30 20 20 30 20 20 30 20 20 30 20 20 30 20 20 30 20 20 30 20 20 30 20 20 30 20 20 30 20 20 30 20 20 30 
20 20 30 20 20 30 20 20 30 20 20 30 20 20 30 20 20 30 20 20 30 20 20 30 20 20 30 20 20 30 20 20 30 20 20 30 20 20 30 20 20 30 20 20 30 20 20 30 20 20 30 20 20 30 20 20 30 20 20 30 255 255 0 20 20 30 20 20 30 20 20 30 20 20 30 20 20 30 20 20 30 20 20 30 20 20 30 20 20 30 20 20 30 20 20 30 20 20 30 20 20 30 20 20 30 255 0 0 20 20 30 20 20 30 20 20 30 20 20 30 20 20 30 20 20 30 20 20 30 20 20 30 20 20 30 20 20 30 20 20 30 20 20 30 20 20 30 20 20 30 20 20 30 20 20 30 20 20 30 20 20 30 20 20 30 20 20 30 20 20 30 20 20 30 20 20 30 20 20 30 20 20 30 20 20 30 20 20 30 20 20 30 20 20 30 20 20 30 20 20 30 20 20 30 20 20 30 20 20 30 20 20 30 20 20 30 20 20 30 20 20 30 20 20 30 20 20 30 20 20 30 20 20 30 20 20 30 20 20 30 20 20 30 20 20 30 20 20 30 20 20 30 20 20 30 20 20 30 20 20 30 20 20 30 20 20 30 20 20 30 20 20 30 20 20 30 20 20 30 20 20 30 20 20 30 20 20 30 20 20 30 20 20 30 20 20 30 20 20 30 255 255 0 20 20 30 20 20 30 20 20 30 20 20 30 20 20 30 20 20 30 20 20 30 20 20 30 20 20 30 20 20 30 20 20 30 20 20 30 20 20 30 20 20 30 20 20 30 20 20 30 20 20 30 20 20 30 20 20 30 20 20 30 20 20 30 20 20 30 20 20 30 20 20 30 20 20 30 20 20 30 20 20 30 20 20 30 20 20 30 20 20 30 20 20 30 20 20 30 20 20 30 20 20 30 20 20 30 20 20 30 20 20 30 20 20 30 20 20 30 20 20 30 20 20 30 20 20 30 20 20 30 20 20 30 20 20 30 20 20 30 20 20 30 20 20 30 20 20 30 20 20 30 20 20 30 20 20 30 20 20 30 20 20 30 20 20 30 20 20 30 20 20 30 20 20 30 20 20 30 20 20 30 20 20 30 20 20 30 20 20 30 20 20 30 20 20 30 20 20 30 20 20 30 20 20 30 20 20 30 20 20 30 20 20 30 20 20 30 20 20 30 20 20 30 20 20 30 20 20 30 20 20 30 20 20 30 20 20 30 20 20 30 20 20 30 20 20 30 20 20 30 20 20 30 20 20 30 20 20 30 20 20 30 20 20 30 20 20 30 20 20 30 20 20 30 20 20 30 20 20 30 20 20 30 20 20 30 20 20 30 20 20 30 20 20 30 20 20 30 20 20 30 20 20 30 20 20 30 20 20 30 20 20 30 20 20 30 20 20 30 20 20 30 20 20 30 20 20 30 20 20 30 20 20 30 20 20 30 20 20 30 20 20 30 20 20 30 20 20 30 20 20 30 20 20 30 20 20 30 0 255 0 20 20 30 20 20 30 20 20 30 20 20 30 20 20 30 20 20 30 20 20 30 20 20 30 20 20 30 20 20 30 20 20 30 20 20 30 20 20 30 20 20 30 20 20 30 20 20 30 20 20 30 20 20 30 20 20 30 20 20 30 20 20 30 20 20 30 20 20 30 20 20 30 20 20 30 20 20 30 20 20 30 20 20 30 20 20 30 20 20 30 20 20 30 20 20 30 20 20 30 20 20 30 20 20 30 
20 20 30 20 20 30 20 20 30 20 20 30 20 20 30 20 20 30 20 20 30 20 20 30 20 20 30 20 20 30 20 20 30 20 20 30 20 20 30 20 20 30 20 20 30 20 20 30 20 20 30 20 20 30 20 20 30 20 20 30 255 255 0 20 20 30 20 20 30 20 20 30 20 20 30 20 20 30 20 20 30 20 20 30 20 20 30 20 20 30 20 20 30 20 20 30 20 20 30 20 20 30 20 20 30 20 20 30 255 0 0 20 20 30 20 20 30 20 20 30 20 20 30 20 20 30 20 20 30 20 20 30 20 20 30 20 20 30 20 20 30 20 20 30 20 20 30 20 20 30 20 20 30 20 20 30 20 20 30 20 20 30 20 20 30 20 20 30 20 20 30 20 20 30 20 20 30 20 20 30 20 20 30 20 20 30 20 20 30 20 20 30 20 20 30 20 20 30 20 20 30 20 20 30 20 20 30 20 20 30 20 20 30 20 20 30 20 20 30 20 20 30 20 20 30 20 20 30 20 20 30 20 20 30 20 20 30 20 20 30 20 20 30 20 20 30 20 20 30 20 20 30 20 20 30 20 20 30 20 20 30 20 20 30 20 20 30 20 20 30 20 20 30 20 20 30 20 20 30 20 20 30 20 20 30 20 20 30 20 20 30 20 20 30 20 20 30 20 20 30 255 255 0 20 20 30 20 20 30 20 20 30 20 20 30 20 20 30 20 20 30 20 20 30 20 20 30 20 20 30 20 20 30 20 20 30 20 20 30 20 20 30 20 20 30 20 20 30 20 20 30 20 20 30 20 20 30 20 20 30 20 20 30 20 20 30 20 20 30 20 20 30 20 20 30 20 20 30 20 20 30 20 20 30 20 20 30 20 20 30 20 20 30 20 20 30 20 20 30 20 20 30 20 20 30 20 20 30 20 20 30 20 20 30 20 20 30 20 20 30 20 20 30 20 20 30 20 20 30 20 20 30 20 20 30 20 20 30 20 20 30 20 20 30 20 20 30 20 20 30 20 20 30 20 20 30 20 20 30 20 20 30 20 20 30 20 20 30 20 20 30 20 20 30 20 20 30 20 20 30 20 20 30 20 20 30 20 20 30 20 20 30 20 20 30 20 20 30 20 20 30 20 20 30 20 20 30 20 20 30 20 20 30 20 20 30 20 20 30 20 20 30 20 20 30 20 20 30 20 20 30 20 20 30 20 20 30 20 20 30 20 20 30 20 20 30 20 20 30 20 20 30 20 20 30 20 20 30 20 20 30 20 20 30 20 20 30 20 20 30 20 20 30 20 20 30 20 20 30 20 20 30 20 20 30 20 20 30 20 20 30 20 20 30 20 20 30 20 20 30 20 20 30 20 20 30 20 20 30 20 20 30 20 20 30 20 20 30 20 20 30 20 20 30 20 20 30 20 20 30 20 20 30 20 20 30 20 20 30 20 20 30 20 20 30 20 20 30 20 20 30 20 20 30 20 20 30 0 255 0 20 20 30 20 20 30 20 20 30 20 20 30 20 20 30 20 20 30 20 20 30 20 20 30 20 20 30 20 20 30 20 20 30 20 20 30 20 20 30 20 20 30 20 20 30 20 20 30 20 20 30 20 20 30 20 20 30 20 20 30 20 20 30 20 20 30 20 20 30 20 20 30 20 20 30 20 20 30 20 20 30 20 20 30 20 20 30 20 20 30 20 20 30 20 20 30 20 20 30 20 20 30 20 20 30 20 20 30 
20 20 30 20 20 30 20 20 30 20 20 30 20 20 30 20 20 30 20 20 30 20 20 30 20 20 30 20 20 30 20 20 30 20 20 30 20 20 30 20 20 30 20 20 30 20 20 30 20 20 30 20 20 30 20 20 30 20 20 30 255 255 0 20 20 30 20 20 30 20 20 30 20 20 30 20 20 30 20 20 30 20 20 30 20 20 30 20 20 30 20 20 30 20 20 30 20 20 30 20 20 30 20 20 30 20 20 30 20 20 30 255 0 0 20 20 30 20 20 30 20 20 30 20 20 30 20 20 30 20 20 30 20 20 30 20 20 30 20 20 30 20 20 30 20 20 30 20 20 30 20 20 30 20 20 30 20 20 30 20 20 30 20 20 30 20 20 30 20 20 30 20 20 30 20 20 30 20 20 30 20 20 30 20 20 30 20 20 30 20 20 30 20 20 30 20 20 30 20 20 30 20 20 30 20 20 30 20 20 30 20 20 30 20 20 30 20 20 30 20 20 30 20 20 30 20 20 30 20 20 30 20 20 30 20 20 30 20 20 30 20 20 30 20 20 30 20 20 30 20 20 30 20 20 30 20 20 30 20 20 30 20 20 30 20 20 30 20 20 30 20 20 30 20 20 30 20 20 30 20 20 30 20 20 30 20 20 30 20 20 30 20 20 30 20 20 30 20 20 30 255 255 0 20 20 30 20 20 30 20 20 30 20 20 30 20 20 30 20 20 30 20 20 30 20 20 30 20 20 30 20 20 30 20 20 30 20 20 30 20 20 30 20 20 30 20 20 30 20 20 30 20 20 30 20 20 30 20 20 30 20 20 30 20 20 30 20 20 30 20 20 30 20 20 30 20 20 30 20 20 30 20 20 30 20 20 30 20 20 30 20 20 30 20 20 30 20 20 30 20 20 30 20 20 30 20 20 30 20 20 30 20 20 30 20 20 30 20 20 30 20 20 30 20 20 30 20 20 30 20 20 30 20 20 30 20 20 30 20 20 30 20 20 30 20 20 30 20 20 30 20 20 30 20 20 30 20 20 30 20 20 30 20 20 30 20 20 30 20 20 30 20 20 30 20 20 30 20 20 30 20 20 30 20 20 30 20 20 30 20 20 30 20 20 30 20 20 30 20 20 30 20 20 30 20 20 30 20 20 30 20 20 30 20 20 30 20 20 30 20 20 30 20 20 30 20 20 30 20 20 30 20 20 30 20 20 30 20 20 30 20 20 30 20 20 30 20 20 30 20 20 30 20 20 30 20 20 30 20 20 30 20 20 30 20 20 30 20 20 30 20 20 30 20 20 30 20 20 30 20 20 30 20 20 30 20 20 30 20 20 30 20 20 30 20 20 30 20 20 30 20 20 30 20 20 30 20 20 30 20 20 30 20 20 30 20 20 30 20 20 30 20 20 30 20 20 30 20 20 30 20 20 30 20 20 30 20 20 30 20 20 30 20 20 30 20 20 30 20 20 30 20 20 30 0 255 0 20 20 30 20 20 30 20 20 30 20 20 30 20 20 30 20 20 30 20 20 30 20 20 30 20 20 30 20 20 30 20 20 30 20 20 30 20 20 30 20 20 30 20 20 30 20 20 30 20 20 30 20 20 30 20 20 30 20 20 30 20 20 30 20 20 30 20 20 30 20 20 30 20 20 30 20 20 30 20 20 30 20 20 30 20 20 30 20 20 30 20 20 30 20 20 30 20 20 30 20 20 30 20 20 30 20 20 30 20 20 30 
20 20 30 20 20 30 20 20 30 20 20 30 20 20 30 20 20 30 20 20 30 20 20 30 20 20 30 20 20 30 20 20 30 20 20 30 20 20 30 20 20 30 20 20 30 20 20 30 20 20 30 20 20 30 20 20 30 20 20 30 255 255 0 20 20 30 20 20 30 20 20 30 20 20 30 20 20 30 20 20 30 20 20 30 20 20 30 20 20 30 20 20 30 20 20 30 20 20 30 20 20 30 20 20 30 20 20 30 20 20 30 20 20 30 255 0 0 20 20 30 20 20 30 20 20 30 20 20 30 20 20 30 20 20 30 20 20 30 20 20 30 20 20 30 20 20 30 20 20 30 20 20 30 20 20 30 20 20 30 20 20 30 20 20 30 20 20 30 20 20 30 20 20 30 20 20 30 20 20 30 20 20 30 20 20 30 20 20 30 20 20 30 20 20 30 20 20 30 20 20 30 20 20 30 20 20 30 20 20 30 20 20 30 20 20 30 20 20 30 20 20 30 20 20 30 20 20 30 20 20 30 20 20 30 20 20 30 20 20 30 20 20 30 20 20 30 20 20 30 20 20 30 20 20 30 20 20 30 20 20 30 20 20 30 20 20 30 20 20 30 20 20 30 20 20 30 20 20 30 20 20 30 20 20 30 20 20 30 20 20 30 20 20 30 20 20 30 20 20 30 255 255 0 20 20 30 20 20 30 20 20 30 20 20 30 20 20 30 20 20 30 20 20 30 20 20 30 20 20 30 20 20 30 20 20 30 20 20 30 20 20 30 20 20 30 20 20 30 20 20 30 20 20 30 20 20 30 20 20 30 20 20 30 20 20 30 20 20 30 20 20 30 20 20 30 20 20 30 20 20 30 20 20 30 20 20 30 20 20 30 20 20 30 20 20 30 20 20 30 20 20 30 20 20 30 20 20 30 20 20 30 20 20 30 20 20 30 20 20 30 20 20 30 20 20 30 20 20 30 20 20 30 20 20 30 20 20 30 20 20 30 20 20 30 20 20 30 20 20 30 20 20 30 20 20 30 20 20 30 20 20 30 20 20 30 20 20 30 20 20 30 20 20 30 20 20 30 20 20 30 20 20 30 20 20 30 20 20 30 20 20 30 20 20 30 20 20 30 20 20 30 20 20 30 20 20 30 20 20 30 20 20 30 20 20 30 20 20 30 20 20 30 20 20 30 20 20 30 20 20 30 20 20 30 20 20 30 20 20 30 20 20 30 20 20 30 20 20 30 20 20 30 20 20 30 20 20 30 20 20 30 20 20 30 20 20 30 20 20 30 20 20 30 20 20 30 20 20 30 20 20 30 20 20 30 20 20 30 20 20 30 20 20 30 20 20 30 20 20 30 20 20 30 20 20 30 20 20 30 20 20 30 20 20 30 20 20 30 20 20 30 20 20 30 20 20 30 20 20 30 20 20 30 20 20 30 20 20 30 20 20 30 20 20 30 20 20 30 20 20 30 0 255 0 20 20 30 20 20 30 20 20 30 20 20 30 20 20 30 20 20 30 20 20 30 20 20 30 20 20 30 20 20 30 20 20 30 20 20 30 20 20 30 20 20 30 20 20 30 20 20 30 20 20 30 20 20 30 20 20 30 20 20 30 20 20 30 20 20 30 20 20 30 20 20 30 20 20 30 20 20 30 20 20 30 20 20 30 20 20 30 20 20 30 20 20 30 20 20 30 20 20 30 20 20 30 20 20 30 20 20 30 20 20 30 20 20 30 
20 20 30 20 20 30 20 20 30 20 20 30 20 20 30 20 20 30 20 20 30 20 20 30 20 20 30 20 20 30 20 20 30 20 20 30 20 20 30 20 20 30 20 20 30 20 20 30 20 20 30 20 20 30 20 20 30 20 20 30 255 255 0 20 20 30 20 20 30 20 20 30 20 20 30 20 20 30 20 20 30 20 20 30 20 20 30 20 20 30 20 20 30 20 20 30 20 20 30 20 20 30 20 20 30 20 20 30 20 20 30 20 20 30 20 20 30 255 0 0 20 20 30 20 20 30 20 20 30 20 20 30 20 20 30 20 20 30 20 20 30 20 20 30 20 20 30 20 20 30 20 20 30 20 20 30 20 20 30 20 20 30 20 20 30 20 20 30 20 20 30 20 20 30 20 20 30 20 20 30 20 20 30 20 20 30 20 20 30 20 20 30 20 20 30 20 20 30 20 20 30 20 20 30 20 20 30 20 20 30 20 20 30 20 20 30 20 20 30 20 20 30 20 20 30 20 20 30 20 20 30 20 20 30 20 20 30 20 20 30 20 20 30 20 20 30 20 20 30 20 20 30 20 20 30 20 20 30 20 20 30 20 20 30 20 20 30 20 20 30 20 20 30 20 20 30 20 20 30 20 20 30 20 20 30 20 20 30 20 20 30 20 20 30 20 20 30 20 20 30 255 255 0 20 20 30 20 20 30 20 20 30 20 20 30 20 20 30 20 20 30 20 20 30 20 20 30 20 20 30 20 20 30 20 20 30 20 20 30 20 20 30 20 20 30 20 20 30 20 20 30 20 20 30 20 20 30 20 20 30 20 20 30 20 20 30 20 20 30 20 20 30 20 20 30 20 20 30 20 20 30 20 20 30 20 20 30 20 20 30 20 20 30 20 20 30 20 20 30 20 20 30 20 20 30 20 20 30 20 20 30 20 20 30 20 20 30 20 20 30 20 20 30 20 20 30 20 20 30 20 20 30 20 20 30 20 20 30 20 20 30 20 20 30 20 20 30 20 20 30 20 20 30 20 20 30 20 20 30 20 20 30 20 20 30 20 20 30 20 20 30 20 20 30 20 20 30 20 20 30 20 20 30 20 20 30 20 20 30 20 20 30 20 20 30 20 20 30 20 20 30 20 20 30 20 20 30 20 20 30 20 20 30 20 20 30 20 20 30 20 20 30 20 20 30 20 20 30 20 20 30 20 20 30 20 20 30 20 20 30 20 20 30 20 20 30 20 20 30 20 20 30 20 20 30 20 20 30 20 20 30 20 20 30 20 20 30 20 20 30 20 20 30 20 20 30 20 20 30 20 20 30 20 20 30 20 20 30 20 20 30 20 20 30 20 20 30 20 20 30 20 20 30 20 20 30 20 20 30 20 20 30 20 20 30 20 20 30 20 20 30 20 20 30 20 20 30 20 20 30 20 20 30 20 20 30 20 20 30 20 20 30 20 20 30 20 20 30 0 255 0 20 20 30 20 20 30 20 20 30 20 20 30 20 20 30 20 20 30 20 20 30 20 20 30 20 20 30 20 20 30 20 20 30 20 20 30 20 20 30 20 20 30 20 20 30 20 20 30 20 20 30 20 20 30 20 20 30 20 20 30 20 20 30 20 20 30 20 20 30 20 20 30 20 20 30 20 20 30 20 20 30 20 20 30 20 20 30 20 20 30 20 20 30 20 20 30 20 20 30 20 20 30 20 20 30 20 20 30 20 20 30 20 20 30 20 20 30 
20 20 30 20 20 30 20 20 30 20 20 30 20 20 30 20 20 30 20 20 30 20 20 30 20 20 30 20 20 30 20 20 30 20 20 30 20 20 30 20 20 30 20 20 30 20 20 30 20 20 30 20 20 30 20 20 30 20 20 30 255 255 0 20 20 30 20 20 30 20 20 30 20 20 30 20 20 30 20 20 30 20 20 30 20 20 30 20 20 30 20 20 30 20 20 30 20 20 30 20 20 30 20 20 30 20 20 30 20 20 30 20 20 30 20 20 30 20 20 30 255 0 0 20 20 30 20 20 30 20 20 30 20 20 30 20 20 30 20 20 30 20 20 30 20 20 30 20 20 30 20 20 30 20 20 30 20 20 30 20 20 30 20 20 30 20 20 30 20 20 30 20 20 30 20 20 30 20 20 30 20 20 30 20 20 30 20 20 30 20 20 30 20 20 30 20 20 30 20 20 30 20 20 30 20 20 30 20 20 30 20 20 30 20 20 30 20 20 30 20 20 30 20 20 30 20 20 30 20 20 30 20 20 30 20 20 30 20 20 30 20 20 30 20 20 30 20 20 30 20 20 30 20 20 30 20 20 30 20 20 30 20 20 30 20 20 30 20 20 30 20 20 30 20 20 30 20 20 30 20 20 30 20 20 30 20 20 30 20 20 30 20 20 30 20 20 30 20 20 30 255 255 0 20 20 30 20 20 30 20 20 30 20 20 30 20 20 30 20 20 30 20 20 30 20 20 30 20 20 30 20 20 30 20 20 30 20 20 30 20 20 30 20 20 30 20 20 30 20 20 30 20 20 30 20 20 30 20 20 30 20 20 30 20 20 30 20 20 30 20 20 30 20 20 30 20 20 30 20 20 30 20 20 30 20 20 30 20 20 30 20 20 30 20 20 30 20 20 30 20 20 30 20 20 30 20 20 30 20 20 30 20 20 30 20 20 30 20 20 30 0 255 255 0 255 255 0 255 255 0 255 255 0 255 255 0 255 255 0 255 255 0 255 255 0 255 255 0 255 255 0 255 255 0 255 255 0 255 255 0 255 255 0 255 255 0 255 255 0 255 255 0 255 255 0 255 255 0 255 255 0 255 255 0 255 255 0 255 255 0 255 255 0 255 255 0 255 255 0 255 255 0 255 255 0 255 255 0 255 255 0 255 255 0 255 255 0 255 255 0 255 255 0 255 255 0 255 255 0 255 255 0 255 255 0 255 255 0 255 255 0 255 255 0 255 255 0 255 255 0 255 255 0 255 255 0 255 255 0 255 255 0 255 255 0 255 255 0 255 255 0 255 255 0 255 255 0 255 255 0 255 255 0 255 255 0 255 255 0 255 255 0 255 255 0 255 255 0 255 255 0 255 255 0 255 255 0 255 255 0 255 255 0 255 255 0 255 255 0 255 255 0 255 255 0 255 255 0 255 255 0 255 255 0 255 255 0 255 255 0 255 255 0 255 255 0 255 255 0 255 255 0 255 255 0 255 255 0 255 255 0 255 255 0 255 255 0 255 255 0 255 255 0 255 255 0 255 255 0 255 255 0 255 255 0 255 255 0 255 255 0 255 255 20 20 30 20 20 30 20 20 30 20 20 30 20 20 30 20 20 30 20 20 30 20 20 30 20 20 30 20 20 30 20 20 30 20 20 30 20 20 30 20 20 30 20 20 30 20 20 30 20 20 30 20 20 30 20 20 30 20 20 30 20 20 30 20 20 30 20 20 30 20 20 30 20 20 30 
20 20 30 20 20 30 20 20 30 20 20 30 20 20 30 20 20 30 20 20 30 20 20 30 20 20 30 20 20 30 20 20 30 20 20 30 20 20 30 20 20 30 20 20 30 20 20 30 20 20 30 20 20 30 20 20 30 20 20 30 255 255 0 20 20 30 20 20 30 20 20 30 20 20 30 20 20 30 20 20 30 20 20 30 20 20 30 20 20 30 20 20 30 20 20 30 20 20 30 20 20 30 20 20 30 20 20 30 20 20 30 20 20 30 20 20 30 20 20 30 20 20 30 255 0 0 20 20 30 20 20 30 20 20 30 20 20 30 20 20 30 20 20 30 20 20 30 20 20 30 20 20 30 20 20 30 20 20 30 20 20 30 20 20 30 20 20 30 20 20 30 20 20 30 20 20 30 20 20 30 20 20 30 20 20 30 20 20 30 20 20 30 20 20 30 20 20 30 20 20 30 20 20 30 20 20 30 20 20 30 20 20 30 20 20 30 20 20 30 20 20 30 20 20 30 20 20 30 20 20 30 20 20 30 20 20 30 20 20 30 20 20 30 20 20 30 20 20 30 20 20 30 20 20 30 20 20 30 20 20 30 20 20 30 20 20 30 20 20 30 20 20 30 20 20 30 20 20 30 20 20 30 20 20 30 20 20 30 20 20 30 20 20 30 20 20 30 20 20 30 255 255 0 20 20 30 20 20 30 20 20 30 20 20 30 20 20 30 20 20 30 20 20 30 20 20 30 20 20 30 20 20 30 20 20 30 20 20 30 20 20 30 20 20 30 20 20 30 20 20 30 20 20 30 20 20 30 20 20 30 20 20 30 20 20 30 20 20 30 20 20 30 20 20 30 20 20 30 20 20 30 20 20 30 20 20 30 20 20 30 20 20 30 20 20 30 20 20 30 20 20 30 20 20 30 20 20 30 20 20 30 20 20 30 20 20 30 20 20 30 0 255 255 20 20 30 20 20 30 20 20 30 20 20 30 20 20 30 20 20 30 20 20 30 20 20 30 20 20 30 20 20 30 20 20 30 20 20 30 20 20 30 20 20 30 20 20 30 20 20 30 20 20 30 20 20 30 20 20 30 20 20 30 20 20 30 20 20 30 20 20 30 20 20 30 20 20 30 20 20 30 20 20 30 20 20 30 20 20 30 20 20 30 20 20 30 20 20 30 20 20 30 20 20 30 20 20 30 20 20 30 20 20 30 20 20 30 20 20 30 20 20 30 20 20 30 20 20 30 20 20 30 20 20 30 20 20 30 20 20 30 20 20 30 20 20 30 20 20 30 20 20 30 20 20 30 20 20 30 20 20 30 20 20 30 20 20 30 20 20 30 20 20 30 20 20 30 20 20 30 20 20 30 20 20 30 20 20 30 20 20 30 20 20 30 20 20 30 20 20 30 20 20 30 20 20 30 20 20 30 20 20 30 20 20 30 20 20 30 20 20 30 0 255 0 20 20 30 20 20 30 20 20 30 20 20 30 20 20 30 20 20 30 20 20 30 20 20 30 20 20 30 20 20 30 20 20 30 20 20 30 20 20 30 20 20 30 20 20 30 0 255 255 20 20 30 20 20 30 20 20 30 20 20 30 20 20 30 20 20 30 20 20 30 20 20 30 20 20 30 20 20 30 20 20 30 20 20 30 20 20 30 20 20 30 20 20 30 20 20 30 20 20 30 20 20 30 20 20 30 20 20 30 20 20 30 20 20 30 20 20 30 20 20 30 20 20 30 
20 20 30 20 20 30 20 20 30 20 20 30 20 20 30 20 20 30 20 20 30 20 20 30 20 20 30 20 20 30 20 20 30 20 20 30 20 20 30 20 20 30 20 20 30 20 20 30 20 20 30 20 20 30 20 20 30 20 20 30 255 255 0 20 20 30 20 20 30 20 20 30 20 20 30 20 20 30 20 20 30 20 20 30 20 20 30 20 20 30 20 20 30 20 20 30 20 20 30 20 20 30 20 20 30 20 20 30 20 20 30 20 20 30 20 20 30 20 20 30 20 20 30 20 20 30 255 0 0 20 20 30 20 20 30 20 20 30 20 20 30 20 20 30 20 20 30 20 20 30 20 20 30 20 20 30 20 20 30 20 20 30 20 20 30 20 20 30 20 20 30 20 20 30 20 20 30 20 20 30 20 20 30 20 20 30 20 20 30 20 20 30 20 20 30 20 20 30 20 20 30 20 20 30 20 20 30 20 20 30 20 20 30 20 20 30 20 20 30 20 20 30 20 20 30 20 20 30 20 20 30 20 20 30 20 20 30 20 20 30 20 20 30 20 20 30 20 20 30 20 20 30 20 20 30 20 20 30 20 20 30 20 20 30 20 20 30 20 20 30 20 20 30 20 20 30 20 20 30 20 20 30 20 20 30 20 20 30 20 20 30 20 20 30 20 20 30 20 20 30 255 255 0 20 20 30 20 20 30 20 20 30 20 20 30 20 20 30 20 20 30 20 20 30 20 20 30 20 20 30 20 20 30 20 20 30 20 20 30 20 20 30 20 20 30 20 20 30 20 20 30 20 20 30 20 20 30 20 20 30 20 20 30 20 20 30 20 20 30 20 20 30 20 20 30 20 20 30 20 20 30 20 20 30 20 20 30 20 20 30 20 20 30 20 20 30 20 20 30 20 20 30 20 20 30 20 20 30 20 20 30 20 20 30 20 20 30 20 20 30 0 255 255 20 20 30 20 20 30 20 20 30 20 20 30 20 20 30 20 20 30 20 20 30 20 20 30 20 20 30 20 20 30 20 20 30 20 20 30 20 20 30 20 20 30 20 20 30 20 20 30 20 20 30 20 20 30 20 20 30 20 20 30 20 20 30 20 20 30 20 20 30 20 20 30 20 20 30 20 20 30 20 20 30 20 20 30 20 20 30 20 20 30 20 20 30 20 20 30 20 20 30 20 20 30 20 20 30 20 20 30 20 20 30 20 20 30 20 20 30 20 20 30 20 20 30 20 20 30 20 20 30 20 20 30 20 20 30 20 20 30 20 20 30 20 20 30 20 20 30 20 20 30 20 20 30 20 20 30 20 20 30 20 20 30 20 20 30 20 20 30 20 20 30 20 20 30 20 20 30 20 20 30 20 20 30 20 20 30 20 20 30 20 20 30 20 20 30 20 20 30 20 20 30 20 20 30 20 20 30 20 20 30 20 20 30 20 20 30 0 255 0 20 20 30 20 20 30 20 20 30 20 20 30 20 20 30 20 20 30 20 20 30 20 20 30 20 20 30 20 20 30 20 20 30 20 20 30 20 20 30 20 20 30 20 20 30 20 20 30 0 255 255 20 20 30 20 20 30 20 20 30 20 20 30 20 20 30 20 20 30 20 20 30 20 20 30 20 20 30 20 20 30 20 20 30 20 20 30 20 20 30 20 20 30 20 20 30 20 20 30 20 20 30 20 20 30 20 20 30 20 20 30 20 20 30 20 20 30 20 20 30 20 20 30 20 20 30 
20 20 30 20 20 30 20 20 30 20 20 30 20 20 30 20 20 30 20 20 30 20 20 30 20 20 30 20 20 30 20 20 30 20 20 30 20 20 30 20 20 30 20 20 30 20 20 30 20 20 30 20 20 30 20 20 30 20 20 30 255 255 0 20 20 30 20 20 30 20 20 30 20 20 30 20 20 30 20 20 30 20 20 30 20 20 30 20 20 30 20 20 30 20 20 30 20 20 30 20 20 30 20 20 30 20 20 30 20 20 30 20 20 30 20 20 30 20 20 30 20 20 30 20 20 30 20 20 30 255 0 0 20 20 30 20 20 30 20 20 30 20 20 30 20 20 30 20 20 30 20 20 30 20 20 30 20 20 30 20 20 30 20 20 30 20 20 30 20 20 30 20 20 30 20 20 30 20 20 30 20 20 30 20 20 30 20 20 30 20 20 30 20 20 30 20 20 30 20 20 30 20 20 30 20 20 30 20 20 30 20 20 30 20 20 30 20 20 30 20 20 30 20 20 30 20 20 30 20 20 30 20 20 30 20 20 30 20 20 30 20 20 30 20 20 30 20 20 30 20 20 30 20 20 30 20 20 30 20 20 30 20 20 30 20 20 30 20 20 30 20 20 30 20 20 30 20 20 30 20 20 30 20 20 30 20 20 30 20 20 30 20 20 30 20 20 30 20 20 30 255 255 0 20 20 30 20 20 30 20 20 30 20 20 30 20 20 30 20 20 30 20 20 30 20 20 30 20 20 30 20 20 30 20 20 30 20 20 30 20 20 30 20 20 30 20 20 30 20 20 30 20 20 30 20 20 30 20 20 30 20 20 30 20 20 30 20 20 30 20 20 30 20 20 30 20 20 30 20 20 30 20 20 30 20 20 30 20 20 30 20 20 30 20 20 30 20 20 30 20 20 30 20 20 30 20 20 30 20 20 30 20 20 30 20 20 30 20 20 30 0 255 255 20 20 30 20 20 30 20 20 30 20 20 30 20 20 30 20 20 30 20 20 30 20 20 30 20 20 30 20 20 30 20 20 30 20 20 30 20 20 30 20 20 30 20 20 30 20 20 30 20 20 30 20 20 30 20 20 30 20 20 30 20 20 30 20 20 30 20 20 30 20 20 30 20 20 30 20 20 30 20 20 30 20 20 30 20 20 30 20 20 30 20 20 30 20 20 30 20 20 30 20 20 30 20 20 30 20 20 30 20 20 30 20 20 30 20 20 30 20 20 30 20 20 30 20 20 30 20 20 30 20 20 30 20 20 30 20 20 30 20 20 30 20 20 30 20 20 30 20 20 30 20 20 30 20 20 30 20 20 30 20 20 30 20 20 30 20 20 30 20 20 30 20 20 30 20 20 30 20 20 30 20 20 30 20 20 30 20 20 30 20 20 30 20 20 30 20 20 30 20 20 30 20 20 30 20 20 30 20 20 30 20 20 30 0 255 0 20 20 30 20 20 30 20 20 30 20 20 30 20 20 30 20 20 30 20 20 30 20 20 30 20 20 30 20 20 30 20 20 30 20 20 30 20 20 30 20 20 30 20 20 30 20 20 30 20 20 30 0 255 255 20 20 30 20 20 30 20 20 30 20 20 30 20 20 30 20 20 30 20 20 30 20 20 30 20 20 30 20 20 30 20 20 30 20 20 30 20 20 30 20 20 30 20 20 30 20 20 30 20 20 30 20 20 30 20 20 30 20 20 30 20 20 30 20 20 30 20 20 30 20 20 30 20 20 30 
20 20 30 20 20 30 20 20 30 20 20 30 20 20 30 20 20 30 20 20 30 20 20 30 20 20 30 20 20 30 20 20 30 20 20 30 20 20 30 20 20 30 20 20 30 20 20 30 20 20 30 20 20 30 20 20 30 20 20 30 255 255 0 20 20 30 20 20 30 20 20 30 20 20 30 20 20 30 20 20 30 20 20 30 20 20 30 20 20 30 20 20 30 20 20 30 20 20 30 20 20 30 20 20 30 20 20 30 20 20 30 20 20 30 20 20 30 20 20 30 20 20 30 20 20 30 20 20 30 20 20 30 255 0 0 20 20 30 20 20 30 20 20 30 20 20 30 20 20 30 20 20 30 20 20 30 20 20 30 20 20 30 20 20 30 20 20 30 20 20 30 20 20 30 20 20 30 20 20 30 20 20 30 20 20 30 20 20 30 20 20 30 20 20 30 20 20 30 20 20 30 20 20 30 20 20 30 20 20 30 20 20 30 20 20 30 20 20 30 20 20 30 20 20 30 20 20 30 20 20 30 20 20 30 20 20 30 20 20 30 20 20 30 20 20 30 20 20 30 20 20 30 20 20 30 20 20 30 20 20 30 20 20 30 20 20 30 20 20 30 20 20 30 20 20 30 20 20 30 20 20 30 20 20 30 20 20 30 20 20 30 20 20 30 20 20 30 20 20 30 255 255 0 20 20 30 20 20 30 20 20 30 20 20 30 20 20 30 20 20 30 20 20 30 20 20 30 20 20 30 20 20 30 20 20 30 20 20 30 20 20 30 20 20 30 20 20 30 20 20 30 20 20 30 20 20 30 20 20 30 20 20 30 20 20 30 20 20 30 20 20 30 20 20 30 20 20 30 20 20 30 20 20 30 20 20 30 20 20 30 20 20 30 20 20 30 20 20 30 20 20 30 20 20 30 20 20 30 20 20 30 20 20 30 20 20 30 20 20 30 0 255 255 20 20 30 20 20 30 20 20 30 20 20 30 20 20 30 20 20 30 20 20 30 20 20 30 20 20 30 20 20 30 20 20 30 20 20 30 20 20 30 20 20 30 20 20 30 20 20 30 20 20 30 20 20 30 20 20 30 20 20 30 20 20 30 20 20 30 20 20 30 20 20 30 20 20 30 20 20 30 20 20 30 20 20 30 20 20 30 20 20 30 20 20 30 20 20 30 20 20 30 20 20 30 20 20 30 20 20 30 20 20 30 20 20 30 20 20 30 20 20 30 20 20 30 20 20 30 20 20 30 20 20 30 20 20 30 20 20 30 20 20 30 20 20 30 20 20 30 20 20 30 20 20 30 20 20 30 20 20 30 20 20 30 20 20 30 20 20 30 20 20 30 20 20 30 20 20 30 20 20 30 20 20 30 20 20 30 20 20 30 20 20 30 20 20 30 20 20 30 20 20 30 20 20 30 20 20 30 20 20 30 0 255 0 20 20 30 20 20 30 20 20 30 20 20 30 20 20 30 20 20 30 20 20 30 20 20 30 20 20 30 20 20 30 20 20 30 20 20 30 20 20 30 20 20 30 20 20 30 20 20 30 20 20 30 20 20 30 0 255 255 20 20 30 20 20 30 20 20 30 20 20 30 20 20 30 20 20 30 20 20 30 20 20 30 20 20 30 20 20 30 20 20 30 20 20 30 20 20 30 20 20 30 20 20 30 20 20 30 20 20 30 20 20 30 20 20 30 20 20 30 20 20 30 20 20 30 20 20 30 20 20 30 20 20 30 
20 20 30 20 20 30 20 20 30 20 20 30 20 20 30 20 20 30 20 20 30 20 20 30 20 20 30 20 20 30 20 20 30 20 20 30 20 20 30 20 20 30 20 20 30 20 20 30 20 20 30 20 20 30 20 20 30 20 20 30 255 255 0 20 20 30 20 20 30 20 20 30 20 20 30 20 20 30 20 20 30 20 20 30 20 20 30 20 20 30 20 20 30 20 20 30 20 20 30 20 20 30 20 20 30 20 20 30 20 20 30 20 20 30 20 20 30 20 20 30 20 20 30 20 20 30 20 20 30 20 20 30 20 20 30 255 0 0 20 20 30 20 20 30 20 20 30 20 20 30 20 20 30 20 20 30 20 20 30 20 20 30 20 20 30 20 20 30 20 20 30 20 20 30 20 20 30 20 20 30 20 20 30 20 20 30 20 20 30 20 20 30 20 20 30 20 20 30 20 20 30 20 20 30 20 20 30 20 20 30 20 20 30 20 20 30 20 20 30 20 20 30 20 20 30 20 20 30 20 20 30 20 20 30 20 20 30 20 20 30 20 20 30 20 20 30 20 20 30 20 20 30 20 20 30 20 20 30 20 20 30 20 20 30 20 20 30 20 20 30 20 20 30 20 20 30 20 20 30 20 20 30 20 20 30 20 20 30 20 20 30 20 20 30 20 20 30 20 20 30 255 255 0 20 20 30 20 20 30 20 20 30 20 20 30 20 20 30 20 20 30 20 20 30 20 20 30 20 20 30 20 20 30 20 20 30 20 20 30 20 20 30 20 20 30 20 20 30 20 20 30 20 20 30 20 20 30 20 20 30 20 20 30 20 20 30 20 20 30 20 20 30 20 20 30 20 20 30 20 20 30 20 20 30 20 20 30 20 20 30 20 20 30 20 20 30 20 20 30 20 20 30 20 20 30 20 20 30 20 20 30 20 20 30 20 20 30 20 20 30 0 255 255 20 20 30 20 20 30 20 20 30 20 20 30 20 20 30 20 20 30 20 20 30 20 20 30 20 20 30 20 20 30 20 20 30 20 20 30 20 20 30 20 20 30 20 20 30 20 20 30 20 20 30 20 20 30 20 20 30 20 20 30 20 20 30 20 20 30 20 20 30 20 20 30 20 20 30 20 20 30 20 20 30 20 20 30 20 20 30 20 20 30 20 20 30 20 20 30 20 20 30 20 20 30 20 20 30 20 20 30 20 20 30 20 20 30 20 20 30 20 20 30 20 20 30 20 20 30 20 20 30 20 20 30 20 20 30 20 20 30 20 20 30 20 20 30 20 20 30 20 20 30 20 20 30 20 20 30 20 20 30 20 20 30 20 20 30 20 20 30 20 20 30 20 20 30 20 20 30 20 20 30 20 20 30 20 20 30 20 20 30 20 20 30 20 20 30 20 20 30 20 20 30 20 20 30 20 20 30 0 255 0 20 20 30 20 20 30 20 20 30 20 20 30 20 20 30 20 20 30 20 20 30 20 20 30 20 20 30 20 20 30 20 20 30 20 20 30 20 20 30 20 20 30 20 20 30 20 20 30 20 20 30 20 20 30 20 20 30 0 255 255 20 20 30 20 20 30 20 20 30 20 20 30 20 20 30 20 20 30 20 20 30 20 20 30 20 20 30 20 20 30 20 20 30 20 20 30 20 20 30 20 20 30 20 20 30 20 20 30 20 20 30 20 20 30 20 20 30 20 20 30 20 20 30 20 20 30 20 20 30 20 20 30 20 20 30 
20 20 30 20 20 30 20 20 30 20 20 30 20 20 30 20 20 30 20 20 30 20 20 30 20 20 30 20 20 30 20 20 30 20 20 30 20 20 30 20 20 30 20 20 30 20 20 30 20 20 30 20 20 30 20 20 30 20 20 30 255 255 0 20 20 30 20 20 30 20 20 30 20 20 30 20 20 30 20 20 30 20 20 30 20 20 30 20 20 30 20 20 30 20 20 30 20 20 30 20 20 30 20 20 30 20 20 30 20 20 30 20 20 30 20 20 30 20 20 30 20 20 30 20 20 30 20 20 30 20 20 30 20 20 30 20 20 30 255 0 0 20 20 30 20 20 30 20 20 30 20 20 30 20 20 30 20 20 30 20 20 30 20 20 30 20 20 30 20 20 30 20 20 30 20 20 30 20 20 30 20 20 30 20 20 30 20 20 30 20 20 30 20 20 30 20 20 30 20 20 30 20 20 30 20 20 30 20 20 30 20 20 30 20 20 30 20 20 30 20 20 30 20 20 30 20 20 30 20 20 30 20 20 30 20 20 30 20 20 30 20 20 30 20 20 30 20 20 30 20 20 30 20 20 30 20 20 30 20 20 30 20 20 30 20 20 30 20 20 30 20 20 30 20 20 30 20 20 30 20 20 30 20 20 30 20 20 30 20 20 30 20 20 30 20 20 30 20 20 30 255 255 0 20 20 30 20 20 30 20 20 30 20 20 30 20 20 30 20 20 30 20 20 30 20 20 30 20 20 30 20 20 30 20 20 30 20 20 30 20 20 30 20 20 30 20 20 30 20 20 30 20 20 30 20 20 30 20 20 30 20 20 30 20 20 30 20 20 30 20 20 30 20 20 30 20 20 30 20 20 30 20 20 30 20 20 30 20 20 30 20 20 30 20 20 30 20 20 30 20 20 30 20 20 30 20 20 30 20 20 30 20 20 30 20 20 30 20 20 30 0 255 255 20 20 30 20 20 30 20 20 30 20 20 30 20 20 30 20 20 30 20 20 30 20 20 30 20 20 30 20 20 30 20 20 30 20 20 30 20 20 30 20 20 30 20 20 30 20 20 30 20 20 30 20 20 30 20 20 30 20 20 30 20 20 30 20 20 30 20 20 30 20 20 30 20 20 30 20 20 30 20 20 30 20 20 30 20 20 30 20 20 30 20 20 30 20 20 30 20 20 30 20 20 30 20 20 30 20 20 30 20 20 30 20 20 30 20 20 30 20 20 30 20 20 30 20 20 30 20 20 30 20 20 30 20 20 30 20 20 30 20 20 30 20 20 30 20 20 30 20 20 30 20 20 30 20 20 30 20 20 30 20 20 30 20 20 30 20 20 30 20 20 30 20 20 30 20 20 30 20 20 30 20 20 30 20 20 30 20 20 30 20 20 30 20 20 30 20 20 30 20 20 30 20 20 30 0 255 0 20 20 30 20 20 30 20 20 30 20 20 30 20 20 30 20 20 30 20 20 30 20 20 30 20 20 30 20 20 30 20 20 30 20 20 30 20 20 30 20 20 30 20 20 30 20 20 30 20 20 30 20 20 30 20 20 30 20 20 30 0 255 255 20 20 30 20 20 30 20 20 30 20 20 30 20 20 30 20 20 30 20 20 30 20 20 30 20 20 30 20 20 30 20 20 30 20 20 30 20 20 30 20 20 30 20 20 30 20 20 30 20 20 30 20 20 30 20 20 30 20 20 30 20 20 30 20 20 30 20 20 30 20 20 30 20 20 30 
20 20 30 20 20 30 20 20 30 20 20 30 20 20 30 20 20 30 20 20 30 20 20 30 20 20 30 20 20 30 20 20 30 20 20 30 20 20 30 20 20 30 20 20 30 20 20 30 20 20 30 20 20 30 20 20 30 20 20 30 255 255 0 20 20 30 20 20 30 20 20 30 20 20 30 20 20 30 20 20 30 20 20 30 20 20 30 20 20 30 20 20 30 20 20 30 20 20 30 20 20 30 20 20 30 20 20 30 20 20 30 20 20 30 20 20 30 20 20 30 20 20 30 20 20 30 20 20 30 20 20 30 20 20 30 20 20 30 20 20 30 255 0 0 20 20 30 20 20 30 20 20 30 20 20 30 20 20 30 20 20 30 20 20 30 20 20 30 20 20 30 20 20 30 20 20 30 20 20 30 20 20 30 20 20 30 20 20 30 20 20 30 20 20 30 20 20 30 20 20 30 20 20 30 20 20 30 20 20 30 20 20 30 20 20 30 20 20 30 20 20 30 20 20 30 20 20 30 20 20 30 20 20 30 20 20 30 20 20 30 20 20 30 20 20 30 20 20 30 20 20 30 20 20 30 20 20 30 20 20 30 20 20 30 20 20 30 20 20 30 20 20 30 20 20 30 20 20 30 20 20 30 20 20 30 20 20 30 20 20 30 20 20 30 20 20 30 20 20 30 255 255 0 20 20 30 20 20 30 20 20 30 20 20 30 20 20 30 20 20 30 20 20 30 20 20 30 20 20 30 20 20 30 20 20 30 20 20 30 20 20 30 20 20 30 20 20 30 20 20 30 20 20 30 20 20 30 20 20 30 20 20 30 20 20 30 20 20 30 20 20 30 20 20 30 20 20 30 20 20 30 20 20 30 20 20 30 20 20 30 20 20 30 20 20 30 20 20 30 20 20 30 20 20 30 20 20 30 20 20 30 20 20 30 20 20 30 20 20 30 0 255 255 20 20 30 20 20 30 20 20 30 20 20 30 20 20 30 20 20 30 20 20 30 20 20 30 20 20 30 20 20 30 20 20 30 20 20 30 20 20 30 20 20 30 20 20 30 20 20 30 20 20 30 20 20 30 20 20 30 20 20 30 20 20 30 20 20 30 20 20 30 20 20 30 20 20 30 20 20 30 20 20 30 20 20 30 20 20 30 20 20 30 20 20 30 20 20 30 20 20 30 20 20 30 20 20 30 20 20 30 20 20 30 20 20 30 20 20 30 20 20 30 20 20 30 20 20 30 20 20 30 20 20 30 20 20 30 20 20 30 20 20 30 20 20 30 20 20 30 20 20 30 20 20 30 20 20 30 20 20 30 20 20 30 20 20 30 20 20 30 20 20 30 20 20 30 20 20 30 20 20 30 20 20 30 20 20 30 20 20 30 20 20 30 20 20 30 20 20 30 20 20 30 0 255 0 20 20 30 20 20 30 20 20 30 20 20 30 20 20 30 20 20 30 20 20 30 20 20 30 20 20 30 20 20 30 20 20 30 20 20 30 20 20 30 20 20 30 20 20 30 20 20 30 20 20 30 20 20 30 20 20 30 20 20 30 20 20 30 0 255 255 20 20 30 20 20 30 20 20 30 20 20 30 20 20 30 20 20 30 20 20 30 20 20 30 20 20 30 20 20 30 20 20 30 20 20 30 20 20 30 20 20 30 20 20 30 20 20 30 20 20 30 20 20 30 20 20 30 20 20 30 20 20 30 20 20 30 20 20 30 20 20 30 20 20 30 
20 20 30 20 20 30 20 20 30 20 20 30 20 20 30 20 20 30 20 20 30 20 20 30 20 20 30 20 20 30 20 20 30 20 20 30 20 20 30 20 20 30 20 20 30 20 20 30 20 20 30 20 20 30 20 20 30 20 20 30 255 255 0 20 20 30 20 20 30 20 20 30 20 20 30 20 20 30 20 20 30 20 20 30 20 20 30 20 20 30 20 20 30 20 20 30 20 20 30 20 20 30 20 20 30 20 20 30 20 20 30 20 20 30 20 20 30 20 20 30 20 20 30 20 20 30 20 20 30 20 20 30 20 20 30 20 20 30 20 20 30 20 20 30 255 0 0 20 20 30 20 20 30 20 20 30 20 20 30 20 20 30 20 20 30 20 20 30 20 20 30 20 20 30 20 20 30 20 20 30 20 20 30 20 20 30 20 20 30 20 20 30 20 20 30 20 20 30 20 20 30 20 20 30 20 20 30 20 20 30 20 20 30 20 20 30 20 20 30 20 20 30 20 20 30 20 20 30 20 20 30 20 20 30 20 20 30 20 20 30 20 20 30 20 20 30 20 20 30 20 20 30 20 20 30 20 20 30 20 20 30 20 20 30 20 20 30 20 20 30 20 20 30 20 20 30 20 20 30 20 20 30 20 20 30 20 20 30 20 20 30 20 20 30 20 20 30 20 20 30 255 255 0 20 20 30 20 20 30 20 20 30 20 20 30 20 20 30 20 20 30 20 20 30 20 20 30 20 20 30 20 20 30 20 20 30 20 20 30 20 20 30 20 20 30 20 20 30 20 20 30 20 20 30 20 20 30 20 20 30 20 20 30 20 20 30 20 20 30 20 20 30 20 20 30 20 20 30 20 20 30 20 20 30 20 20 30 20 20 30 20 20 30 20 20 30 20 20 30 20 20 30 20 20 30 20 20 30 20 20 30 20 20 30 20 20 30 20 20 30 0 255 255 20 20 30 20 20 30 20 20 30 20 20 30 20 20 30 20 20 30 20 20 30 20 20 30 20 20 30 20 20 30 20 20 30 20 20 30 20 20 30 20 20 30 20 20 30 20 20 30 20 20 30 20 20 30 20 20 30 20 20 30 20 20 30 20 20 30 20 20 30 20 20 30 20 20 30 20 20 30 20 20 30 20 20 30 20 20 30 20 20 30 20 20 30 20 20 30 20 20 30 20 20 30 20 20 30 20 20 30 20 20 30 20 20 30 20 20 30 20 20 30 20 20 30 20 20 30 20 20 30 20 20 30 20 20 30 20 20 30 20 20 30 20 20 30 20 20 30 20 20 30 20 20 30 20 20 30 20 20 30 20 20 30 20 20 30 20 20 30 20 20 30 20 20 30 20 20 30 20 20 30 20 20 30 20 20 30 20 20 30 20 20 30 20 20 30 20 20 30 0 255 0 20 20 30 20 20 30 20 20 30 20 20 30 20 20 30 20 20 30 20 20 30 20 20 30 20 20 30 20 20 30 20 20 30 20 20 30 20 20 30 20 20 30 20 20 30 20 20 30 20 20 30 20 20 30 20 20 30 20 20 30 20 20 30 20 20 30 0 255 255 20 20 30 20 20 30 20 20 30 20 20 30 20 20 30 20 20 30 20 20 30 20 20 30 20 20 30 20 20 30 20 20 30 20 20 30 20 20 30 20 20 30 20 20 30 20 20 30 20 20 30 20 20 30 20 20 30 20 20 30 20 20 30 20 20 30 20 20 30 20 20 30 20 20 30 
20 20 30 20 20 30 20 20 30 20 20 30 20 20 30 20 20 30 20 20 30 20 20 30 20 20 30 20 20 30 20 20 30 20 20 30 20 20 30 20 20 30 20 20 30 20 20 30 20 20 30 20 20 30 20 20 30 20 20 30 255 255 0 20 20 30 20 20 30 20 20 30 20 20 30 20 20 30 20 20 30 20 20 30 20 20 30 20 20 30 20 20 30 20 20 30 20 20 30 20 20 30 20 20 30 20 20 30 20 20 30 20 20 30 20 20 30 20 20 30 20 20 30 20 20 30 20 20 30 20 20 30 20 20 30 20 20 30 20 20 30 20 20 30 20 20 30 255 0 0 20 20 30 20 20 30 20 20 30 20 20 30 20 20 30 20 20 30 20 20 30 20 20 30 20 20 30 20 20 30 20 20 30 20 20 30 20 20 30 20 20 30 20 20 30 20 20 30 20 20 30 20 20 30 20 20 30 20 20 30 20 20 30 20 20 30 20 20 30 20 20 30 20 20 30 20 20 30 20 20 30 20 20 30 20 20 30 20 20 30 20 20 30 20 20 30 20 20 30 20 20 30 20 20 30 20 20 30 20 20 30 20 20 30 20 20 30 20 20 30 20 20 30 20 20 30 20 20 30 20 20 30 20 20 30 20 20 30 20 20 30 20 20 30 20 20 30 20 20 30 255 255 0 20 20 30 20 20 30 20 20 30 20 20 30 20 20 30 20 20 30 20 20 30 20 20 30 20 20 30 20 20 30 20 20 30 20 20 30 20 20 30 20 20 30 20 20 30 20 20 30 20 20 30 20 20 30 20 20 30 20 20 30 20 20 30 20 20 30 20 20 30 20 20 30 20 20 30 20 20 30 20 20 30 20 20 30 20 20 30 20 20 30 20 20 30 20 20 30 20 20 30 20 20 30 20 20 30 20 20 30 20 20 30 20 20 30 20 20 30 0 255 255 20 20 30 20 20 30 20 20 30 20 20 30 20 20 30 20 20 30 20 20 30 20 20 30 20 20 30 20 20 30 20 20 30 20 20 30 20 20 30 20 20 30 20 20 30 20 20 30 20 20 30 20 20 30 20 20 30 20 20 30 20 20 30 20 20 30 20 20 30 20 20 30 20 20 30 20 20 30 20 20 30 20 20 30 20 20 30 20 20 30 20 20 30 20 20 30 20 20 30 20 20 30 20 20 30 20 20 30 20 20 30 20 20 30 20 20 30 20 20 30 20 20 30 20 20 30 20 20 30 20 20 30 20 20 30 20 20 30 20 20 30 20 20 30 20 20 30 20 20 30 20 20 30 20 20 30 20 20 30 20 20 30 20 20 30 20 20 30 20 20 30 20 20 30 20 20 30 20 20 30 20 20 30 20 20 30 20 20 30 20 20 30 20 20 30 0 255 0 20 20 30 20 20 30 20 20 30 20 20 30 20 20 30 20 20 30 20 20 30 20 20 30 20 20 30 20 20 30 20 20 30 20 20 30 20 20 30 20 20 30 20 20 30 20 20 30 20 20 30 20 20 30 20 20 30 20 20 30 20 20 30 20 20 30 20 20 30 0 255 255 20 20 30 20 20 30 20 20 30 20 20 30 20 20 30 20 20 30 20 20 30 20 20 30 20 20 30 20 20 30 20 20 30 20 20 30 20 20 30 20 20 30 20 20 30 20 20 30 20 20 30 20 20 30 20 20 30 20 20 30 20 20 30 20 20 30 20 20 30 20 20 30 20 20 30 
20 20 30 20 20 30 20 20 30 20 20 30 20 20 30 20 20 30 20 20 30 20 20 30 20 20 30 20 20 30 20 20 30 20 20 30 20 20 30 20 20 30 20 20 30 20 20 30 20 20 30 20 20 30 20 20 30 20 20 30 255 255 0 20 20 30 20 20 30 20 20 30 20 20 30 20 20 30 20 20 30 20 20 30 20 20 30 20 20 30 20 20 30 20 20 30 20 20 30 20 20 30 20 20 30 20 20 30 20 20 30 20 20 30 20 20 30 20 20 30 20 20 30 20 20 30 20 20 30 20 20 30 20 20 30 20 20 30 20 20 30 20 20 30 20 20 30 20 20 30 255 0 0 20 20 30 20 20 30 20 20 30 20 20 30 20 20 30 20 20 30 20 20 30 20 20 30 20 20 30 20 20 30 20 20 30 20 20 30 20 20 30 20 20 30 20 20 30 20 20 30 20 20 30 20 20 30 20 20 30 20 20 30 20 20 30 20 20 30 20 20 30 20 20 30 20 20 30 20 20 30 20 20 30 20 20 30 20 20 30 20 20 30 20 20 30 20 20 30 20 20 30 20 20 30 20 20 30 20 20 30 20 20 30 20 20 30 20 20 30 20 20 30 20 20 30 20 20 30 20 20 30 20 20 30 20 20 30 20 20 30 20 20 30 20 20 30 20 20 30 255 255 0 20 20 30 20 20 30 20 20 30 20 20 30 20 20 30 20 20 30 20 20 30 20 20 30 20 20 30 20 20 30 20 20 30 20 20 30 20 20 30 20 20 30 20 20 30 20 20 30 20 20 30 20 20 30 20 20 30 20 20 30 20 20 30 20 20 30 20 20 30 20 20 30 20 20 30 20 20 30 20 20 30 20 20 30 20 20 30 20 20 30 20 20 30 20 20 30 20 20 30 20 20 30 20 20 30 20 20 30 20 20 30 20 20 30 20 20 30 0 255 255 20 20 30 20 20 30 20 20 30 20 20 30 20 20 30 20 20 30 20 20 30 20 20 30 20 20 30 20 20 30 20 20 30 20 20 30 20 20 30 20 20 30 20 20 30 20 20 30 20 20 30 20 20 30 20 20 30 20 20 30 20 20 30 20 20 30 20 20 30 20 20 30 20 20 30 20 20 30 20 20 30 20 20 30 20 20 30 20 20 30 20 20 30 20 20 30 20 20 30 20 20 30 20 20 30 20 20 30 20 20 30 20 20 30 20 20 30 20 20 30 20 20 30 20 20 30 20 20 30 20 20 30 20 20 30 20 20 30 20 20 30 20 20 30 20 20 30 20 20 30 20 20 30 20 20 30 20 20 30 20 20 30 20 20 30 20 20 30 20 20 30 20 20 30 20 20 30 20 20 30 20 20 30 20 20 30 20 20 30 20 20 30 0 255 0 20 20 30 20 20 30 20 20 30 20 20 30 20 20 30 20 20 30 20 20 30 20 20 30 20 20 30 20 20 30 20 20 30 20 20 30 20 20 30 20 20 30 20 20 30 20 20 30 20 20 30 20 20 30 20 20 30 20 20 30 20 20 30 20 20 30 20 20 30 20 20 30 0 255 255 20 20 30 20 20 30 20 20 30 20 20 30 20 20 30 20 20 30 20 20 30 20 20 30 20 20 30 20 20 30 20 20 30 20 20 30 20 20 30 20 20 30 20 20 30 20 20 30 20 20 30 20 20 30 20 20 30 20 20 30 20 20 30 20 20 30 20 20 30 20 20 30 20 20 30 
20 20 30 20 20 30 20 20 30 20 20 30 20 20 30 20 20 30 20 20 30 20 20 30 20 20 30 20 20 30 20 20 30 20 20 30 20 20 30 20 20 30 20 20 30 20 20 30 20 20 30 20 20 30 20 20 30 20 20 30 255 255 0 20 20 30 20 20 30 20 20 30 20 20 30 20 20 30 20 20 30 20 20 30 20 20 30 20 20 30 20 20 30 20 20 30 20 20 30 20 20 30 20 20 30 20 20 30 20 20 30 20 20 30 20 20 30 20 20 30 20 20 30 20 20 30 20 20 30 20 20 30 20 20 30 20 20 30 20 20 30 20 20 30 20 20 30 20 20 30 20 20 30 255 0 0 20 20 30 20 20 30 20 20 30 20 20 30 20 20 30 20 20 30 20 20 30 20 20 30 20 20 30 20 20 30 20 20 30 20 20 30 20 20 30 20 20 30 20 20 30 20 20 30 20 20 30 20 20 30 20 20 30 20 20 30 20 20 30 20 20 30 20 20 30 20 20 30 20 20 30 20 20 30 20 20 30 20 20 30 20 20 30 20 20 30 20 20 30 20 20 30 20 20 30 20 20 30 20 20 30 20 20 30 20 20 30 20 20 30 20 20 30 20 20 30 20 20 30 20 20 30 20 20 30 20 20 30 20 20 30 20 20 30 20 20 30 20 20 30 255 255 0 20 20 30 20 20 30 20 20 30 20 20 30 20 20 30 20 20 30 20 20 30 20 20 30 20 20 30 20 20 30 20 20 30 20 20 30 20 20 30 20 20 30 20 20 30 20 20 30 20 20 30 20 20 30 20 20 30 20 20 30 20 20 30 20 20 30 20 20 30 20 20 30 20 20 30 20 20 30 20 20 30 20 20 30 20 20 30 20 20 30 20 20 30 20 20 30 20 20 30 20 20 30 20 20 30 20 20 30 20 20 30 20 20 30 20 20 30 0 255 255 20 20 30 20 20 30 20 20 30 20 20 30 20 20 30 20 20 30 20 20 30 20 20 30 20 20 30 20 20 30 20 20 30 20 20 30 20 20 30 20 20 30 20 20 30 20 20 30 20 20 30 20 20 30 20 20 30 20 20 30 20 20 30 20 20 30 20 20 30 20 20 30 20 20 30 20 20 30 20 20 30 20 20 30 20 20 30 20 20 30 20 20 30 20 20 30 20 20 30 20 20 30 20 20 30 20 20 30 20 20 30 20 20 30 20 20 30 20 20 30 20 20 30 20 20 30 20 20 30 20 20 30 20 20 30 20 20 30 20 20 30 20 20 30 20 20 30 20 20 30 20 20 30 20 20 30 20 20 30 20 20 30 20 20 30 20 20 30 20 20 30 20 20 30 20 20 30 20 20 30 20 20 30 20 20 30 20 20 30 0 255 0 20 20 30 20 20 30 20 20 30 20 20 30 20 20 30 20 20 30 20 20 30 20 20 30 20 20 30 20 20 30 20 20 30 20 20 30 20 20 30 20 20 30 20 20 30 20 20 30 20 20 30 20 20 30 20 20 30 20 20 30 20 20 30 20 20 30 20 20 30 20 20 30 20 20 30 0 255 255 20 20 30 20 20 30 20 20 30 20 20 30 20 20 30 20 20 30 20 20 30 20 20 30 20 20 30 20 20 30 20 20 30 20 20 30 20 20 30 20 20 30 20 20 30 20 20 30 20 20 30 20 20 30 20 20 30 20 20 30 20 20 30 20 20 30 20 20 30 20 20 30 20 20 30 
20 20 30 20 20 30 20 20 30 20 20 30 20 20 30 20 20 30 20 20 30 20 20 30 20 20 30 20 20 30 20 20 30 20 20 30 20 20 30 20 20 30 20 20 30 20 20 30 20 20 30 20 20 30 20 20 30 20 20 30 255 255 0 20 20 30 20 20 30 20 20 30 20 20 30 20 20 30 20 20 30 20 20 30 20 20 30 20 20 30 20 20 30 20 20 30 20 20 30 20 20 30 20 20 30 20 20 30 20 20 30 20 20 30 20 20 30 20 20 30 20 20 30 20 20 30 20 20 30 20 20 30 20 20 30 20 20 30 20 20 30 20 20 30 20 20 30 20 20 30 20 20 30 20 20 30 255 0 0 20 20 30 20 20 30 20 20 30 20 20 30 20 20 30 20 20 30 20 20 30 20 20 30 20 20 30 20 20 30 20 20 30 20 20 30 20 20 30 20 20 30 20 20 30 20 20 30 20 20 30 20 20 30 20 20 30 20 20 30 20 20 30 20 20 30 20 20 30 20 20 30 20 20 30 20 20 30 20 20 30 20 20 30 20 20 30 20 20 30 20 20 30 20 20 30 20 20 30 20 20 30 20 20 30 20 20 30 20 20 30 20 20 30 20 20 30 20 20 30 20 20 30 20 20 30 20 20 30 20 20 30 20 20 30 20 20 30 20 20 30 255 255 0 20 20 30 20 20 30 20 20 30 20 20 30 20 20 30 20 20 30 20 20 30 20 20 30 20 20 30 20 20 30 20 20 30 20 20 30 20 20 30 20 20 30 20 20 30 20 20 30 20 20 30 20 20 30 20 20 30 20 20 30 20 20 30 20 20 30 20 20 30 20 20 30 20 20 30 20 20 30 20 20 30 20 20 30 20 20 30 20 20 30 20 20 30 20 20 30 20 20 30 20 20 30 20 20 30 20 20 30 20 20 30 20 20 30 20 20 30 0 255 255 20 20 30 20 20 30 20 20 30 20 20 30 20 20 30 20 20 30 20 20 30 20 20 30 20 20 30 20 20 30 20 20 30 20 20 30 20 20 30 20 20 30 20 20 30 20 20 30 20 20 30 20 20 30 20 20 30 20 20 30 20 20 30 20 20 30 20 20 30 20 20 30 20 20 30 20 20 30 20 20 30 20 20 30 20 20 30 20 20 30 20 20 30 20 20 30 20 20 30 20 20 30 20 20 30 20 20 30 20 20 30 20 20 30 20 20 30 20 20 30 20 20 30 20 20 30 20 20 30 20 20 30 20 20 30 20 20 30 20 20 30 20 20 30 20 20 30 20 20 30 20 20 30 20 20 30 20 20 30 20 20 30 20 20 30 20 20 30 20 20 30 20 20 30 20 20 30 20 20 30 20 20 30 20 20 30 0 255 0 20 20 30 20 20 30 20 20 30 20 20 30 20 20 30 20 20 30 20 20 30 20 20 30 20 20 30 20 20 30 20 20 30 20 20 30 20 20 30 20 20 30 20 20 30 20 20 30 20 20 30 20 20 30 20 20 30 20 20 30 20 20 30 20 20 30 20 20 30 20 20 30 20 20 30 20 20 30 0 255 255 20 20 30 20 20 30 20 20 30 20 20 30 20 20 30 20 20 30 20 20 30 20 20 30 20 20 30 20 20 30 20 20 30 20 20 30 20 20 30 20 20 30 20 20 30 20 20 30 20 20 30 20 20 30 20 20 30 20 20 30 20 20 30 20 20 30 20 20 30 20 20 30 20 20 30 
20 20 30 20 20 30 20 20 30 20 20 30 20 20 30 20 20 30 20 20 30 20 20 30 20 20 30 20 20 30 20 20 30 20 20 30 20 20 30 20 20 30 20 20 30 20 20 30 20 20 30 20 20 30 20 20 30 20 20 30 255 255 0 20 20 30 20 20 30 20 20 30 20 20 30 20 20 30 20 20 30 20 20 30 20 20 30 20 20 30 20 20 30 20 20 30 20 20 30 20 20 30 20 20 30 20 20 30 20 20 30 20 20 30 20 20 30 20 20 30 20 20 30 20 20 30 20 20 30 20 20 30 20 20 30 20 20 30 20 20 30 20 20 30 20 20 30 20 20 30 20 20 30 20 20 30 20 20 30 255 0 0 20 20 30 20 20 30 20 20 30 20 20 30 20 20 30 20 20 30 20 20 30 20 20 30 20 20 30 20 20 30 20 20 30 20 20 30 20 20 30 20 20 30 20 20 30 20 20 30 20 20 30 20 20 30 20 20 30 20 20 30 20 20 30 20 20 30 20 20 30 20 20 30 20 20 30 20 20 30 20 20 30 20 20 30 20 20 30 20 20 30 20 20 30 20 20 30 20 20 30 20 20 30 20 20 30 20 20 30 20 20 30 20 20 30 20 20 30 20 20 30 20 20 30 20 20 30 20 20 30 20 20 30 20 20 30 20 20 30 255 255 0 20 20 30 20 20 30 20 20 30 20 20 30 20 20 30 20 20 30 20 20 30 20 20 30 20 20 30 20 20 30 20 20 30 20 20 30 20 20 30 20 20 30 20 20 30 20 20 30 20 20 30 20 20 30 20 20 30 20 20 30 20 20 30 20 20 30 20 20 30 20 20 30 20 20 30 20 20 30 20 20 30 20 20 30 20 20 30 20 20 30 20 20 30 20 20 30 20 20 30 20 20 30 20 20 30 20 20 30 20 20 30 20 20 30 20 20 30 0 255 255 20 20 30 20 20 30 20 20 30 20 20 30 20 20 30 20 20 30 20 20 30 20 20 30 20 20 30 20 20 30 20 20 30 20 20 30 20 20 30 20 20 30 20 20 30 20 20 30 20 20 30 20 20 30 20 20 30 20 20 30 20 20 30 20 20 30 20 20 30 20 20 30 20 20 30 20 20 30 20 20 30 20 20 30 20 20 30 20 20 30 20 20 30 20 20 30 20 20 30 20 20 30 20 20 30 20 20 30 20 20 30 20 20 30 20 20 30 20 20 30 20 20 30 20 20 30 20 20 30 20 20 30 20 20 30 20 20 30 20 20 30 20 20 30 20 20 30 20 20 30 20 20 30 20 20 30 20 20 30 20 20 30 20 20 30 20 20 30 20 20 30 20 20 30 20 20 30 20 20 30 20 20 30 0 255 0 20 20 30 20 20 30 20 20 30 20 20 30 20 20 30 20 20 30 20 20 30 20 20 30 20 20 30 20 20 30 20 20 30 20 20 30 20 20 30 20 20 30 20 20 30 20 20 30 20 20 30 20 20 30 20 20 30 20 20 30 20 20 30 20 20 30 20 20 30 20 20 30 20 20 30 20 20 30 20 20 30 0 255 255 20 20 30 20 20 30 20 20 30 20 20 30 20 20 30 20 20 30 20 20 30 20 20 30 20 20 30 20 20 30 20 20 30 20 20 30 20 20 30 20 20 30 20 20 30 20 20 30 20 20 30 20 20 30 20 20 30 20 20 30 20 20 30 20 20 30 20 20 30 20 20 30 20 20 30 
20 20 30 20 20 30 20 20 30 20 20 30 20 20 30 20 20 30 20 20 30 20 20 30 20 20 30 20 20 30 20 20 30 20 20 30 20 20 30 20 20 30 20 20 30 20 20 30 20 20 30 20 20 30 20 20 30 20 20 30 255 255 0 20 20 30 20 20 30 20 20 30 20 20 30 20 20 30 20 20 30 20 20 30 20 20 30 20 20 30 20 20 30 20 20 30 20 20 30 20 20 30 20 20 30 20 20 30 20 20 30 20 20 30 20 20 30 20 20 30 20 20 30 20 20 30 20 20 30 20 20 30 20 20 30 20 20 30 20 20 30 20 20 30 20 20 30 20 20 30 20 20 30 20 20 30 20 20 30 20 20 30 255 0 0 20 20 30 20 20 30 20 20 30 20 20 30 20 20 30 20 20 30 20 20 30 20 20 30 20 20 30 20 20 30 20 20 30 20 20 30 20 20 30 20 20 30 20 20 30 20 20 30 20 20 30 20 20 30 20 20 30 20 20 30 20 20 30 20 20 30 20 20 30 20 20 30 20 20 30 20 20 30 20 20 30 20 20 30 20 20 30 20 20 30 20 20 30 20 20 30 20 20 30 20 20 30 20 20 30 20 20 30 20 20 30 20 20 30 20 20 30 20 20 30 20 20 30 20 20 30 20 20 30 20 20 30 20 20 30 255 255 0 20 20 30 20 20 30 20 20 30 20 20 30 20 20 30 20 20 30 20 20 30 20 20 30 20 20 30 20 20 30 20 20 30 20 20 30 20 20 30 20 20 30 20 20 30 20 20 30 20 20 30 20 20 30 20 20 30 20 20 30 20 20 30 20 20 30 20 20 30 20 20 30 20 20 30 20 20 30 20 20 30 20 20 30 20 20 30 20 20 30 20 20 30 20 20 30 20 20 30 20 20 30 20 20 30 20 20 30 20 20 30 20 20 30 20 20 30 0 255 255 20 20 30 20 20 30 20 20 30 20 20 30 20 20 30 20 20 30 20 20 30 20 20 30 20 20 30 20 20 30 20 20 30 20 20 30 20 20 30 20 20 30 20 20 30 20 20 30 20 20 30 20 20 30 20 20 30 20 20 30 20 20 30 20 20 30 20 20 30 20 20 30 20 20 30 20 20 30 20 20 30 20 20 30 20 20 30 20 20 30 20 20 30 20 20 30 20 20 30 20 20 30 20 20 30 20 20 30 20 20 30 20 20 30 20 20 30 20 20 30 20 20 30 20 20 30 20 20 30 20 20 30 20 20 30 20 20 30 20 20 30 20 20 30 20 20 30 20 20 30 20 20 30 20 20 30 20 20 30 20 20 30 20 20 30 20 20 30 20 20 30 20 20 30 20 20 30 20 20 30 0 255 0 20 20 30 20 20 30 20 20 30 20 20 30 20 20 30 20 20 30 20 20 30 20 20 30 20 20 30 20 20 30 20 20 30 20 20 30 20 20 30 20 20 30 20 20 30 20 20 30 20 20 30 20 20 30 20 20 30 20 20 30 20 20 30 20 20 30 20 20 30 20 20 30 20 20 30 20 20 30 20 20 30 20 20 30 0 255 255 20 20 30 20 20 30 20 20 30 20 20 30 20 20 30 20 20 30 20 20 30 20 20 30 20 20 30 20 20 30 20 20 30 20 20 30 20 20 30 20 20 30 20 20 30 20 20 30 20 20 30 20 20 30 20 20 30 20 20 30 20 20 30 20 20 30 20 20 30 20 20 30 20 20 30 
20 20 30 20 20 30 20 20 30 20 20 30 20 20 30 20 20 30 20 20 30 20 20 30 20 20 30 20 20 30 20 20 30 20 20 30 20 20 30 20 20 30 20 20 30 20 20 30 20 20 30 20 20 30 20 20 30 20 20 30 255 255 0 20 20 30 20 20 30 20 20 30 20 20 30 20 20 30 20 20 30 20 20 30 20 20 30 20 20 30 20 20 30 20 20 30 20 20 30 20 20 30 20 20 30 20 20 30 20 20 30 20 20 30 20 20 30 20 20 30 20 20 30 20 20 30 20 20 30 20 20 30 20 20 30 20 20 30 20 20 30 20 20 30 20 20 30 20 20 30 20 20 30 20 20 30 20 20 30 20 20 30 20 20 30 255 0 0 20 20 30 20 20 30 20 20 30 20 20 30 20 20 30 20 20 30 20 20 30 20 20 30 20 20 30 20 20 30 20 20 30 20 20 30 20 20 30 20 20 30 20 20 30 20 20 30 20 20 30 20 20 30 20 20 30 20 20 30 20 20 30 20 20 30 20 20 30 20 20 30 20 20 30 20 20 30 20 20 30 20 20 30 20 20 30 20 20 30 20 20 30 20 20 30 20 20 30 20 20 30 20 20 30 20 20 30 20 20 30 20 20 30 20 20 30 20 20 30 20 20 30 20 20 30 20 20 30 20 20 30 255 255 0 20 20 30 20 20 30 20 20 30 20 20 30 20 20 30 20 20 30 20 20 30 20 20 30 20 20 30 20 20 30 20 20 30 20 20 30 20 20 30 20 20 30 20 20 30 20 20 30 20 20 30 20 20 30 20 20 30 20 20 30 20 20 30 20 20 30 20 20 30 20 20 30 20 20 30 20 20 30 20 20 30 20 20 30 20 20 30 20 20 30 20 20 30 20 20 30 20 20 30 20 20 30 20 20 30 20 20 30 20 20 30 20 20 30 20 20 30 0 255 255 20 20 30 20 20 30 20 20 30 20 20 30 20 20 30 20 20 30 20 20 30 20 20 30 20 20 30 20 20 30 20 20 30 20 20 30 20 20 30 20 20 30 20 20 30 20 20 30 20 20 30 20 20 30 20 20 30 20 20 30 20 20 30 20 20 30 20 20 30 20 20 30 20 20 30 20 20 30 20 20 30 20 20 30 20 20 30 20 20 30 20 20 30 20 20 30 20 20 30 20 20 30 20 20 30 20 20 30 20 20 30 20 20 30 20 20 30 20 20 30 20 20 30 20 20 30 20 20 30 20 20 30 20 20 30 20 20 30 20 20 30 20 20 30 20 20 30 20 20 30 20 20 30 20 20 30 20 20 30 20 20 30 20 20 30 20 20 30 20 20 30 20 20 30 20 20 30 0 255 0 20 20 30 20 20 30 20 20 30 20 20 30 20 20 30 20 20 30 20 20 30 20 20 30 20 20 30 20 20 30 20 20 30 20 20 30 20 20 30 20 20 30 20 20 30 20 20 30 20 20 30 20 20 30 20 20 30 20 20 30 20 20 30 20 20 30 20 20 30 20 20 30 20 20 30 20 20 30 20 20 30 20 20 30 20 20 30 0 255 255 20 20 30 20 20 30 20 20 30 20 20 30 20 20 30 20 20 30 20 20 30 20 20 30 20 20 30 20 20 30 20 20 30 20 20 30 20 20 30 20 20 30 20 20 30 20 20 30 20 20 30 20 20 30 20 20 30 20 20 30 20 20 30 20 20 30 20 20 30 20 20 30 20 20 30 
20 20 30 20 20 30 20 20 30 20 20 30 20 20 30 20 20 30 20 20 30 20 20 30 20 20 30 20 20 30 20 20 30 20 20 30 20 20 30 20 20 30 20 20 30 20 20 30 20 20 30 20 20 30 20 20 30 20 20 30 255 255 0 20 20 30 20 20 30 20 20 30 20 20 30 20 20 30 20 20 30 20 20 30 20 20 30 20 20 30 20 20 30 20 20 30 20 20 30 20 20 30 20 20 30 20 20 30 20 20 30 20 20 30 20 20 30 20 20 30 20 20 30 20 20 30 20 20 30 20 20 30 20 20 30 20 20 30 20 20 30 20 20 30 20 20 30 20 20 30 20 20 30 20 20 30 20 20 30 20 20 30 20 20 30 20 20 30 255 0 0 20 20 30 20 20 30 20 20 30 20 20 30 20 20 30 20 20 30 20 20 30 20 20 30 20 20 30 20 20 30 20 20 30 20 20 30 20 20 30 20 20 30 20 20 30 20 20 30 20 20 30 20 20 30 20 20 30 20 20 30 20 20 30 20 20 30 20 20 30 20 20 30 20 20 30 20 20 30 20 20 30 20 20 30 20 20 30 20 20 30 20 20 30 20 20 30 20 20 30 20 20 30 20 20 30 20 20 30 20 20 30 20 20 30 20 20 30 20 20 30 20 20 30 20 20 30 20 20 30 255 255 0 20 20 30 20 20 30 20 20 30 20 20 30 20 20 30 20 20 30 20 20 30 20 20 30 20 20 30 20 20 30 20 20 30 20 20 30 20 20 30 20 20 30 20 20 30 20 20 30 20 20 30 20 20 30 20 20 30 20 20 30 20 20 30 20 20 30 20 20 30 20 20 30 20 20 30 20 20 30 20 20 30 20 20 30 20 20 30 20 20 30 20 20 30 20 20 30 20 20 30 20 20 30 20 20 30 20 20 30 20 20 30 20 20 30 20 20 30 0 255 255 20 20 30 20 20 30 20 20 30 20 20 30 20 20 30 20 20 30 20 20 30 20 20 30 20 20 30 20 20 30 20 20 30 20 20 30 20 20 30 20 20 30 20 20 30 20 20 30 20 20 30 20 20 30 20 20 30 20 20 30 20 20 30 20 20 30 20 20 30 20 20 30 20 20 30 20 20 30 20 20 30 20 20 30 20 20 30 20 20 30 20 20 30 20 20 30 20 20 30 20 20 30 20 20 30 20 20 30 20 20 30 20 20 30 20 20 30 20 20 30 20 20 30 20 20 30 20 20 30 20 20 30 20 20 30 20 20 30 20 20 30 20 20 30 20 20 30 20 20 30 20 20 30 20 20 30 20 20 30 20 20 30 20 20 30 20 20 30 20 20 30 20 20 30 0 255 0 20 20 30 20 20 30 20 20 30 20 20 30 20 20 30 20 20 30 20 20 30 20 20 30 20 20 30 20 20 30 20 20 30 20 20 30 20 20 30 20 20 30 20 20 30 20 20 30 20 20 30 20 20 30 20 20 30 20 20 30 20 20 30 20 20 30 20 20 30 20 20 30 20 20 30 20 20 30 20 20 30 20 20 30 20 20 30 20 20 30 0 255 255 20 20 30 20 20 30 20 20 30 20 20 30 20 20 30 20 20 30 20 20 30 20 20 30 20 20 30 20 20 30 20 20 30 20 20 30 20 20 30 20 20 30 20 20 30 20 20 30 20 20 30 20 20 30 20 20 30 20 20 30 20 20 30 20 20 30 20 20 30 20 20 30 20 20 30 
20 20 30 20 20 30 20 20 30 20 20 30 20 20 30 20 20 30 20 20 30 20 20 30 20 20 30 20 20 30 20 20 30 20 20 30 20 20 30 20 20 30 20 20 30 20 20 30 20 20 30 20 20 30 20 20 30 20 20 30 255 255 0 20 20 30 20 20 30 20 20 30 20 20 30 20 20 30 20 20 30 20 20 30 20 20 30 20 20 30 20 20 30 20 20 30 20 20 30 20 20 30 20 20 30 20 20 30 20 20 30 20 20 30 20 20 30 20 20 30 20 20 30 20 20 30 20 20 30 20 20 30 20 20 30 20 20 30 20 20 30 20 20 30 20 20 30 20 20 30 20 20 30 20 20 30 20 20 30 20 20 30 20 20 30 20 20 30 20 20 30 255 0 0 20 20 30 20 20 30 20 20 30 20 20 30 20 20 30 20 20 30 20 20 30 20 20 30 20 20 30 20 20 30 20 20 30 20 20 30 20 20 30 20 20 30 20 20 30 20 20 30 20 20 30 20 20 30 20 20 30 20 20 30 20 20 30 20 20 30 20 20 30 20 20 30 20 20 30 20 20 30 20 20 30 20 20 30 20 20 30 20 20 30 20 20 30 20 20 30 20 20 30 20 20 30 20 20 30 20 20 30 20 20 30 20 20 30 20 20 30 20 20 30 20 20 30 20 20 30 255 255 0 20 20 30 20 20 30 20 20 30 20 20 30 20 20 30 20 20 30 20 20 30 20 20 30 20 20 30 20 20 30 20 20 30 20 20 30 20 20 30 20 20 30 20 20 30 20 20 30 20 20 30 20 20 30 20 20 30 20 20 30 20 20 30 20 20 30 20 20 30 20 20 30 20 20 30 20 20 30 20 20 30 20 20 30 20 20 30 20 20 30 20 20 30 20 20 30 20 20 30 20 20 30 20 20 30 20 20 30 20 20 30 20 20 30 20 20 30 0 255 255 20 20 30 20 20 30 20 20 30 20 20 30 20 20 30 20 20 30 20 20 30 20 20 30 20 20 30 20 20 30 20 20 30 20 20 30 20 20 30 20 20 30 20 20 30 20 20 30 20 20 30 20 20 30 20 20 30 20 20 30 20 20 30 20 20 30 20 20 30 20 20 30 20 20 30 20 20 30 20 20 30 20 20 30 20 20 30 20 20 30 20 20 30 20 20 30 20 20 30 20 20 30 20 20 30 20 20 30 20 20 30 20 20 30 20 20 30 20 20 30 20 20 30 20 20 30 20 20 30 20 20 30 20 20 30 20 20 30 20 20 30 20 20 30 20 20 30 20 20 30 20 20 30 20 20 30 20 20 30 20 20 30 20 20 30 20 20 30 20 20 30 0 255 0 20 20 30 20 20 30 20 20 30 20 20 30 20 20 30 20 20 30 20 20 30 20 20 30 20 20 30 20 20 30 20 20 30 20 20 30 20 20 30 20 20 30 20 20 30 20 20 30 20 20 30 20 20 30 20 20 30 20 20 30 20 20 30 20 20 30 20 20 30 20 20 30 20 20 30 20 20 30 20 20 30 20 20 30 20 20 30 20 20 30 20 20 30 0 255 255 20 20 30 20 20 30 20 20 30 20 20 30 20 20 30 20 20 30 20 20 30 20 20 30 20 20 30 20 20 30 20 20 30 20 20 30 20 20 30 20 20 30 20 20 30 20 20 30 20 20 30 20 20 30 20 20 30 20 20 30 20 20 30 20 20 30 20 20 30 20 20 30 20 20 30 
20 20 30 20 20 30 20 20 30 20 20 30 20 20 30 20 20 30 20 20 30 20 20 30 20 20 30 20 20 30 20 20 30 20 20 30 20 20 30 20 20 30 20 20 30 20 20 30 20 20 30 20 20 30 20 20 30 20 20 30 255 255 0 20 20 30 20 20 30 20 20 30 20 20 30 20 20 30 20 20 30 20 20 30 20 20 30 20 20 30 20 20 30 20 20 30 20 20 30 20 20 30 20 20 30 20 20 30 20 20 30 20 20 30 20 20 30 20 20 30 20 20 30 20 20 30 20 20 30 20 20 30 20 20 30 20 20 30 20 20 30 20 20 30 20 20 30 20 20 30 20 20 30 20 20 30 20 20 30 20 20 30 20 20 30 20 20 30 20 20 30 20 20 30 255 0 0 20 20 30 20 20 30 20 20 30 20 20 30 20 20 30 20 20 30 20 20 30 20 20 30 20 20 30 20 20 30 20 20 30 20 20 30 20 20 30 20 20 30 20 20 30 20 20 30 20 20 30 20 20 30 20 20 30 20 20 30 20 20 30 20 20 30 20 20 30 20 20 30 20 20 30 20 20 30 20 20 30 20 20 30 20 20 30 20 20 30 20 20 30 20 20 30 20 20 30 20 20 30 20 20 30 20 20 30 20 20 30 20 20 30 20 20 30 20 20 30 20 20 30 255 255 0 20 20 30 20 20 30 20 20 30 20 20 30 20 20 30 20 20 30 20 20 30 20 20 30 20 20 30 20 20 30 20 20 30 20 20 30 20 20 30 20 20 30 20 20 30 20 20 30 20 20 30 20 20 30 20 20 30 20 20 30 20 20 30 20 20 30 20 20 30 20 20 30 20 20 30 20 20 30 20 20 30 20 20 30 20 20 30 20 20 30 20 20 30 20 20 30 20 20 30 20 20 30 20 20 30 20 20 30 20 20 30 20 20 30 20 20 30 0 255 255 20 20 30 20 20 30 20 20 30 20 20 30 20 20 30 20 20 30 20 20 30 20 20 30 20 20 30 20 20 30 20 20 30 20 20 30 20 20 30 20 20 30 20 20 30 20 20 30 20 20 30 20 20 30 20 20 30 20 20 30 20 20 30 20 20 30 20 20 30 20 20 30 20 20 30 20 20 30 20 20 30 20 20 30 20 20 30 20 20 30 20 20 30 20 20 30 20 20 30 20 20 30 20 20 30 20 20 30 20 20 30 20 20 30 20 20 30 20 20 30 20 20 30 20 20 30 20 20 30 20 20 30 20 20 30 20 20 30 20 20 30 20 20 30 20 20 30 20 20 30 20 20 30 20 20 30 20 20 30 20 20 30 20 20 30 20 20 30 0 255 0 20 20 30 20 20 30 20 20 30 20 20 30 20 20 30 20 20 30 20 20 30 20 20 30 20 20 30 20 20 30 20 20 30 20 20 30 20 20 30 20 20 30 20 20 30 20 20 30 20 20 30 20 20 30 20 20 30 20 20 30 20 20 30 20 20 30 20 20 30 20 20 30 20 20 30 20 20 30 20 20 30 20 20 30 20 20 30 20 20 30 20 20 30 20 20 30 0 255 255 20 20 30 20 20 30 20 20 30 20 20 30 20 20 30 20 20 30 20 20 30 20 20 30 20 20 30 20 20 30 20 20 30 20 20 30 20 20 30 20 20 30 20 20 30 20 20 30 20 20 30 20 20 30 20 20 30 20 20 30 20 20 30 20 20 30 20 20 30 20 20 30 20 20 30 
20 20 30 20 20 30 20 20 30 20 20 30 20 20 30 20 20 30 20 20 30 20 20 30 20 20 30 20 20 30 20 20 30 20 20 30 20 20 30 20 20 30 20 20 30 20 20 30 20 20 30 20 20 30 20 20 30 20 20 30 255 255 0 20 20 30 20 20 30 20 20 30 20 20 30 20 20 30 20 20 30 20 20 30 20 20 30 20 20 30 20 20 30 20 20 30 20 20 30 20 20 30 20 20 30 20 20 30 20 20 30 20 20 30 20 20 30 20 20 30 20 20 30 20 20 30 20 20 30 20 20 30 20 20 30 20 20 30 20 20 30 20 20 30 20 20 30 20 20 30 20 20 30 20 20 30 20 20 30 20 20 30 20 20 30 20 20 30 20 20 30 20 20 30 20 20 30 255 0 0 20 20 30 20 20 30 20 20 30 20 20 30 20 20 30 20 20 30 20 20 30 20 20 30 20 20 30 20 20 30 20 20 30 20 20 30 20 20 30 20 20 30 20 20 30 20 20 30 20 20 30 20 20 30 20 20 30 20 20 30 20 20 30 20 20 30 20 20 30 20 20 30 20 20 30 20 20 30 20 20 30 20 20 30 20 20 30 20 20 30 20 20 30 20 20 30 20 20 30 20 20 30 20 20 30 20 20 30 20 20 30 20 20 30 20 20 30 20 20 30 255 255 0 20 20 30 20 20 30 20 20 30 20 20 30 20 20 30 20 20 30 20 20 30 20 20 30 20 20 30 20 20 30 20 20 30 20 20 30 20 20 30 20 20 30 20 20 30 20 20 30 20 20 30 20 20 30 20 20 30 20 20 30 20 20 30 20 20 30 20 20 30 20 20 30 20 20 30 20 20 30 20 20 30 20 20 30 20 20 30 20 20 30 20 20 30 20 20 30 20 20 30 20 20 30 20 20 30 20 20 30 20 20 30 20 20 30 20 20 30 0 255 255 20 20 30 20 20 30 20 20 30 20 20 30 20 20 30 20 20 30 20 20 30 20 20 30 20 20 30 20 20 30 20 20 30 20 20 30 20 20 30 20 20 30 20 20 30 20 20 30 20 20 30 20 20 30 20 20 30 20 20 30 20 20 30 20 20 30 20 20 30 20 20 30 20 20 30 20 20 30 20 20 30 20 20 30 20 20 30 20 20 30 20 20 30 20 20 30 20 20 30 20 20 30 20 20 30 20 20 30 20 20 30 20 20 30 20 20 30 20 20 30 20 20 30 20 20 30 20 20 30 20 20 30 20 20 30 20 20 30 20 20 30 20 20 30 20 20 30 20 20 30 20 20 30 20 20 30 20 20 30 20 20 30 20 20 30 0 255 0 20 20 30 20 20 30 20 20 30 20 20 30 20 20 30 20 20 30 20 20 30 20 20 30 20 20 30 20 20 30 20 20 30 20 20 30 20 20 30 20 20 30 20 20 30 20 20 30 20 20 30 20 20 30 20 20 30 20 20 30 20 20 30 20 20 30 20 20 30 20 20 30 20 20 30 20 20 30 20 20 30 20 20 30 20 20 30 20 20 30 20 20 30 20 20 30 20 20 30 0 255 255 20 20 30 20 20 30 20 20 30 20 20 30 20 20 30 20 20 30 20 20 30 20 20 30 20 20 30 20 20 30 20 20 30 20 20 30 20 20 30 20 20 30 20 20 30 20 20 30 20 20 30 20 20 30 20 20 30 20 20 30 20 20 30 20 20 30 20 20 30 20 20 30 20 20 30 
20 20 30 20 20 30 20 20 30 20 20 30 20 20 30 20 20 30 20 20 30 20 20 30 20 20 30 20 20 30 20 20 30 20 20 30 20 20 30 20 20 30 20 20 30 20 20 30 20 20 30 20 20 30 20 20 30 20 20 30 255 255 0 20 20 30 20 20 30 20 20 30 20 20 30 20 20 30 20 20 30 20 20 30 20 20 30 20 20 30 20 20 30 20 20 30 20 20 30 20 20 30 20 20 30 20 20 30 20 20 30 20 20 30 20 20 30 20 20 30 20 20 30 20 20 30 20 20 30 20 20 30 20 20 30 20 20 30 20 20 30 20 20 30 20 20 30 20 20 30 20 20 30 20 20 30 20 20 30 20 20 30 20 20 30 20 20 30 20 20 30 20 20 30 20 20 30 20 20 30 255 0 0 20 20 30 20 20 30 20 20 30 20 20 30 20 20 30 20 20 30 20 20 30 20 20 30 20 20 30 20 20 30 20 20 30 20 20 30 20 20 30 20 20 30 20 20 30 20 20 30 20 20 30 20 20 30 20 20 30 20 20 30 20 20 30 20 20 30 20 20 30 20 20 30 20 20 30 20 20 30 20 20 30 20 20 30 20 20 30 20 20 30 20 20 30 20 20 30 20 20 30 20 20 30 20 20 30 20 20 30 20 20 30 20 20 30 20 20 30 255 255 0 20 20 30 20 20 30 20 20 30 20 20 30 20 20 30 20 20 30 20 20 30 20 20 30 20 20 30 20 20 30 20 20 30 20 20 30 20 20 30 20 20 30 20 20 30 20 20 30 20 20 30 20 20 30 20 20 30 20 20 30 20 20 30 20 20 30 20 20 30 20 20 30 20 20 30 20 20 30 20 20 30 20 20 30 20 20 30 20 20 30 20 20 30 20 20 30 20 20 30 20 20 30 20 20 30 20 20 30 20 20 30 20 20 30 20 20 30 0 255 255 20 20 30 20 20 30 20 20 30 20 20 30 20 20 30 20 20 30 20 20 30 20 20 30 20 20 30 20 20 30 20 20 30 20 20 30 20 20 30 20 20 30 20 20 30 20 20 30 20 20 30 20 20 30 20 20 30 20 20 30 20 20 30 20 20 30 20 20 30 20 20 30 20 20 30 20 20 30 20 20 30 20 20 30 20 20 30 20 20 30 20 20 30 20 20 30 20 20 30 20 20 30 20 20 30 20 20 30 20 20 30 20 20 30 20 20 30 20 20 30 20 20 30 20 20 30 20 20 30 20 20 30 20 20 30 20 20 30 20 20 30 20 20 30 20 20 30 20 20 30 20 20 30 20 20 30 20 20 30 20 20 30 0 255 0 20 20 30 20 20 30 20 20 30 20 20 30 20 20 30 20 20 30 20 20 30 20 20 30 20 20 30 20 20 30 20 20 30 20 20 30 20 20 30 20 20 30 20 20 30 20 20 30 20 20 30 20 20 30 20 20 30 20 20 30 20 20 30 20 20 30 20 20 30 20 20 30 20 20 30 20 20 30 20 20 30 20 20 30 20 20 30 20 20 30 20 20 30 20 20 30 20 20 30 20 20 30 0 255 255 20 20 30 20 20 30 20 20 30 20 20 30 20 20 30 20 20 30 20 20 30 20 20 30 20 20 30 20 20 30 20 20 30 20 20 30 20 20 30 20 20 30 20 20 30 20 20 30 20 20 30 20 20 30 20 20 30 20 20 30 20 20 30 20 20 30 20 20 30 20 20 30 20 20 30 
20 20 30 20 20 30 20 20 30 20 20 30 20 20 30 20 20 30 20 20 30 20 20 30 20 20 30 20 20 30 20 20 30 20 20 30 20 20 30 20 20 30 20 20 30 20 20 30 20 20 30 20 20 30 20 20 30 20 20 30 255 255 0 20 20 30 20 20 30 20 20 30 20 20 30 20 20 30 20 20 30 20 20 30 20 20 30 20 20 30 20 20 30 20 20 30 20 20 30 20 20 30 20 20 30 20 20 30 20 20 30 20 20 30 20 20 30 20 20 30 20 20 30 20 20 30 20 20 30 20 20 30 20 20 30 20 20 30 20 20 30 20 20 30 20 20 30 20 20 30 20 20 30 20 20 30 20 20 30 20 20 30 20 20 30 20 20 30 20 20 30 20 20 30 20 20 30 20 20 30 20 20 30 255 0 0 20 20 30 20 20 30 20 20 30 20 20 30 20 20 30 20 20 30 20 20 30 20 20 30 20 20 30 20 20 30 20 20 30 20 20 30 20 20 30 20 20 30 20 20 30 20 20 30 20 20 30 20 20 30 20 20 30 20 20 30 20 20 30 20 20 30 20 20 30 20 20 30 20 20 30 20 20 30 20 20 30 20 20 30 20 20 30 20 20 30 20 20 30 20 20 30 20 20 30 20 20 30 20 20 30 20 20 30 20 20 30 20 20 30 255 255 0 20 20 30 20 20 30 20 20 30 20 20 30 20 20 30 20 20 30 20 20 30 20 20 30 20 20 30 20 20 30 20 20 30 20 20 30 20 20 30 20 20 30 20 20 30 20 20 30 20 20 30 20 20 30 20 20 30 20 20 30 20 20 30 20 20 30 20 20 30 20 20 30 20 20 30 20 20 30 20 20 30 20 20 30 20 20 30 20 20 30 20 20 30 20 20 30 20 20 30 20 20 30 20 20 30 20 20 30 20 20 30 20 20 30 20 20 30 0 255 255 20 20 30 20 20 30 20 20 30 20 20 30 20 20 30 20 20 30 20 20 30 20 20 30 20 20 30 20 20 30 20 20 30 20 20 30 20 20 30 20 20 30 20 20 30 20 20 30 20 20 30 20 20 30 20 20 30 20 20 30 20 20 30 20 20 30 20 20 30 20 20 30 20 20 30 20 20 30 20 20 30 20 20 30 20 20 30 20 20 30 20 20 30 20 20 30 20 20 30 20 20 30 20 20 30 20 20 30 20 20 30 20 20 30 20 20 30 20 20 30 20 20 30 20 20 30 20 20 30 20 20 30 20 20 30 20 20 30 20 20 30 20 20 30 20 20 30 20 20 30 20 20 30 20 20 30 20 20 30 0 255 0 20 20 30 20 20 30 20 20 30 20 20 30 20 20 30 20 20 30 20 20 30 20 20 30 20 20 30 20 20 30 20 20 30 20 20 30 20 20 30 20 20 30 20 20 30 20 20 30 20 20 30 20 20 30 20 20 30 20 20 30 20 20 30 20 20 30 20 20 30 20 20 30 20 20 30 20 20 30 20 20 30 20 20 30 20 20 30 20 20 30 20 20 30 20 20 30 20 20 30 20 20 30 20 20 30 0 255 255 20 20 30 20 20 30 20 20 30 20 20 30 20 20 30 20 20 30 20 20 30 20 20 30 20 20 30 20 20 30 20 20 30 20 20 30 20 20 30 20 20 30 20 20 30 20 20 30 20 20 30 20 20 30 20 20 30 20 20 30 20 20 30 20 20 30 20 20 30 20 20 30 20 20 30 
20 20 30 20 20 30 20 20 30 20 20 30 20 20 30 20 20 30 20 20 30 20 20 30 20 20 30 20 20 30 20 20 30 20 20 30 20 20 30 20 20 30 20 20 30 20 20 30 20 20 30 20 20 30 20 20 30 20 20 30 255 255 0 20 20 30 20 20 30 20 20 30 20 20 30 20 20 30 20 20 30 20 20 30 20 20 30 20 20 30 20 20 30 20 20 30 20 20 30 20 20 30 20 20 30 20 20 30 20 20 30 20 20 30 20 20 30 20 20 30 20 20 30 20 20 30 20 20 30 20 20 30 20 20 30 20 20 30 20 20 30 20 20 30 20 20 30 20 20 30 20 20 30 20 20 30 20 20 30 20 20 30 20 20 30 20 20 30 20 20 30 20 20 30 20 20 30 20 20 30 20 20 30 20 20 30 255 0 0 20 20 30 20 20 30 20 20 30 20 20 30 20 20 30 20 20 30 20 20 30 20 20 30 20 20 30 20 20 30 20 20 30 20 20 30 20 20 30 20 20 30 20 20 30 20 20 30 20 20 30 20 20 30 20 20 30 20 20 30 20 20 30 20 20 30 20 20 30 20 20 30 20 20 30 20 20 30 20 20 30 20 20 30 20 20 30 20 20 30 20 20 30 20 20 30 20 20 30 20 20 30 20 20 30 20 20 30 20 20 30 255 255 0 20 20 30 20 20 30 20 20 30 20 20 30 20 20 30 20 20 30 20 20 30 20 20 30 20 20 30 20 20 30 20 20 30 20 20 30 20 20 30 20 20 30 20 20 30 20 20 30 20 20 30 20 20 30 20 20 30 20 20 30 20 20 30 20 20 30 20 20 30 20 20 30 20 20 30 20 20 30 20 20 30 20 20 30 20 20 30 20 20 30 20 20 30 20 20 30 20 20 30 20 20 30 20 20 30 20 20 30 20 20 30 20 20 30 20 20 30 0 255 255 20 20 30 20 20 30 20 20 30 20 20 30 20 20 30 20 20 30 20 20 30 20 20 30 20 20 30 20 20 30 20 20 30 20 20 30 20 20 30 20 20 30 20 20 30 20 20 30 20 20 30 20 20 30 20 20 30 20 20 30 20 20 30 20 20 30 20 20 30 20 20 30 20 20 30 20 20 30 20 20 30 20 20 30 20 20 30 20 20 30 20 20 30 20 20 30 20 20 30 20 20 30 20 20 30 20 20 30 20 20 30 20 20 30 20 20 30 20 20 30 20 20 30 20 20 30 20 20 30 20 20 30 20 20 30 20 20 30 20 20 30 20 20 30 20 20 30 20 20 30 20 20 30 20 20 30 0 255 0 20 20 30 20 20 30 20 20 30 20 20 30 20 20 30 20 20 30 20 20 30 20 20 30 20 20 30 20 20 30 20 20 30 20 20 30 20 20 30 20 20 30 20 20 30 20 20 30 20 20 30 20 20 30 20 20 30 20 20 30 20 20 30 20 20 30 20 20 30 20 20 30 20 20 30 20 20 30 20 20 30 20 20 30 20 20 30 20 20 30 20 20 30 20 20 30 20 20 30 20 20 30 20 20 30 20 20 30 0 255 255 20 20 30 20 20 30 20 20 30 20 20 30 20 20 30 20 20 30 20 20 30 20 20 30 20 20 30 20 20 30 20 20 30 20 20 30 20 20 30 20 20 30 20 20 30 20 20 30 20 20 30 20 20 30 20 20 30 20 20 30 20 20 30 20 20 30 20 20 30 20 20 30 20 20 30 
20 20 30 20 20 30 20 20 30 20 20 30 20 20 30 20 20 30 20 20 30 20 20 30 20 20 30 20 20 30 20 20 30 20 20 30 20 20 30 20 20 30 20 20 30 20 20 30 20 20 30 20 20 30 20 20 30 20 20 30 255 255 0 20 20 30 20 20 30 20 20 30 20 20 30 20 20 30 20 20 30 20 20 30 20 20 30 20 20 30 20 20 30 20 20 30 20 20 30 20 20 30 20 20 30 20 20 30 20 20 30 20 20 30 20 20 30 20 20 30 20 20 30 20 20 30 20 20 30 20 20 30 20 20 30 20 20 30 20 20 30 20 20 30 20 20 30 20 20 30 20 20 30 20 20 30 20 20 30 20 20 30 20 20 30 20 20 30 20 20 30 20 20 30 20 20 30 20 20 30 20 20 30 20 20 30 20 20 30 255 0 0 20 20 30 20 20 30 20 20 30 20 20 30 20 20 30 20 20 30 20 20 30 20 20 30 20 20 30 20 20 30 20 20 30 20 20 30 20 20 30 20 20 30 20 20 30 20 20 30 20 20 30 20 20 30 20 20 30 20 20 30 20 20 30 20 20 30 20 20 30 20 20 30 20 20 30 20 20 30 20 20 30 20 20 30 20 20 30 20 20 30 20 20 30 20 20 30 20 20 30 20 20 30 20 20 30 20 20 30 255 255 0 20 20 30 20 20 30 20 20 30 20 20 30 20 20 30 20 20 30 20 20 30 20 20 30 20 20 30 20 20 30 20 20 30 20 20 30 20 20 30 20 20 30 20 20 30 20 20 30 20 20 30 20 20 30 20 20 30 20 20 30 20 20 30 20 20 30 20 20 30 20 20 30 20 20 30 20 20 30 20 20 30 20 20 30 20 20 30 20 20 30 20 20 30 20 20 30 20 20 30 20 20 30 20 20 30 20 20 30 20 20 30 20 20 30 20 20 30 0 255 255 20 20 30 20 20 30 20 20 30 20 20 30 20 20 30 20 20 30 20 20 30 20 20 30 20 20 30 20 20 30 20 20 30 20 20 30 20 20 30 20 20 30 20 20 30 20 20 30 20 20 30 20 20 30 20 20 30 20 20 30 20 20 30 20 20 30 20 20 30 20 20 30 20 20 30 20 20 30 20 20 30 20 20 30 20 20 30 20 20 30 20 20 30 20 20 30 20 20 30 20 20 30 20 20 30 20 20 30 20 20 30 20 20 30 20 20 30 20 20 30 20 20 30 20 20 30 20 20 30 20 20 30 20 20 30 20 20 30 20 20 30 20 20 30 20 20 30 20 20 30 20 20 30 0 255 0 20 20 30 20 20 30 20 20 30 20 20 30 20 20 30 20 20 30 20 20 30 20 20 30 20 20 30 20 20 30 20 20 30 20 20 30 20 20 30 20 20 30 20 20 30 20 20 30 20 20 30 20 20 30 20 20 30 20 20 30 20 20 30 20 20 30 20 20 30 20 20 30 20 20 30 20 20 30 20 20 30 20 20 30 20 20 30 20 20 30 20 20 30 20 20 30 20 20 30 20 20 30 20 20 30 20 20 30 20 20 30 0 255 255 20 20 30 20 20 30 20 20 30 20 20 30 20 20 30 20 20 30 20 20 30 20 20 30 20 20 30 20 20 30 20 20 30 20 20 30 20 20 30 20 20 30 20 20 30 20 20 30 20 20 30 20 20 30 20 20 30 20 20 30 20 20 30 20 20 30 20 20 30 20 20 30 20 20 30 
20 20 30 20 20 30 20 20 30 20 20 30 20 20 30 20 20 30 20 20 30 20 20 30 20 20 30 20 20 30 20 20 30 20 20 30 20 20 30 20 20 30 20 20 30 20 20 30 20 20 30 20 20 30 20 20 30 20 20 30 255 255 0 20 20 30 20 20 30 20 20 30 20 20 30 20 20 30 20 20 30 20 20 30 20 20 30 20 20 30 20 20 30 20 20 30 20 20 30 20 20 30 20 20 30 20 20 30 20 20 30 20 20 30 20 20 30 20 20 30 20 20 30 20 20 30 20 20 30 20 20 30 20 20 30 20 20 30 20 20 30 20 20 30 20 20 30 20 20 30 20 20 30 20 20 30 20 20 30 20 20 30 20 20 30 20 20 30 20 20 30 20 20 30 20 20 30 20 20 30 20 20 30 20 20 30 20 20 30 20 20 30 255 0 0 20 20 30 20 20 30 20 20 30 20 20 30 20 20 30 20 20 30 20 20 30 20 20 30 20 20 30 20 20 30 20 20 30 20 20 30 20 20 30 20 20 30 20 20 30 20 20 30 20 20 30 20 20 30 20 20 30 20 20 30 20 20 30 20 20 30 20 20 30 20 20 30 20 20 30 20 20 30 20 20 30 20 20 30 20 20 30 20 20 30 20 20 30 20 20 30 20 20 30 20 20 30 20 20 30 255 255 0 20 20 30 20 20 30 20 20 30 20 20 30 20 20 30 20 20 30 20 20 30 20 20 30 20 20 30 20 20 30 20 20 30 20 20 30 20 20 30 20 20 30 20 20 30 20 20 30 20 20 30 20 20 30 20 20 30 20 20 30 20 20 30 20 20 30 20 20 30 20 20 30 20 20 30 20 20 30 20 20 30 20 20 30 20 20 30 20 20 30 20 20 30 20 20 30 20 20 30 20 20 30 20 20 30 20 20 30 20 20 30 20 20 30 20 20 30 0 255 255 20 20 30 20 20 30 20 20 30 20 20 30 20 20 30 20 20 30 20 20 30 20 20 30 20 20 30 20 20 30 20 20 30 20 20 30 20 20 30 20 20 30 20 20 30 20 20 30 20 20 30 20 20 30 20 20 30 20 20 30 20 20 30 20 20 30 20 20 30 20 20 30 20 20 30 20 20 30 20 20 30 20 20 30 20 20 30 20 20 30 20 20 30 20 20 30 20 20 30 20 20 30 20 20 30 20 20 30 20 20 30 20 20 30 20 20 30 20 20 30 20 20 30 20 20 30 20 20 30 20 20 30 20 20 30 20 20 30 20 20 30 20 20 30 20 20 30 20 20 30 0 255 0 20 20 30 20 20 30 20 20 30 20 20 30 20 20 30 20 20 30 20 20 30 20 20 30 20 20 30 20 20 30 20 20 30 20 20 30 20 20 30 20 20 30 20 20 30 20 20 30 20 20 30 20 20 30 20 20 30 20 20 30 20 20 30 20 20 30 20 20 30 20 20 30 20 20 30 20 20 30 20 20 30 20 20 30 20 20 30 20 20 30 20 20 30 20 20 30 20 20 30 20 20 30 20 20 30 20 20 30 20 20 30 20 20 30 0 255 255 20 20 30 20 20 30 20 20 30 20 20 30 20 20 30 20 20 30 20 20 30 20 20 30 20 20 30 20 20 30 20 20 30 20 20 30 20 20 30 20 20 30 20 20 30 20 20 30 20 20 30 20 20 30 20 20 30 20 20 30 20 20 30 20 20 30 20 20 30 20 20 30 20 20 30 
20 20 30 20 20 30 20 20 30 20 20 30 20 20 30 20 20 30 20 20 30 20 20 30 20 20 30 20 20 30 20 20 30 20 20 30 20 20 30 20 20 30 20 20 30 20 20 30 20 20 30 20 20 30 20 20 30 20 20 30 255 255 0 20 20 30 20 20 30 20 20 30 20 20 30 20 20 30 20 20 30 20 20 30 20 20 30 20 20 30 20 20 30 20 20 30 20 20 30 20 20 30 20 20 30 20 20 30 20 20 30 20 20 30 20 20 30 20 20 30 20 20 30 20 20 30 20 20 30 20 20 30 20 20 30 20 20 30 20 20 30 20 20 30 20 20 30 20 20 30 20 20 30 20 20 30 20 20 30 20 20 30 20 20 30 20 20 30 20 20 30 20 20 30 20 20 30 20 20 30 20 20 30 20 20 30 20 20 30 20 20 30 20 20 30 255 0 0 20 20 30 20 20 30 20 20 30 20 20 30 20 20 30 20 20 30 20 20 30 20 20 30 20 20 30 20 20 30 20 20 30 20 20 30 20 20 30 20 20 30 20 20 30 20 20 30 20 20 30 20 20 30 20 20 30 20 20 30 20 20 30 20 20 30 20 20 30 20 20 30 20 20 30 20 20 30 20 20 30 20 20 30 20 20 30 20 20 30 20 20 30 20 20 30 20 20 30 20 20 30 255 255 0 20 20 30 20 20 30 20 20 30 20 20 30 20 20 30 20 20 30 20 20 30 20 20 30 20 20 30 20 20 30 20 20 30 20 20 30 20 20 30 20 20 30 20 20 30 20 20 30 20 20 30 20 20 30 20 20 30 20 20 30 20 20 30 20 20 30 20 20 30 20 20 30 20 20 30 20 20 30 20 20 30 20 20 30 20 20 30 20 20 30 20 20 30 20 20 30 20 20 30 20 20 30 20 20 30 20 20 30 20 20 30 20 20 30 20 20 30 0 255 255 20 20 30 20 20 30 20 20 30 20 20 30 20 20 30 20 20 30 20 20 30 20 20 30 20 20 30 20 20 30 20 20 30 20 20 30 20 20 30 20 20 30 20 20 30 20 20 30 20 20 30 20 20 30 20 20 30 20 20 30 20 20 30 20 20 30 20 20 30 20 20 30 20 20 30 20 20 30 20 20 30 20 20 30 20 20 30 20 20 30 20 20 30 20 20 30 20 20 30 20 20 30 20 20 30 20 20 30 20 20 30 20 20 30 20 20 30 20 20 30 20 20 30 20 20 30 20 20 30 20 20 30 20 20 30 20 20 30 20 20 30 20 20 30 20 20 30 0 255 0 20 20 30 20 20 30 20 20 30 20 20 30 20 20 30 20 20 30 20 20 30 20 20 30 20 20 30 20 20 30 20 20 30 20 20 30 20 20 30 20 20 30 20 20 30 20 20 30 20 20 30 20 20 30 20 20 30 20 20 30 20 20 30 20 20 30 20 20 30 20 20 30 20 20 30 20 20 30 20 20 30 20 20 30 20 20 30 20 20 30 20 20 30 20 20 30 20 20 30 20 20 30 20 20 30 20 20 30 20 20 30 20 20 30 20 20 30 0 255 255 20 20 30 20 20 30 20 20 30 20 20 30 20 20 30 20 20 30 20 20 30 20 20 30 20 20 30 20 20 30 20 20 30 20 20 30 20 20 30 20 20 30 20 20 30 20 20 30 20 20 30 20 20 30 20 20 30 20 20 30 20 20 30 20 20 30 20 20 30 20 20 30 20 20 30 
20 20 30 20 20 30 20 20 30 20 20 30 20 20 30 20 20 30 20 20 30 20 20 30 20 20 30 20 20 30 20 20 30 20 20 30 20 20 30 20 20 30 20 20 30 20 20 30 20 20 30 20 20 30 20 20 30 20 20 30 255 255 0 20 20 30 20 20 30 20 20 30 20 20 30 20 20 30 20 20 30 20 20 30 20 20 30 20 20 30 20 20 30 20 20 30 20 20 30 20 20 30 20 20 30 20 20 30 20 20 30 20 20 30 20 20 30 20 20 30 20 20 30 20 20 30 20 20 30 20 20 30 20 20 30 20 20 30 20 20 30 20 20 30 20 20 30 20 20 30 20 20 30 20 20 30 20 20 30 20 20 30 20 20 30 20 20 30 20 20 30 20 20 30 20 20 30 20 20 30 20 20 30 20 20 30 20 20 30 20 20 30 20 20 30 20 20 30 255 0 0 20 20 30 20 20 30 20 20 30 20 20 30 20 20 30 20 20 30 20 20 30 20 20 30 20 20 30 20 20 30 20 20 30 20 20 30 20 20 30 20 20 30 20 20 30 20 20 30 20 20 30 20 20 30 20 20 30 20 20 30 20 20 30 20 20 30 20 20 30 20 20 30 20 20 30 20 20 30 20 20 30 20 20 30 20 20 30 20 20 30 20 20 30 20 20 30 20 20 30 255 255 0 20 20 30 20 20 30 20 20 30 20 20 30 20 20 30 20 20 30 20 20 30 20 20 30 20 20 30 20 20 30 20 20 30 20 20 30 20 20 30 20 20 30 20 20 30 20 20 30 20 20 30 20 20 30 20 20 30 20 20 30 20 20 30 20 20 30 20 20 30 20 20 30 20 20 30 20 20 30 20 20 30 20 20 30 20 20 30 20 20 30 20 20 30 20 20 30 20 20 30 20 20 30 20 20 30 20 20 30 20 20 30 20 20 30 20 20 30 0 255 255 20 20 30 20 20 30 20 20 30 20 20 30 20 20 30 20 20 30 20 20 30 20 20 30 20 20 30 20 20 30 20 20 30 20 20 30 20 20 30 20 20 30 20 20 30 20 20 30 20 20 30 20 20 30 20 20 30 20 20 30 20 20 30 20 20 30 20 20 30 20 20 30 20 20 30 20 20 30 20 20 30 20 20 30 20 20 30 20 20 30 20 20 30 20 20 30 20 20 30 20 20 30 20 20 30 20 20 30 20 20 30 20 20 30 20 20 30 20 20 30 20 20 30 20 20 30 20 20 30 20 20 30 20 20 30 20 20 30 20 20 30 20 20 30 0 255 0 20 20 30 20 20 30 20 20 30 20 20 30 20 20 30 20 20 30 20 20 30 20 20 30 20 20 30 20 20 30 20 20 30 20 20 30 20 20 30 20 20 30 20 20 30 20 20 30 20 20 30 20 20 30 20 20 30 20 20 30 20 20 30 20 20 30 20 20 30 20 20 30 20 20 30 20 20 30 20 20 30 20 20 30 20 20 30 20 20 30 20 20 30 20 20 30 20 20 30 20 20 30 20 20 30 20 20 30 20 20 30 20 20 30 20 20 30 20 20 30 0 255 255 20 20 30 20 20 30 20 20 30 20 20 30 20 20 30 20 20 30 20 20 30 20 20 30 20 20 30 20 20 30 20 20 30 20 20 30 20 20 30 20 20 30 20 20 30 20 20 30 20 20 30 20 20 30 20 20 30 20 20 30 20 20 30 20 20 30 20 20 30 20 20 30 20 20 30 
20 20 30 20 20 30 20 20 30 20 20 30 20 20 30 20 20 30 20 20 30 20 20 30 20 20 30 20 20 30 20 20 30 20 20 30 20 20 30 20 20 30 20 20 30 20 20 30 20 20 30 20 20 30 20 20 30 20 20 30 255 255 0 20 20 30 20 20 30 20 20 30 20 20 30 20 20 30 20 20 30 20 20 30 20 20 30 20 20 30 20 20 30 20 20 30 20 20 30 20 20 30 20 20 30 20 20 30 20 20 30 20 20 30 20 20 30 20 20 30 20 20 30 20 20 30 20 20 30 20 20 30 20 20 30 20 20 30 20 20 30 20 20 30 20 20 30 20 20 30 20 20 30 20 20 30 20 20 30 20 20 30 20 20 30 20 20 30 20 20 30 20 20 30 20 20 30 20 20 30 20 20 30 20 20 30 20 20 30 20 20 30 20 20 30 20 20 30 20 20 30 255 0 0 20 20 30 20 20 30 20 20 30 20 20 30 20 20 30 20 20 30 20 20 30 20 20 30 20 20 30 20 20 30 20 20 30 20 20 30 20 20 30 20 20 30 20 20 30 20 20 30 20 20 30 20 20 30 20 20 30 20 20 30 20 20 30 20 20 30 20 20 30 20 20 30 20 20 30 20 20 30 20 20 30 20 20 30 20 20 30 20 20 30 20 20 30 20 20 30 255 255 0 20 20 30 20 20 30 20 20 30 20 20 30 20 20 30 20 20 30 20 20 30 20 20 30 20 20 30 20 20 30 20 20 30 20 20 30 20 20 30 20 20 30 20 20 30 20 20 30 20 20 30 20 20 30 20 20 30 20 20 30 20 20 30 20 20 30 20 20 30 20 20 30 20 20 30 20 20 30 20 20 30 20 20 30 20 20 30 20 20 30 20 20 30 20 20 30 20 20 30 20 20 30 20 20 30 20 20 30 20 20 30 20 20 30 20 20 30 0 255 255 20 20 30 20 20 30 20 20 30 20 20 30 20 20 30 20 20 30 20 20 30 20 20 30 20 20 30 20 20 30 20 20 30 20 20 30 20 20 30 20 20 30 20 20 30 20 20 30 20 20 30 20 20 30 20 20 30 20 20 30 20 20 30 20 20 30 20 20 30 20 20 30 20 20 30 20 20 30 20 20 30 20 20 30 20 20 30 20 20 30 20 20 30 20 20 30 20 20 30 20 20 30 20 20 30 20 20 30 20 20 30 20 20 30 20 20 30 20 20 30 20 20 30 20 20 30 20 20 30 20 20 30 20 20 30 20 20 30 20 20 30 0 255 0 20 20 30 20 20 30 20 20 30 20 20 30 20 20 30 20 20 30 20 20 30 20 20 30 20 20 30 20 20 30 20 20 30 20 20 30 20 20 30 20 20 30 20 20 30 20 20 30 20 20 30 20 20 30 20 20 30 20 20 30 20 20 30 20 20 30 20 20 30 20 20 30 20 20 30 20 20 30 20 20 30 20 20 30 20 20 30 20 20 30 20 20 30 20 20 30 20 20 30 20 20 30 20 20 30 20 20 30 20 20 30 20 20 30 20 20 30 20 20 30 20 20 30 0 255 255 20 20 30 20 20 30 20 20 30 20 20 30 20 20 30 20 20 30 20 20 30 20 20 30 20 20 30 20 20 30 20 20 30 20 20 30 20 20 30 20 20 30 20 20 30 20 20 30 20 20 30 20 20 30 20 20 30 20 20 30 20 20 30 20 20 30 20 20 30 20 20 30 20 20 30 
20 20 30 20 20 30 20 20 30 20 20 30 20 20 30 20 20 30 20 20 30 20 20 30 20 20 30 20 20 30 20 20 30 20 20 30 20 20 30 20 20 30 20 20 30 20 20 30 20 20 30 20 20 30 20 20 30 20 20 30 255 255 0 20 20 30 20 20 30 20 20 30 20 20 30 20 20 30 20 20 30 20 20 30 20 20 30 20 20 30 20 20 30 20 20 30 20 20 30 20 20 30 20 20 30 20 20 30 20 20 30 20 20 30 20 20 30 20 20 30 20 20 30 20 20 30 20 20 30 20 20 30 20 20 30 20 20 30 20 20 30 20 20 30 20 20 30 20 20 30 20 20 30 20 20 30 20 20 30 20 20 30 20 20 30 20 20 30 20 20 30 20 20 30 20 20 30 20 20 30 20 20 30 20 20 30 20 20 30 20 20 30 20 20 30 20 20 30 20 20 30 20 20 30 255 0 0 20 20 30 20 20 30 20 20 30 20 20 30 20 20 30 20 20 30 20 20 30 20 20 30 20 20 30 20 20 30 20 20 30 20 20 30 20 20 30 20 20 30 20 20 30 20 20 30 20 20 30 20 20 30 20 20 30 20 20 30 20 20 30 20 20 30 20 20 30 20 20 30 20 20 30 20 20 30 20 20 30 20 20 30 20 20 30 20 20 30 20 20 30 255 255 0 20 20 30 20 20 30 20 20 30 20 20 30 20 20 30 20 20 30 20 20 30 20 20 30 20 20 30 20 20 30 20 20 30 20 20 30 20 20 30 20 20 30 20 20 30 20 20 30 20 20 30 20 20 30 20 20 30 20 20 30 20 20 30 20 20 30 20 20 30 20 20 30 20 20 30 20 20 30 20 20 30 20 20 30 20 20 30 20 20 30 20 20 30 20 20 30 20 20 30 20 20 30 20 20 30 20 20 30 20 20 30 20 20 30 20 20 30 0 255 255 20 20 30 20 20 30 20 20 30 20 20 30 20 20 30 20 20 30 20 20 30 20 20 30 20 20 30 20 20 30 20 20 30 20 20 30 20 20 30 20 20 30 20 20 30 20 20 30 20 20 30 20 20 30 20 20 30 20 20 30 20 20 30 20 20 30 20 20 30 20 20 30 20 20 30 20 20 30 20 20 30 20 20 30 20 20 30 20 20 30 20 20 30 20 20 30 20 20 30 20 20 30 20 20 30 20 20 30 20 20 30 20 20 30 20 20 30 20 20 30 20 20 30 20 20 30 20 20 30 20 20 30 20 20 30 20 20 30 0 255 0 20 20 30 20 20 30 20 20 30 20 20 30 20 20 30 20 20 30 20 20 30 20 20 30 20 20 30 20 20 30 20 20 30 20 20 30 20 20 30 20 20 30 20 20 30 20 20 30 20 20 30 20 20 30 20 20 30 20 20 30 20 20 30 20 20 30 20 20 30 20 20 30 20 20 30 20 20 30 20 20 30 20 20 30 20 20 30 20 20 30 20 20 30 20 20 30 20 20 30 20 20 30 20 20 30 20 20 30 20 20 30 20 20 30 20 20 30 20 20 30 20 20 30 20 20 30 0 255 255 20 20 30 20 20 30 20 20 30 20 20 30 20 20 30 20 20 30 20 20 30 20 20 30 20 20 30 20 20 30 20 20 30 20 20 30 20 20 30 20 20 30 20 20 30 20 20 30 20 20 30 20 20 30 20 20 30 20 20 30 20 20 30 20 20 30 20 20 30 20 20 30 20 20 30 
20 20 30 20 20 30 20 20 30 20 20 30 20 20 30 20 20 30 20 20 30 20 20 30 20 20 30 20 20 30 20 20 30 20 20 30 20 20 30 20 20 30 20 20 30 20 20 30 20 20 30 20 20 30 20 20 30 20 20 30 255 255 0 20 20 30 20 20 30 20 20 30 20 20 30 20 20 30 20 20 30 20 20 30 20 20 30 20 20 30 20 20 30 20 20 30 20 20 30 20 20 30 20 20 30 20 20 30 20 20 30 20 20 30 20 20 30 20 20 30 20 20 30 20 20 30 20 20 30 20 20 30 20 20 30 20 20 30 20 20 30 20 20 30 20 20 30 20 20 30 20 20 30 20 20 30 20 20 30 20 20 30 20 20 30 20 20 30 20 20 30 20 20 30 20 20 30 20 20 30 20 20 30 20 20 30 20 20 30 20 20 30 20 20 30 20 20 30 20 20 30 20 20 30 20 20 30 255 0 0 20 20 30 20 20 30 20 20 30 20 20 30 20 20 30 20 20 30 20 20 30 20 20 30 20 20 30 20 20 30 20 20 30 20 20 30 20 20 30 20 20 30 20 20 30 20 20 30 20 20 30 20 20 30 20 20 30 20 20 30 20 20 30 20 20 30 20 20 30 20 20 30 20 20 30 20 20 30 20 20 30 20 20 30 20 20 30 20 20 30 255 255 0 20 20 30 20 20 30 20 20 30 20 20 30 20 20 30 20 20 30 20 20 30 20 20 30 20 20 30 20 20 30 20 20 30 20 20 30 20 20 30 20 20 30 20 20 30 20 20 30 20 20 30 20 20 30 20 20 30 20 20 30 20 20 30 20 20 30 20 20 30 20 20 30 20 20 30 20 20 30 20 20 30 20 20 30 20 20 30 20 20 30 20 20 30 20 20 30 20 20 30 20 20 30 20 20 30 20 20 30 20 20 30 20 20 30 20 20 30 0 255 255 20 20 30 20 20 30 20 20 30 20 20 30 20 20 30 20 20 30 20 20 30 20 20 30 20 20 30 20 20 30 20 20 30 20 20 30 20 20 30 20 20 30 20 20 30 20 20 30 20 20 30 20 20 30 20 20 30 20 20 30 20 20 30 20 20 30 20 20 30 20 20 30 20 20 30 20 20 30 20 20 30 20 20 30 20 20 30 20 20 30 20 20 30 20 20 30 20 20 30 20 20 30 20 20 30 20 20 30 20 20 30 20 20 30 20 20 30 20 20 30 20 20 30 20 20 30 20 20 30 20 20 30 20 20 30 0 255 0 20 20 30 20 20 30 20 20 30 20 20 30 20 20 30 20 20 30 20 20 30 20 20 30 20 20 30 20 20 30 20 20 30 20 20 30 20 20 30 20 20 30 20 20 30 20 20 30 20 20 30 20 20 30 20 20 30 20 20 30 20 20 30 20 20 30 20 20 30 20 20 30 20 20 30 20 20 30 20 20 30 20 20 30 20 20 30 20 20 30 20 20 30 20 20 30 20 20 30 20 20 30 20 20 30 20 20 30 20 20 30 20 20 30 20 20 30 20 20 30 20 20 30 20 20 30 20 20 30 0 255 255 20 20 30 20 20 30 20 20 30 20 20 30 20 20 30 20 20 30 20 20 30 20 20 30 20 20 30 20 20 30 20 20 30 20 20 30 20 20 30 20 20 30 20 20 30 20 20 30 20 20 30 20 20 30 20 20 30 20 20 30 20 20 30 20 20 30 20 20 30 20 20 30 20 20 30 
20 20 30 20 20 30 20 20 30 20 20 30 20 20 30 20 20 30 20 20 30 20 20 30 20 20 30 20 20 30 20 20 30 20 20 30 20 20 30 20 20 30 20 20 30 20 20 30 20 20 30 20 20 30 20 20 30 20 20 30 255 255 0 20 20 30 20 20 30 20 20 30 20 20 30 20 20 30 20 20 30 20 20 30 20 20 30 20 20 30 20 20 30 20 20 30 20 20 30 20 20 30 20 20 30 20 20 30 20 20 30 20 20 30 20 20 30 20 20 30 20 20 30 20 20 30 20 20 30 20 20 30 20 20 30 20 20 30 20 20 30 20 20 30 20 20 30 20 20 30 20 20 30 20 20 30 20 20 30 20 20 30 20 20 30 20 20 30 20 20 30 20 20 30 20 20 30 20 20 30 20 20 30 20 20 30 20 20 30 20 20 30 20 20 30 20 20 30 20 20 30 20 20 30 20 20 30 20 20 30 255 0 0 20 20 30 20 20 30 20 20 30 20 20 30 20 20 30 20 20 30 20 20 30 20 20 30 20 20 30 20 20 30 20 20 30 20 20 30 20 20 30 20 20 30 20 20 30 20 20 30 20 20 30 20 20 30 20 20 30 20 20 30 20 20 30 20 20 30 20 20 30 20 20 30 20 20 30 20 20 30 20 20 30 20 20 30 20 20 30 255 255 0 20 20 30 20 20 30 20 20 30 20 20 30 20 20 30 20 20 30 20 20 30 20 20 30 20 20 30 20 20 30 20 20 30 20 20 30 20 20 30 20 20 30 20 20 30 20 20 30 20 20 30 20 20 30 20 20 30 20 20 30 20 20 30 20 20 30 20 20 30 20 20 30 20 20 30 20 20 30 20 20 30 20 20 30 20 20 30 20 20 30 20 20 30 20 20 30 20 20 30 20 20 30 20 20 30 20 20 30 20 20 30 20 20 30 20 20 30 0 255 255 20 20 30 20 20 30 20 20 30 20 20 30 20 20 30 20 20 30 20 20 30 20 20 30 20 20 30 20 20 30 20 20 30 20 20 30 20 20 30 20 20 30 20 20 30 20 20 30 20 20 30 20 20 30 20 20 30 20 20 30 20 20 30 20 20 30 20 20 30 20 20 30 20 20 30 20 20 30 20 20 30 20 20 30 20 20 30 20 20 30 20 20 30 20 20 30 20 20 30 20 20 30 20 20 30 20 20 30 20 20 30 20 20 30 20 20 30 20 20 30 20 20 30 20 20 30 20 20 30 20 20 30 0 255 0 20 20 30 20 20 30 20 20 30 20 20 30 20 20 30 20 20 30 20 20 30 20 20 30 20 20 30 20 20 30 20 20 30 20 20 30 20 20 30 20 20 30 20 20 30 20 20 30 20 20 30 20 20 30 20 20 30 20 20 30 20 20 30 20 20 30 20 20 30 20 20 30 20 20 30 20 20 30 20 20 30 20 20 30 20 20 30 20 20 30 20 20 30 20 20 30 20 20 30 20 20 30 20 20 30 20 20 30 20 20 30 20 20 30 20 20 30 20 20 30 20 20 30 20 20 30 20 20 30 20 20 30 0 255 255 20 20 30 20 20 30 20 20 30 20 20 30 20 20 30 20 20 30 20 20 30 20 20 30 20 20 30 20 20 30 20 20 30 20 20 30 20 20 30 20 20 30 20 20 30 20 20 30 20 20 30 20 20 30 20 20 30 20 20 30 20 20 30 20 20 30 20 20 30 20 20 30 20 20 30 
20 20 30 20 20 30 20 20 30 20 20 30 20 20 30 20 20 30 20 20 30 20 20 30 20 20 30 20 20 30 20 20 30 20 20 30 20 20 30 20 20 30 20 20 30 20 20 30 20 20 30 20 20 30 20 20 30 20 20 30 255 255 0 20 20 30 20 20 30 20 20 30 20 20 30 20 20 30 20 20 30 20 20 30 20 20 30 20 20 30 20 20 30 20 20 30 20 20 30 20 20 30 20 20 30 20 20 30 20 20 30 20 20 30 20 20 30 20 20 30 20 20 30 20 20 30 20 20 30 20 20 30 20 20 30 20 20 30 20 20 30 20 20 30 20 20 30 20 20 30 20 20 30 20 20 30 20 20 30 20 20 30 20 20 30 20 20 30 20 20 30 20 20 30 20 20 30 20 20 30 20 20 30 20 20 30 20 20 30 20 20 30 20 20 30 20 20 30 20 20 30 20 20 30 20 20 30 20 20 30 20 20 30 255 0 0 20 20 30 20 20 30 20 20 30 20 20 30 20 20 30 20 20 30 20 20 30 20 20 30 20 20 30 20 20 30 20 20 30 20 20 30 20 20 30 20 20 30 20 20 30 20 20 30 20 20 30 20 20 30 20 20 30 20 20 30 20 20 30 20 20 30 20 20 30 20 20 30 20 20 30 20 20 30 20 20 30 20 20 30 255 255 0 20 20 30 20 20 30 20 20 30 20 20 30 20 20 30 20 20 30 20 20 30 20 20 30 20 20 30 20 20 30 20 20 30 20 20 30 20 20 30 20 20 30 20 20 30 20 20 30 20 20 30 20 20 30 20 20 30 20 20 30 20 20 30 20 20 30 20 20 30 20 20 30 20 20 30 20 20 30 20 20 30 20 20 30 20 20 30 20 20 30 20 20 30 20 20 30 20 20 30 20 20 30 20 20 30 20 20 30 20 20 30 20 20 30 20 20 30 0 255 255 20 20 30 20 20 30 20 20 30 20 20 30 20 20 30 20 20 30 20 20 30 20 20 30 20 20 30 20 20 30 20 20 30 20 20 30 20 20 30 20 20 30 20 20 30 20 20 30 20 20 30 20 20 30 20 20 30 20 20 30 20 20 30 20 20 30 20 20 30 20 20 30 20 20 30 20 20 30 20 20 30 20 20 30 20 20 30 20 20 30 20 20 30 20 20 30 20 20 30 20 20 30 20 20 30 20 20 30 20 20 30 20 20 30 20 20 30 20 20 30 20 20 30 20 20 30 20 20 30 0 255 0 20 20 30 20 20 30 20 20 30 20 20 30 20 20 30 20 20 30 20 20 30 20 20 30 20 20 30 20 20 30 20 20 30 20 20 30 20 20 30 20 20 30 20 20 30 20 20 30 20 20 30 20 20 30 20 20 30 20 20 30 20 20 30 20 20 30 20 20 30 20 20 30 20 20 30 20 20 30 20 20 30 20 20 30 20 20 30 20 20 30 20 20 30 20 20 30 20 20 30 20 20 30 20 20 30 20 20 30 20 20 30 20 20 30 20 20 30 20 20 30 20 20 30 20 20 30 20 20 30 20 20 30 20 20 30 0 255 255 20 20 30 20 20 30 20 20 30 20 20 30 20 20 30 20 20 30 20 20 30 20 20 30 20 20 30 20 20 30 20 20 30 20 20 30 20 20 30 20 20 30 20 20 30 20 20 30 20 20 30 20 20 30 20 20 30 20 20 30 20 20 30 20 20 30 20 20 30 20 20 30 20 20 30 
20 20 30 20 20 30 20 20 30 20 20 30 20 20 30 20 20 30 20 20 30 20 20 30 20 20 30 20 20 30 20 20 30 20 20 30 20 20 30 20 20 30 20 20 30 20 20 30 20 20 30 20 20 30 20 20 30 20 20 30 255 255 0 20 20 30 20 20 30 20 20 30 20 20 30 20 20 30 20 20 30 20 20 30 20 20 30 20 20 30 20 20 30 20 20 30 20 20 30 20 20 30 20 20 30 20 20 30 20 20 30 20 20 30 20 20 30 20 20 30 20 20 30 20 20 30 20 20 30 20 20 30 20 20 30 20 20 30 20 20 30 20 20 30 20 20 30 20 20 30 20 20 30 20 20 30 20 20 30 20 20 30 20 20 30 20 20 30 20 20 30 20 20 30 20 20 30 20 20 30 20 20 30 20 20 30 20 20 30 20 20 30 20 20 30 20 20 30 20 20 30 20 20 30 20 20 30 20 20 30 20 20 30 20 20 30 255 0 0 20 20 30 20 20 30 20 20 30 20 20 30 20 20 30 20 20 30 20 20 30 20 20 30 20 20 30 20 20 30 20 20 30 20 20 30 20 20 30 20 20 30 20 20 30 20 20 30 20 20 30 20 20 30 20 20 30 20 20 30 20 20 30 20 20 30 20 20 30 20 20 30 20 20 30 20 20 30 20 20 30 255 255 0 20 20 30 20 20 30 20 20 30 20 20 30 20 20 30 20 20 30 20 20 30 20 20 30 20 20 30 20 20 30 20 20 30 20 20 30 20 20 30 20 20 30 20 20 30 20 20 30 20 20 30 20 20 30 20 20 30 20 20 30 20 20 30 20 20 30 20 20 30 20 20 30 20 20 30 20 20 30 20 20 30 20 20 30 20 20 30 20 20 30 20 20 30 20 20 30 20 20 30 20 20 30 20 20 30 20 20 30 20 20 30 20 20 30 20 20 30 0 255 255 20 20 30 20 20 30 20 20 30 20 20 30 20 20 30 20 20 30 20 20 30 20 20 30 20 20 30 20 20 30 20 20 30 20 20 30 20 20 30 20 20 30 20 20 30 20 20 30 20 20 30 20 20 30 20 20 30 20 20 30 20 20 30 20 20 30 20 20 30 20 20 30 20 20 30 20 20 30 20 20 30 20 20 30 20 20 30 20 20 30 20 20 30 20 20 30 20 20 30 20 20 30 20 20 30 20 20 30 20 20 30 20 20 30 20 20 30 20 20 30 20 20 30 20 20 30 0 255 0 20 20 30 20 20 30 20 20 30 20 20 30 20 20 30 20 20 30 20 20 30 20 20 30 20 20 30 20 20 30 20 20 30 20 20 30 20 20 30 20 20 30 20 20 30 20 20 30 20 20 30 20 20 30 20 20 30 20 20 30 20 20 30 20 20 30 20 20 30 20 20 30 20 20 30 20 20 30 20 20 30 20 20 30 20 20 30 20 20 30 20 20 30 20 20 30 20 20 30 20 20 30 20 20 30 20 20 30 20 20 30 20 20 30 20 20 30 20 20 30 20 20 30 20 20 30 20 20 30 20 20 30 20 20 30 20 20 30 0 255 255 20 20 30 20 20 30 20 20 30 20 20 30 20 20 30 20 20 30 20 20 30 20 20 30 20 20 30 20 20 30 20 20 30 20 20 30 20 20 30 20 20 30 20 20 30 20 20 30 20 20 30 20 20 30 20 20 30 20 20 30 20 20 30 20 20 30 20 20 30 20 20 30 20 20 30 
20 20 30 20 20 30 20 20 30 20 20 30 20 20 30 20 20 30 20 20 30 20 20 30 20 20 30 20 20 30 20 20 30 20 20 30 20 20 30 20 20 30 20 20 30 20 20 30 20 20 30 20 20 30 20 20 30 20 20 30 255 255 0 20 20 30 20 20 30 20 20 30 20 20 30 20 20 30 20 20 30 20 20 30 20 20 30 20 20 30 20 20 30 20 20 30 20 20 30 20 20 30 20 20 30 20 20 30 20 20 30 20 20 30 20 20 30 20 20 30 20 20 30 20 20 30 20 20 30 20 20 30 20 20 30 20 20 30 20 20 30 20 20 30 20 20 30 20 20 30 20 20 30 20 20 30 20 20 30 20 20 30 20 20 30 20 20 30 20 20 30 20 20 30 20 20 30 20 20 30 20 20 30 20 20 30 20 20 30 20 20 30 20 20 30 20 20 30 20 20 30 20 20 30 20 20 30 20 20 30 20 20 30 20 20 30 20 20 30 255 0 0 20 20 30 20 20 30 20 20 30 20 20 30 20 20 30 20 20 30 20 20 30 20 20 30 20 20 30 20 20 30 20 20 30 20 20 30 20 20 30 20 20 30 20 20 30 20 20 30 20 20 30 20 20 30 20 20 30 20 20 30 20 20 30 20 20 30 20 20 30 20 20 30 20 20 30 20 20 30 255 255 0 20 20 30 20 20 30 20 20 30 20 20 30 20 20 30 20 20 30 20 20 30 20 20 30 20 20 30 20 20 30 20 20 30 20 20 30 20 20 30 20 20 30 20 20 30 20 20 30 20 20 30 20 20 30 20 20 30 20 20 30 20 20 30 20 20 30 20 20 30 20 20 30 20 20 30 20 20 30 20 20 30 20 20 30 20 20 30 20 20 30 20 20 30 20 20 30 20 20 30 20 20 30 20 20 30 20 20 30 20 20 30 20 20 30 20 20 30 0 255 255 20 20 30 20 20 30 20 20 30 20 20 30 20 20 30 20 20 30 20 20 30 20 20 30 20 20 30 20 20 30 20 20 30 20 20 30 20 20 30 20 20 30 20 20 30 20 20 30 20 20 30 20 20 30 20 20 30 20 20 30 20 20 30 20 20 30 20 20 30 20 20 30 20 20 30 20 20 30 20 20 30 20 20 30 20 20 30 20 20 30 20 20 30 20 20 30 20 20 30 20 20 30 20 20 30 20 20 30 20 20 30 20 20 30 20 20 30 20 20 30 20 20 30 0 255 0 20 20 30 20 20 30 20 20 30 20 20 30 20 20 30 20 20 30 20 20 30 20 20 30 20 20 30 20 20 30 20 20 30 20 20 30 20 20 30 20 20 30 20 20 30 20 20 30 20 20 30 20 20 30 20 20 30 20 20 30 20 20 30 20 20 30 20 20 30 20 20 30 20 20 30 20 20 30 20 20 30 20 20 30 20 20 30 20 20 30 20 20 30 20 20 30 20 20 30 20 20 30 20 20 30 20 20 30 20 20 30 20 20 30 20 20 30 20 20 30 20 20 30 20 20 30 20 20 30 20 20 30 20 20 30 20 20 30 20 20 30 0 255 255 20 20 30 20 20 30 20 20 30 20 20 30 20 20 30 20 20 30 20 20 30 20 20 30 20 20 30 20 20 30 20 20 30 20 20 30 20 20 30 20 20 30 20 20 30 20 20 30 20 20 30 20 20 30 20 20 30 20 20 30 20 20 30 20 20 30 20 20 30 20 20 30 20 20 30 
20 20 30 20 20 30 20 20 30 20 20 30 20 20 30 20 20 30 20 20 30 20 20 30 20 20 30 20 20 30 20 20 30 20 20 30 20 20 30 20 20 30 20 20 30 20 20 30 20 20 30 20 20 30 20 20 30 20 20 30 255 255 0 20 20 30 20 20 30 20 20 30 20 20 30 20 20 30 20 20 30 20 20 30 20 20 30 20 20 30 20 20 30 20 20 30 20 20 30 20 20 30 20 20 30 20 20 30 20 20 30 20 20 30 20 20 30 20 20 30 20 20 30 20 20 30 20 20 30 20 20 30 20 20 30 20 20 30 20 20 30 20 20 30 20 20 30 20 20 30 20 20 30 20 20 30 20 20 30 20 20 30 20 20 30 20 20 30 20 20 30 20 20 30 20 20 30 20 20 30 20 20 30 20 20 30 20 20 30 20 20 30 20 20 30 20 20 30 20 20 30 20 20 30 20 20 30 20 20 30 20 20 30 20 20 30 20 20 30 20 20 30 255 0 0 20 20 30 20 20 30 20 20 30 20 20 30 20 20 30 20 20 30 20 20 30 20 20 30 20 20 30 20 20 30 20 20 30 20 20 30 20 20 30 20 20 30 20 20 30 20 20 30 20 20 30 20 20 30 20 20 30 20 20 30 20 20 30 20 20 30 20 20 30 20 20 30 20 20 30 255 255 0 20 20 30 20 20 30 20 20 30 20 20 30 20 20 30 20 20 30 20 20 30 20 20 30 20 20 30 20 20 30 20 20 30 20 20 30 20 20 30 20 20 30 20 20 30 20 20 30 20 20 30 20 20 30 20 20 30 20 20 30 20 20 30 20 20 30 20 20 30 20 20 30 20 20 30 20 20 30 20 20 30 20 20 30 20 20 30 20 20 30 20 20 30 20 20 30 20 20 30 20 20 30 20 20 30 20 20 30 20 20 30 20 20 30 20 20 30 0 255 255 20 20 30 20 20 30 20 20 30 20 20 30 20 20 30 20 20 30 20 20 30 20 20 30 20 20 30 20 20 30 20 20 30 20 20 30 20 20 30 20 20 30 20 20 30 20 20 30 20 20 30 20 20 30 20 20 30 20 20 30 20 20 30 20 20 30 20 20 30 20 20 30 20 20 30 20 20 30 20 20 30 20 20 30 20 20 30 20 20 30 20 20 30 20 20 30 20 20 30 20 20 30 20 20 30 20 20 30 20 20 30 20 20 30 20 20 30 20 20 30 0 255 0 20 20 30 20 20 30 20 20 30 20 20 30 20 20 30 20 20 30 20 20 30 20 20 30 20 20 30 20 20 30 20 20 30 20 20 30 20 20 30 20 20 30 20 20 30 20 20 30 20 20 30 20 20 30 20 20 30 20 20 30 20 20 30 20 20 30 20 20 30 20 20 30 20 20 30 20 20 30 20 20 30 20 20 30 20 20 30 20 20 30 20 20 30 20 20 30 20 20 30 20 20 30 20 20 30 20 20 30 20 20 30 20 20 30 20 20 30 20 20 30 20 20 30 20 20 30 20 20 30 20 20 30 20 20 30 20 20 30 20 20 30 20 20 30 0 255 255 20 20 30 20 20 30 20 20 30 20 20 30 20 20 30 20 20 30 20 20 30 20 20 30 20 20 30 20 20 30 20 20 30 20 20 30 20 20 30 20 20 30 20 20 30 20 20 30 20 20 30 20 20 30 20 20 30 20 20 30 20 20 30 20 20 30 20 20 30 20 20 30 20 20 30 
20 20 30 20 20 30 20 20 30 20 20 30 20 20 30 20 20 30 20 20 30 20 20 30 20 20 30 20 20 30 20 20 30 20 20 30 20 20 30 20 20 30 20 20 30 20 20 30 20 20 30 20 20 30 20 20 30 20 20 30 255 255 0 20 20 30 20 20 30 20 20 30 20 20 30 20 20 30 20 20 30 20 20 30 20 20 30 20 20 30 20 20 30 20 20 30 20 20 30 20 20 30 20 20 30 20 20 30 20 20 30 20 20 30 20 20 30 20 20 30 20 20 30 20 20 30 20 20 30 20 20 30 20 20 30 20 20 30 20 20 30 20 20 30 20 20 30 20 20 30 20 20 30 20 20 30 20 20 30 20 20 30 20 20 30 20 20 30 20 20 30 20 20 30 20 20 30 20 20 30 20 20 30 20 20 30 20 20 30 20 20 30 20 20 30 20 20 30 20 20 30 20 20 30 20 20 30 20 20 30 20 20 30 20 20 30 20 20 30 20 20 30 20 20 30 255 0 0 20 20 30 20 20 30 20 20 30 20 20 30 20 20 30 20 20 30 20 20 30 20 20 30 20 20 30 20 20 30 20 20 30 20 20 30 20 20 30 20 20 30 20 20 30 20 20 30 20 20 30 20 20 30 20 20 30 20 20 30 20 20 30 20 20 30 20 20 30 20 20 30 255 255 0 20 20 30 20 20 30 20 20 30 20 20 30 20 20 30 20 20 30 20 20 30 20 20 30 20 20 30 20 20 30 20 20 30 20 20 30 20 20 30 20 20 30 20 20 30 20 20 30 20 20 30 20 20 30 20 20 30 20 20 30 20 20 30 20 20 30 20 20 30 20 20 30 20 20 30 20 20 30 20 20 30 20 20 30 20 20 30 20 20 30 20 20 30 20 20 30 20 20 30 20 20 30 20 20 30 20 20 30 20 20 30 20 20 30 20 20 30 0 255 255 20 20 30 20 20 30 20 20 30 20 20 30 20 20 30 20 20 30 20 20 30 20 20 30 20 20 30 20 20 30 20 20 30 20 20 30 20 20 30 20 20 30 20 20 30 20 20 30 20 20 30 20 20 30 20 20 30 20 20 30 20 20 30 20 20 30 20 20 30 20 20 30 20 20 30 20 20 30 20 20 30 20 20 30 20 20 30 20 20 30 20 20 30 20 20 30 20 20 30 20 20 30 20 20 30 20 20 30 20 20 30 20 20 30 20 20 30 0 255 0 20 20 30 20 20 30 20 20 30 20 20 30 20 20 30 20 20 30 20 20 30 20 20 30 20 20 30 20 20 30 20 20 30 20 20 30 20 20 30 20 20 30 20 20 30 20 20 30 20 20 30 20 20 30 20 20 30 20 20 30 20 20 30 20 20 30 20 20 30 20 20 30 20 20 30 20 20 30 20 20 30 20 20 30 20 20 30 20 20 30 20 20 30 20 20 30 20 20 30 20 20 30 20 20 30 20 20 30 20 20 30 20 20 30 20 20 30 20 20 30 20 20 30 20 20 30 20 20 30 20 20 30 20 20 30 20 20 30 20 20 30 20 20 30 20 20 30 0 255 255 20 20 30 20 20 30 20 20 30 20 20 30 20 20 30 20 20 30 20 20 30 20 20 30 20 20 30 20 20 30 20 20 30 20 20 30 20 20 30 20 20 30 20 20 30 20 20 30 20 20 30 20 20 30 20 20 30 20 20 30 20 20 30 20 20 30 20 20 30 20 20 30 20 20 30 
20 20 30 20 20 30 20 20 30 20 20 30 20 20 30 20 20 30 20 20 30 20 20 30 20 20 30 20 20 30 20 20 30 20 20 30 20 20 30 20 20 30 20 20 30 20 20 30 20 20 30 20 20 30 20 20 30 20 20 30 255 255 0 20 20 30 20 20 30 20 20 30 20 20 30 20 20 30 20 20 30 20 20 30 20 20 30 20 20 30 20 20 30 20 20 30 20 20 30 20 20 30 20 20 30 20 20 30 20 20 30 20 20 30 20 20 30 20 20 30 20 20 30 20 20 30 20 20 30 20 20 30 20 20 30 20 20 30 20 20 30 20 20 30 20 20 30 20 20 30 20 20 30 20 20 30 20 20 30 20 20 30 20 20 30 20 20 30 20 20 30 20 20 30 20 20 30 20 20 30 20 20 30 20 20 30 20 20 30 20 20 30 20 20 30 20 20 30 20 20 30 20 20 30 20 20 30 20 20 30 20 20 30 20 20 30 20 20 30 20 20 30 20 20 30 20 20 30 255 0 0 20 20 30 20 20 30 20 20 30 20 20 30 20 20 30 20 20 30 20 20 30 20 20 30 20 20 30 20 20 30 20 20 30 20 20 30 20 20 30 20 20 30 20 20 30 20 20 30 20 20 30 20 20 30 20 20 30 20 20 30 20 20 30 20 20 30 20 20 30 255 255 0 20 20 30 20 20 30 20 20 30 20 20 30 20 20 30 20 20 30 20 20 30 20 20 30 20 20 30 20 20 30 20 20 30 20 20 30 20 20 30 20 20 30 20 20 30 20 20 30 20 20 30 20 20 30 20 20 30 20 20 30 20 20 30 20 20 30 20 20 30 20 20 30 20 20 30 20 20 30 20 20 30 20 20 30 20 20 30 20 20 30 20 20 30 20 20 30 20 20 30 20 20 30 20 20 30 20 20 30 20 20 30 20 20 30 20 20 30 0 255 255 20 20 30 20 20 30 20 20 30 20 20 30 20 20 30 20 20 30 20 20 30 20 20 30 20 20 30 20 20 30 20 20 30 20 20 30 20 20 30 20 20 30 20 20 30 20 20 30 20 20 30 20 20 30 20 20 30 20 20 30 20 20 30 20 20 30 20 20 30 20 20 30 20 20 30 20 20 30 20 20 30 20 20 30 20 20 30 20 20 30 20 20 30 20 20 30 20 20 30 20 20 30 20 20 30 20 20 30 20 20 30 20 20 30 0 255 0 20 20 30 20 20 30 20 20 30 20 20 30 20 20 30 20 20 30 20 20 30 20 20 30 20 20 30 20 20 30 20 20 30 20 20 30 20 20 30 20 20 30 20 20 30 20 20 30 20 20 30 20 20 30 20 20 30 20 20 30 20 20 30 20 20 30 20 20 30 20 20 30 20 20 30 20 20 30 20 20 30 20 20 30 20 20 30 20 20 30 20 20 30 20 20 30 20 20 30 20 20 30 20 20 30 20 20 30 20 20 30 20 20 30 20 20 30 20 20 30 20 20 30 20 20 30 20 20 30 20 20 30 20 20 30 20 20 30 20 20 30 20 20 30 20 20 30 20 20 30 0 255 255 20 20 30 20 20 30 20 20 30 20 20 30 20 20 30 20 20 30 20 20 30 20 20 30 20 20 30 20 20 30 20 20 30 20 20 30 20 20 30 20 20 30 20 20 30 20 20 30 20 20 30 20 20 30 20 20 30 20 20 30 20 20 30 20 20 30 20 20 30 20 20 30 20 20 30 
20 20 30 20 20 30 20 20 30 20 20 30 20 20 30 20 20 30 20 20 30 20 20 30 20 20 30 20 20 30 20 20 30 20 20 30 20 20 30 20 20 30 20 20 30 20 20 30 20 20 30 20 20 30 20 20 30 20 20 30 255 255 0 20 20 30 20 20 30 20 20 30 20 20 30 20 20 30 20 20 30 20 20 30 20 20 30 20 20 30 20 20 30 20 20 30 20 20 30 20 20 30 20 20 30 20 20 30 20 20 30 20 20 30 20 20 30 20 20 30 20 20 30 20 20 30 20 20 30 20 20 30 20 20 30 20 20 30 20 20 30 20 20 30 20 20 30 20 20 30 20 20 30 20 20 30 20 20 30 20 20 30 20 20 30 20 20 30 20 20 30 20 20 30 20 20 30 20 20 30 20 20 30 20 20 30 20 20 30 20 20 30 20 20 30 20 20 30 20 20 30 20 20 30 20 20 30 20 20 30 20 20 30 20 20 30 20 20 30 20 20 30 20 20 30 20 20 30 20 20 30 255 0 0 20 20 30 20 20 30 20 20 30 20 20 30 20 20 30 20 20 30 20 20 30 20 20 30 20 20 30 20 20 30 20 20 30 20 20 30 20 20 30 20 20 30 20 20 30 20 20 30 20 20 30 20 20 30 20 20 30 20 20 30 20 20 30 20 20 30 255 255 0 20 20 30 20 20 30 20 20 30 20 20 30 20 20 30 20 20 30 20 20 30 20 20 30 20 20 30 20 20 30 20 20 30 20 20 30 20 20 30 20 20 30 20 20 30 20 20 30 20 20 30 20 20 30 20 20 30 20 20 30 20 20 30 20 20 30 20 20 30 20 20 30 20 20 30 20 20 30 20 20 30 20 20 30 20 20 30 20 20 30 20 20 30 20 20 30 20 20 30 20 20 30 20 20 30 20 20 30 20 20 30 20 20 30 20 20 30 0 255 255 20 20 30 20 20 30 20 20 30 20 20 30 20 20 30 20 20 30 20 20 30 20 20 30 20 20 30 20 20 30 20 20 30 20 20 30 20 20 30 20 20 30 20 20 30 20 20 30 20 20 30 20 20 30 20 20 30 20 20 30 20 20 30 20 20 30 20 20 30 20 20 30 20 20 30 20 20 30 20 20 30 20 20 30 20 20 30 20 20 30 20 20 30 20 20 30 20 20 30 20 20 30 20 20 30 20 20 30 20 20 30 0 255 0 20 20 30 20 20 30 20 20 30 20 20 30 20 20 30 20 20 30 20 20 30 20 20 30 20 20 30 20 20 30 20 20 30 20 20 30 20 20 30 20 20 30 20 20 30 20 20 30 20 20 30 20 20 30 20 20 30 20 20 30 20 20 30 20 20 30 20 20 30 20 20 30 20 20 30 20 20 30 20 20 30 20 20 30 20 20 30 20 20 30 20 20 30 20 20 30 20 20 30 20 20 30 20 20 30 20 20 30 20 20 30 20 20 30 20 20 30 20 20 30 20 20 30 20 20 30 20 20 30 20 20 30 20 20 30 20 20 30 20 20 30 20 20 30 20 20 30 20 20 30 20 20 30 0 255 255 20 20 30 20 20 30 20 20 30 20 20 30 20 20 30 20 20 30 20 20 30 20 20 30 20 20 30 20 20 30 20 20 30 20 20 30 20 20 30 20 20 30 20 20 30 20 20 30 20 20 30 20 20 30 20 20 30 20 20 30 20 20 30 20 20 30 20 20 30 20 20 30 20 20 30 
20 20 30 20 20 30 20 20 30 20 20 30 20 20 30 20 20 30 20 20 30 20 20 30 20 20 30 20 20 30 20 20 30 20 20 30 20 20 30 20 20 30 20 20 30 20 20 30 20 20 30 20 20 30 20 20 30 20 20 30 255 255 0 20 20 30 20 20 30 20 20 30 20 20 30 20 20 30 20 20 30 20 20 30 20 20 30 20 20 30 20 20 30 20 20 30 20 20 30 20 20 30 20 20 30 20 20 30 20 20 30 20 20 30 20 20 30 20 20 30 20 20 30 20 20 30 20 20 30 20 20 30 20 20 30 20 20 30 20 20 30 20 20 30 20 20 30 20 20 30 20 20 30 20 20 30 20 20 30 20 20 30 20 20 30 20 20 30 20 20 30 20 20 30 20 20 30 20 20 30 20 20 30 20 20 30 20 20 30 20 20 30 20 20 30 20 20 30 20 20 30 20 20 30 20 20 30 20 20 30 20 20 30 20 20 30 20 20 30 20 20 30 20 20 30 20 20 30 20 20 30 20 20 30 255 0 0 20 20 30 20 20 30 20 20 30 20 20 30 20 20 30 20 20 30 20 20 30 20 20 30 20 20 30 20 20 30 20 20 30 20 20 30 20 20 30 20 20 30 20 20 30 20 20 30 20 20 30 20 20 30 20 20 30 20 20 30 20 20 30 255 255 0 20 20 30 20 20 30 20 20 30 20 20 30 20 20 30 20 20 30 20 20 30 20 20 30 20 20 30 20 20 30 20 20 30 20 20 30 20 20 30 20 20 30 20 20 30 20 20 30 20 20 30 20 20 30 20 20 30 20 20 30 20 20 30 20 20 30 20 20 30 20 20 30 20 20 30 20 20 30 20 20 30 20 20 30 20 20 30 20 20 30 20 20 30 20 20 30 20 20 30 20 20 30 20 20 30 20 20 30 20 20 30 20 20 30 20 20 30 0 255 255 20 20 30 20 20 30 20 20 30 20 20 30 20 20 30 20 20 30 20 20 30 20 20 30 20 20 30 20 20 30 20 20 30 20 20 30 20 20 30 20 20 30 20 20 30 20 20 30 20 20 30 20 20 30 20 20 30 20 20 30 20 20 30 20 20 30 20 20 30 20 20 30 20 20 30 20 20 30 20 20 30 20 20 30 20 20 30 20 20 30 20 20 30 20 20 30 20 20 30 20 20 30 20 20 30 20 20 30 0 255 0 20 20 30 20 20 30 20 20 30 20 20 30 20 20 30 20 20 30 20 20 30 20 20 30 20 20 30 20 20 30 20 20 30 20 20 30 20 20 30 20 20 30 20 20 30 20 20 30 20 20 30 20 20 30 20 20 30 20 20 30 20 20 30 20 20 30 20 20 30 20 20 30 20 20 30 20 20 30 20 20 30 20 20 30 20 20 30 20 20 30 20 20 30 20 20 30 20 20 30 20 20 30 20 20 30 20 20 30 20 20 30 20 20 30 20 20 30 20 20 30 20 20 30 20 20 30 20 20 30 20 20 30 20 20 30 20 20 30 20 20 30 20 20 30 20 20 30 20 20 30 20 20 30 20 20 30 0 255 255 20 20 30 20 20 30 20 20 30 20 20 30 20 20 30 20 20 30 20 20 30 20 20 30 20 20 30 20 20 30 20 20 30 20 20 30 20 20 30 20 20 30 20 20 30 20 20 30 20 20 30 20 20 30 20 20 30 20 20 30 20 20 30 20 20 30 20 20 30 20 20 30 20 20 30 
20 20 30 20 20 30 20 20 30 20 20 30 20 20 30 20 20 30 20 20 30 20 20 30 20 20 30 20 20 30 20 20 30 20 20 30 20 20 30 20 20 30 20 20 30 20 20 30 20 20 30 20 20 30 20 20 30 20 20 30 255 255 0 20 20 30 20 20 30 20 20 30 20 20 30 20 20 30 20 20 30 20 20 30 20 20 30 20 20 30 20 20 30 20 20 30 20 20 30 20 20 30 20 20 30 20 20 30 20 20 30 20 20 30 20 20 30 20 20 30 20 20 30 20 20 30 20 20 30 20 20 30 20 20 30 20 20 30 20 20 30 20 20 30 20 20 30 20 20 30 20 20 30 20 20 30 20 20 30 20 20 30 20 20 30 20 20 30 20 20 30 20 20 30 20 20 30 20 20 30 20 20 30 20 20 30 20 20 30 20 20 30 20 20 30 20 20 30 20 20 30 20 20 30 20 20 30 20 20 30 20 20 30 20 20 30 20 20 30 20 20 30 20 20 30 20 20 30 20 20 30 20 20 30 20 20 30 255 0 0 20 20 30 20 20 30 20 20 30 20 20 30 20 20 30 20 20 30 20 20 30 20 20 30 20 20 30 20 20 30 20 20 30 20 20 30 20 20 30 20 20 30 20 20 30 20 20 30 20 20 30 20 20 30 20 20 30 20 20 30 255 255 0 20 20 30 20 20 30 20 20 30 20 20 30 20 20 30 20 20 30 20 20 30 20 20 30 20 20 30 20 20 30 20 20 30 20 20 30 20 20 30 20 20 30 20 20 30 20 20 30 20 20 30 20 20 30 20 20 30 20 20 30 20 20 30 20 20 30 20 20 30 20 20 30 20 20 30 20 20 30 20 20 30 20 20 30 20 20 30 20 20 30 20 20 30 20 20 30 20 20 30 20 20 30 20 20 30 20 20 30 20 20 30 20 20 30 20 20 30 0 255 255 20 20 30 20 20 30 20 20 30 20 20 30 20 20 30 20 20 30 20 20 30 20 20 30 20 20 30 20 20 30 20 20 30 20 20 30 20 20 30 20 20 30 20 20 30 20 20 30 20 20 30 20 20 30 20 20 30 20 20 30 20 20 30 20 20 30 20 20 30 20 20 30 20 20 30 20 20 30 20 20 30 20 20 30 20 20 30 20 20 30 20 20 30 20 20 30 20 20 30 20 20 30 20 20 30 0 255 0 20 20 30 20 20 30 20 20 30 20 20 30 20 20 30 20 20 30 20 20 30 20 20 30 20 20 30 20 20 30 20 20 30 20 20 30 20 20 30 20 20 30 20 20 30 20 20 30 20 20 30 20 20 30 20 20 30 20 20 30 20 20 30 20 20 30 20 20 30 20 20 30 20 20 30 20 20 30 20 20 30 20 20 30 20 20 30 20 20 30 20 20 30 20 20 30 20 20 30 20 20 30 20 20 30 20 20 30 20 20 30 20 20 30 20 20 30 20 20 30 20 20 30 20 20 30 20 20 30 20 20 30 20 20 30 20 20 30 20 20 30 20 20 30 20 20 30 20 20 30 20 20 30 20 20 30 20 20 30 0 255 255 20 20 30 20 20 30 20 20 30 20 20 30 20 20 30 20 20 30 20 20 30 20 20 30 20 20 30 20 20 30 20 20 30 20 20 30 20 20 30 20 20 30 20 20 30 20 20 30 20 20 30 20 20 30 20 20 30 20 20 30 20 20 30 20 20 30 20 20 30 20 20 30 20 20 30 
20 20 30 20 20 30 20 20 30 20 20 30 20 20 30 20 20 30 20 20 30 20 20 30 20 20 30 20 20 30 20 20 30 20 20 30 20 20 30 20 20 30 20 20 30 20 20 30 20 20 30 20 20 30 20 20 30 20 20 30 255 255 0 255 255 0 255 255 0 255 255 0 255 255 0 255 255 0 255 255 0 255 255 0 255 255 0 255 255 0 255 255 0 255 255 0 255 255 0 255 255 0 255 255 0 255 255 0 255 255 0 255 255 0 255 255 0 255 255 0 255 255 0 255 255 0 255 255 0 255 255 0 255 255 0 255 255 0 255 255 0 255 255 0 255 255 0 255 255 0 255 255 0 255 255 0 255 255 0 255 255 0 255 255 0 255 255 0 255 255 0 255 255 0 255 255 0 255 255 0 255 255 0 255 255 0 255 255 0 255 255 0 255 255 0 255 255 0 255 255 0 255 255 0 255 255 0 255 255 0 255 255 0 255 255 0 255 255 0 255 255 0 255 255 0 255 255 0 255 255 0 255 255 0 255 255 0 255 255 0 255 255 0 255 255 0 255 255 0 255 255 0 255 255 0 255 255 0 255 255 0 255 255 0 255 255 0 255 255 0 255 255 0 255 255 0 255 255 0 255 255 0 255 255 0 255 255 0 255 255 0 255 255 0 255 255 0 255 255 0 255 255 0 20 20 30 20 20 30 20 20 30 20 20 30 20 20 30 20 20 30 20 20 30 20 20 30 20 20 30 20 20 30 20 20 30 20 20 30 20 20 30 20 20 30 20 20 30 20 20 30 20 20 30 20 20 30 20 20 30 20 20 30 20 20 30 20 20 30 20 20 30 20 20 30 20 20 30 20 20 30 20 20 30 20 20 30 20 20 30 20 20 30 20 20 30 20 20 30 20 20 30 20 20 30 20 20 30 20 20 30 20 20 30 20 20 30 20 20 30 0 255 255 20 20 30 20 20 30 20 20 30 20 20 30 20 20 30 20 20 30 20 20 30 20 20 30 20 20 30 20 20 30 20 20 30 20 20 30 20 20 30 20 20 30 20 20 30 20 20 30 20 20 30 20 20 30 20 20 30 20 20 30 20 20 30 20 20 30 20 20 30 20 20 30 20 20 30 20 20 30 20 20 30 20 20 30 20 20 30 20 20 30 20 20 30 20 20 30 20 20 30 20 20 30 0 255 0 20 20 30 20 20 30 20 20 30 20 20 30 20 20 30 20 20 30 20 20 30 20 20 30 20 20 30 20 20 30 20 20 30 20 20 30 20 20 30 20 20 30 20 20 30 20 20 30 20 20 30 20 20 30 20 20 30 20 20 30 20 20 30 20 20 30 20 20 30 20 20 30 20 20 30 20 20 30 20 20 30 20 20 30 20 20 30 20 20 30 20 20 30 20 20 30 20 20 30 20 20 30 20 20 30 20 20 30 20 20 30 20 20 30 20 20 30 20 20 30 20 20 30 20 20 30 20 20 30 20 20 30 20 20 30 20 20 30 20 20 30 20 20 30 20 20 30 20 20 30 20 20 30 20 20 30 20 20 30 20 20 30 0 255 255 20 20 30 20 20 30 20 20 30 20 20 30 20 20 30 20 20 30 20 20 30 20 20 30 20 20 30 20 20 30 20 20 30 20 20 30 20 20 30 20 20 30 20 20 30 20 20 30 20 20 30 20 20 30 20 20 30 20 20 30 20 20 30 20 20 30 20 20 30 20 20 30 20 20 30 
20 20 30 20 20 30 20 20 30 20 20 30 20 20 30 20 20 30 20 20 30 20 20 30 20 20 30 20 20 30 20 20 30 20 20 30 20 20 30 20 20 30 20 20 30 20 20 30 20 20 30 20 20 30 20 20 30 20 20 30 20 20 30 20 20 30 20 20 30 20 20 30 20 20 30 20 20 30 20 20 30 20 20 30 20 20 30 20 20 30 20 20 30 20 20 30 20 20 30 20 20 30 20 20 30 20 20 30 20 20 30 20 20 30 20 20 30 20 20 30 20 20 30 20 20 30 20 20 30 20 20 30 20 20 30 20 20 30 20 20 30 20 20 30 20 20 30 20 20 30 20 20 30 20 20 30 20 20 30 20 20 30 20 20 30 20 20 30 20 20 30 20 20 30 20 20 30 20 20 30 20 20 30 20 20 30 20 20 30 20 20 30 20 20 30 20 20 30 20 20 30 20 20 30 20 20 30 20 20 30 20 20 30 20 20 30 20 20 30 20 20 30 20 20 30 20 20 30 20 20 30 20 20 30 20 20 30 20 20 30 20 20 30 255 0 0 20 20 30 20 20 30 20 20 30 20 20 30 20 20 30 20 20 30 20 20 30 20 20 30 20 20 30 20 20 30 20 20 30 20 20 30 20 20 30 20 20 30 20 20 30 20 20 30 20 20 30 20 20 30 20 20 30 20 20 30 20 20 30 20 20 30 20 20 30 20 20 30 20 20 30 20 20 30 20 20 30 20 20 30 20 20 30 20 20 30 20 20 30 20 20 30 20 20 30 20 20 30 20 20 30 20 20 30 20 20 30 20 20 30 20 20 30 20 20 30 20 20 30 20 20 30 20 20 30 20 20 30 20 20 30 20 20 30 20 20 30 20 20 30 20 20 30 20 20 30 20 20 30 20 20 30 20 20 30 20 20 30 20 20 30 20 20 30 20 20 30 20 20 30 0 255 255 20 20 30 20 20 30 20 20 30 20 20 30 20 20 30 20 20 30 20 20 30 20 20 30 20 20 30 20 20 30 20 20 30 20 20 30 20 20 30 20 20 30 20 20 30 20 20 30 20 20 30 20 20 30 20 20 30 20 20 30 20 20 30 20 20 30 20 20 30 20 20 30 20 20 30 20 20 30 20 20 30 20 20 30 20 20 30 20 20 30 20 20 30 20 20 30 20 20 30 0 255 0 20 20 30 20 20 30 20 20 30 20 20 30 20 20 30 20 20 30 20 20 30 20 20 30 20 20 30 20 20 30 20 20 30 20 20 30 20 20 30 20 20 30 20 20 30 20 20 30 20 20 30 20 20 30 20 20 30 20 20 30 20 20 30 20 20 30 20 20 30 20 20 30 20 20 30 20 20 30 20 20 30 20 20 30 20 20 30 20 20 30 20 20 30 20 20 30 20 20 30 20 20 30 20 20 30 20 20 30 20 20 30 20 20 30 20 20 30 20 20 30 20 20 30 20 20 30 20 20 30 20 20 30 20 20 30 20 20 30 20 20 30 20 20 30 20 20 30 20 20 30 20 20 30 20 20 30 20 20 30 20 20 30 20 20 30 0 255 255 20 20 30 20 20 30 20 20 30 20 20 30 20 20 30 20 20 30 20 20 30 20 20 30 20 20 30 20 20 30 20 20 30 20 20 30 20 20 30 20 20 30 20 20 30 20 20 30 20 20 30 20 20 30 20 20 30 20 20 30 20 20 30 20 20 30 20 20 30 20 20 30 20 20 30 
20 20 30 20 20 30 20 20 30 20 20 30 20 20 30 20 20 30 20 20 30 20 20 30 20 20 30 20 20 30 20 20 30 20 20 30 20 20 30 20 20 30 20 20 30 20 20 30 20 20 30 20 20 30 20 20 30 20 20 30 20 20 30 20 20 30 20 20 30 20 20 30 20 20 30 20 20 30 20 20 30 20 20 30 20 20 30 20 20 30 20 20 30 20 20 30 20 20 30 20 20 30 20 20 30 20 20 30 20 20 30 20 20 30 20 20 30 20 20 30 20 20 30 20 20 30 20 20 30 20 20 30 20 20 30 20 20 30 20 20 30 20 20 30 20 20 30 20 20 30 20 20 30 20 20 30 20 20 30 20 20 30 20 20 30 20 20 30 20 20 30 20 20 30 20 20 30 20 20 30 20 20 30 20 20 30 20 20 30 20 20 30 20 20 30 20 20 30 20 20 30 20 20 30 20 20 30 20 20 30 20 20 30 20 20 30 20 20 30 20 20 30 20 20 30 20 20 30 20 20 30 20 20 30 20 20 30 20 20 30 20 20 30 20 20 30 255 0 0 20 20 30 20 20 30 20 20 30 20 20 30 20 20 30 20 20 30 20 20 30 20 20 30 20 20 30 20 20 30 20 20 30 20 20 30 20 20 30 20 20 30 20 20 30 20 20 30 20 20 30 20 20 30 20 20 30 20 20 30 20 20 30 20 20 30 20 20 30 20 20 30 20 20 30 20 20 30 20 20 30 20 20 30 20 20 30 20 20 30 20 20 30 20 20 30 20 20 30 20 20 30 20 20 30 20 20 30 20 20 30 20 20 30 20 20 30 20 20 30 20 20 30 20 20 30 20 20 30 20 20 30 20 20 30 20 20 30 20 20 30 20 20 30 20 20 30 20 20 30 20 20 30 20 20 30 20 20 30 20 20 30 20 20 30 20 20 30 20 20 30 0 255 255 20 20 30 20 20 30 20 20 30 20 20 30 20 20 30 20 20 30 20 20 30 20 20 30 20 20 30 20 20 30 20 20 30 20 20 30 20 20 30 20 20 30 20 20 30 20 20 30 20 20 30 20 20 30 20 20 30 20 20 30 20 20 30 20 20 30 20 20 30 20 20 30 20 20 30 20 20 30 20 20 30 20 20 30 20 20 30 20 20 30 20 20 30 20 20 30 0 255 0 20 20 30 20 20 30 20 20 30 20 20 30 20 20 30 20 20 30 20 20 30 20 20 30 20 20 30 20 20 30 20 20 30 20 20 30 20 20 30 20 20 30 20 20 30 20 20 30 20 20 30 20 20 30 20 20 30 20 20 30 20 20 30 20 20 30 20 20 30 20 20 30 20 20 30 20 20 30 20 20 30 20 20 30 20 20 30 20 20 30 20 20 30 20 20 30 20 20 30 20 20 30 20 20 30 20 20 30 20 20 30 20 20 30 20 20 30 20 20 30 20 20 30 20 20 30 20 20 30 20 20 30 20 20 30 20 20 30 20 20 30 20 20 30 20 20 30 20 20 30 20 20 30 20 20 30 20 20 30 20 20 30 20 20 30 20 20 30 0 255 255 20 20 30 20 20 30 20 20 30 20 20 30 20 20 30 20 20 30 20 20 30 20 20 30 20 20 30 20 20 30 20 20 30 20 20 30 20 20 30 20 20 30 20 20 30 20 20 30 20 20 30 20 20 30 20 20 30 20 20 30 20 20 30 20 20 30 20 20 30 20 20 30 20 20 30 
20 20 30 20 20 30 20 20 30 20 20 30 20 20 30 20 20 30 20 20 30 20 20 30 20 20 30 20 20 30 20 20 30 20 20 30 20 20 30 20 20 30 20 20 30 20 20 30 20 20 30 20 20 30 20 20 30 20 20 30 20 20 30 20 20 30 20 20 30 20 20 30 20 20 30 20 20 30 20 20 30 20 20 30 20 20 30 20 20 30 20 20 30 20 20 30 20 20 30 20 20 30 20 20 30 20 20 30 20 20 30 20 20 30 20 20 30 20 20 30 20 20 30 20 20 30 20 20 30 20 20 30 20 20 30 20 20 30 20 20 30 20 20 30 20 20 30 20 20 30 20 20 30 20 20 30 20 20 30 20 20 30 20 20 30 20 20 30 20 20 30 20 20 30 20 20 30 20 20 30 20 20 30 20 20 30 20 20 30 20 20 30 20 20 30 20 20 30 20 20 30 20 20 30 20 20 30 20 20 30 20 20 30 20 20 30 20 20 30 20 20 30 20 20 30 20 20 30 20 20 30 20 20 30 20 20 30 20 20 30 20 20 30 20 20 30 20 20 30 255 0 0 20 20 30 20 20 30 20 20 30 20 20 30 20 20 30 20 20 30 20 20 30 20 20 30 20 20 30 20 20 30 20 20 30 20 20 30 20 20 30 20 20 30 20 20 30 20 20 30 20 20 30 20 20 30 20 20 30 20 20 30 20 20 30 20 20 30 20 20 30 20 20 30 20 20 30 20 20 30 20 20 30 20 20 30 20 20 30 20 20 30 20 20 30 20 20 30 20 20 30 20 20 30 20 20 30 20 20 30 20 20 30 20 20 30 20 20 30 20 20 30 20 20 30 20 20 30 20 20 30 20 20 30 20 20 30 20 20 30 20 20 30 20 20 30 20 20 30 20 20 30 20 20 30 20 20 30 20 20 30 20 20 30 20 20 30 20 20 30 0 255 255 20 20 30 20 20 30 20 20 30 20 20 30 20 20 30 20 20 30 20 20 30 20 20 30 20 20 30 20 20 30 20 20 30 20 20 30 20 20 30 20 20 30 20 20 30 20 20 30 20 20 30 20 20 30 20 20 30 20 20 30 20 20 30 20 20 30 20 20 30 20 20 30 20 20 30 20 20 30 20 20 30 20 20 30 20 20 30 20 20 30 20 20 30 0 255 0 20 20 30 20 20 30 20 20 30 20 20 30 20 20 30 20 20 30 20 20 30 20 20 30 20 20 30 20 20 30 20 20 30 20 20 30 20 20 30 20 20 30 20 20 30 20 20 30 20 20 30 20 20 30 20 20 30 20 20 30 20 20 30 20 20 30 20 20 30 20 20 30 20 20 30 20 20 30 20 20 30 20 20 30 20 20 30 20 20 30 20 20 30 20 20 30 20 20 30 20 20 30 20 20 30 20 20 30 20 20 30 20 20 30 20 20 30 20 20 30 20 20 30 20 20 30 20 20 30 20 20 30 20 20 30 20 20 30 20 20 30 20 20 30 20 20 30 20 20 30 20 20 30 20 20 30 20 20 30 20 20 30 20 20 30 20 20 30 20 20 30 0 255 255 20 20 30 20 20 30 20 20 30 20 20 30 20 20 30 20 20 30 20 20 30 20 20 30 20 20 30 20 20 30 20 20 30 20 20 30 20 20 30 20 20 30 20 20 30 20 20 30 20 20 30 20 20 30 20 20 30 20 20 30 20 20 30 20 20 30 20 20 30 20 20 30 20 20 30 
20 20 30 20 20 30 20 20 30 20 20 30 20 20 30 20 20 30 20 20 30 20 20 30 20 20 30 20 20 30 20 20 30 20 20 30 20 20 30 20 20 30 20 20 30 20 20 30 20 20 30 20 20 30 20 20 30 20 20 30 20 20 30 20 20 30 20 20 30 20 20 30 20 20 30 20 20 30 20 20 30 20 20 30 20 20 30 20 20 30 20 20 30 20 20 30 20 20 30 20 20 30 20 20 30 20 20 30 20 20 30 20 20 30 20 20 30 20 20 30 20 20 30 20 20 30 20 20 30 20 20 30 20 20 30 20 20 30 20 20 30 20 20 30 20 20 30 20 20 30 20 20 30 20 20 30 20 20 30 20 20 30 20 20 30 20 20 30 20 20 30 20 20 30 20 20 30 20 20 30 20 20 30 20 20 30 20 20 30 20 20 30 20 20 30 20 20 30 20 20 30 20 20 30 20 20 30 20 20 30 20 20 30 20 20 30 20 20 30 20 20 30 20 20 30 20 20 30 20 20 30 20 20 30 20 20 30 20 20 30 20 20 30 20 20 30 20 20 30 20 20 30 255 0 0 20 20 30 20 20 30 20 20 30 20 20 30 20 20 30 20 20 30 20 20 30 20 20 30 20 20 30 20 20 30 20 20 30 20 20 30 20 20 30 20 20 30 20 20 30 20 20 30 20 20 30 20 20 30 20 20 30 20 20 30 20 20 30 20 20 30 20 20 30 20 20 30 20 20 30 20 20 30 20 20 30 20 20 30 20 20 30 20 20 30 20 20 30 20 20 30 20 20 30 20 20 30 20 20 30 20 20 30 20 20 30 20 20 30 20 20 30 20 20 30 20 20 30 20 20 30 20 20 30 20 20 30 20 20 30 20 20 30 20 20 30 20 20 30 20 20 30 20 20 30 20 20 30 20 20 30 20 20 30 20 20 30 20 20 30 0 255 255 20 20 30 20 20 30 20 20 30 20 20 30 20 20 30 20 20 30 20 20 30 20 20 30 20 20 30 20 20 30 20 20 30 20 20 30 20 20 30 20 20 30 20 20 30 20 20 30 20 20 30 20 20 30 20 20 30 20 20 30 20 20 30 20 20 30 20 20 30 20 20 30 20 20 30 20 20 30 20 20 30 20 20 30 20 20 30 20 20 30 0 255 0 20 20 30 20 20 30 20 20 30 20 20 30 20 20 30 20 20 30 20 20 30 20 20 30 20 20 30 20 20 30 20 20 30 20 20 30 20 20 30 20 20 30 20 20 30 20 20 30 20 20 30 20 20 30 20 20 30 20 20 30 20 20 30 20 20 30 20 20 30 20 20 30 20 20 30 20 20 30 20 20 30 20 20 30 20 20 30 20 20 30 20 20 30 20 20 30 20 20 30 20 20 30 20 20 30 20 20 30 20 20 30 20 20 30 20 20 30 20 20 30 20 20 30 20 20 30 20 20 30 20 20 30 20 20 30 20 20 30 20 20 30 20 20 30 20 20 30 20 20 30 20 20 30 20 20 30 20 20 30 20 20 30 20 20 30 20 20 30 20 20 30 20 20 30 0 255 255 20 20 30 20 20 30 20 20 30 20 20 30 20 20 30 20 20 30 20 20 30 20 20 30 20 20 30 20 20 30 20 20 30 20 20 30 20 20 30 20 20 30 20 20 30 20 20 30 20 20 30 20 20 30 20 20 30 20 20 30 20 20 30 20 20 30 20 20 30 20 20 30 20 20 30 
20 20 30 20 20 30 20 20 30 20 20 30 20 20 30 20 20 30 20 20 30 20 20 30 20 20 30 20 20 30 20 20 30 20 20 30 20 20 30 20 20 30 20 20 30 20 20 30 20 20 30 20 20 30 20 20 30 20 20 30 20 20 30 20 20 30 20 20 30 20 20 30 20 20 30 20 20 30 20 20 30 20 20 30 20 20 30 20 20 30 20 20 30 20 20 30 20 20 30 20 20 30 20 20 30 20 20 30 20 20 30 20 20 30 20 20 30 20 20 30 20 20 30 20 20 30 20 20 30 20 20 30 20 20 30 20 20 30 20 20 30 20 20 30 20 20 30 20 20 30 20 20 30 20 20 30 20 20 30 20 20 30 20 20 30 20 20 30 20 20 30 20 20 30 20 20 30 20 20 30 20 20 30 20 20 30 20 20 30 20 20 30 20 20 30 20 20 30 20 20 30 20 20 30 20 20 30 20 20 30 20 20 30 20 20 30 20 20 30 20 20 30 20 20 30 20 20 30 20 20 30 20 20 30 20 20 30 20 20 30 20 20 30 20 20 30 20 20 30 20 20 30 20 20 30 255 0 0 20 20 30 20 20 30 20 20 30 20 20 30 20 20 30 20 20 30 20 20 30 20 20 30 20 20 30 20 20 30 20 20 30 20 20 30 20 20 30 20 20 30 20 20 30 20 20 30 20 20 30 20 20 30 20 20 30 20 20 30 20 20 30 20 20 30 20 20 30 20 20 30 20 20 30 20 20 30 20 20 30 20 20 30 20 20 30 20 20 30 20 20 30 20 20 30 20 20 30 20 20 30 20 20 30 20 20 30 20 20 30 20 20 30 20 20 30 20 20 30 20 20 30 20 20 30 20 20 30 20 20 30 20 20 30 20 20 30 20 20 30 20 20 30 20 20 30 20 20 30 20 20 30 20 20 30 20 20 30 20 20 30 0 255 255 20 20 30 20 20 30 20 20 30 20 20 30 20 20 30 20 20 30 20 20 30 20 20 30 20 20 30 20 20 30 20 20 30 20 20 30 20 20 30 20 20 30 20 20 30 20 20 30 20 20 30 20 20 30 20 20 30 20 20 30 20 20 30 20 20 30 20 20 30 20 20 30 20 20 30 20 20 30 20 20 30 20 20 30 20 20 30 0 255 0 20 20 30 20 20 30 20 20 30 20 20 30 20 20 30 20 20 30 20 20 30 20 20 30 20 20 30 20 20 30 20 20 30 20 20 30 20 20 30 20 20 30 20 20 30 20 20 30 20 20 30 20 20 30 20 20 30 20 20 30 20 20 30 20 20 30 20 20 30 20 20 30 20 20 30 20 20 30 20 20 30 20 20 30 20 20 30 20 20 30 20 20 30 20 20 30 20 20 30 20 20 30 20 20 30 20 20 30 20 20 30 20 20 30 20 20 30 20 20 30 20 20 30 20 20 30 20 20 30 20 20 30 20 20 30 20 20 30 20 20 30 20 20 30 20 20 30 20 20 30 20 20 30 20 20 30 20 20 30 20 20 30 20 20 30 20 20 30 20 20 30 20 20 30 20 20 30 0 255 255 20 20 30 20 20 30 20 20 30 20 20 30 20 20 30 20 20 30 20 20 30 20 20 30 20 20 30 20 20 30 20 20 30 20 20 30 20 20 30 20 20 30 20 20 30 20 20 30 20 20 30 20 20 30 20 20 30 20 20 30 20 20 30 20 20 30 20 20 30 20 20 30 20 20 30 
20 20 30 20 20 30 20 20 30 20 20 30 20 20 30 20 20 30 20 20 30 20 20 30 20 20 30 20 20 30 20 20 30 20 20 30 20 20 30 20 20 30 20 20 30 20 20 30 20 20 30 20 20 30 20 20 30 20 20 30 20 20 30 20 20 30 20 20 30 20 20 30 20 20 30 20 20 30 20 20 30 20 20 30 20 20 30 20 20 30 20 20 30 20 20 30 20 20 30 20 20 30 20 20 30 20 20 30 20 20 30 20 20 30 20 20 30 20 20 30 20 20 30 20 20 30 20 20 30 20 20 30 20 20 30 20 20 30 20 20 30 20 20 30 20 20 30 20 20 30 20 20 30 20 20 30 20 20 30 20 20 30 20 20 30 20 20 30 20 20 30 20 20 30 20 20 30 20 20 30 20 20 30 20 20 30 20 20 30 20 20 30 20 20 30 20 20 30 20 20 30 20 20 30 20 20 30 20 20 30 20 20 30 20 20 30 20 20 30 20 20 30 20 20 30 20 20 30 20 20 30 20 20 30 20 20 30 20 20 30 20 20 30 20 20 30 20 20 30 20 20 30 20 20 30 20 20 30 255 0 0 20 20 30 20 20 30 20 20 30 20 20 30 20 20 30 20 20 30 20 20 30 20 20 30 20 20 30 20 20 30 20 20 30 20 20 30 20 20 30 20 20 30 20 20 30 20 20 30 20 20 30 20 20 30 20 20 30 20 20 30 20 20 30 20 20 30 20 20 30 20 20 30 20 20 30 20 20 30 20 20 30 20 20 30 20 20 30 20 20 30 20 20 30 20 20 30 20 20 30 20 20 30 20 20 30 20 20 30 20 20 30 20 20 30 20 20 30 20 20 30 20 20 30 20 20 30 20 20 30 20 20 30 20 20 30 20 20 30 20 20 30 20 20 30 20 20 30 20 20 30 20 20 30 20 20 30 20 20 30 0 255 255 20 20 30 20 20 30 20 20 30 20 20 30 20 20 30 20 20 30 20 20 30 20 20 30 20 20 30 20 20 30 20 20 30 20 20 30 20 20 30 20 20 30 20 20 30 20 20 30 20 20 30 20 20 30 20 20 30 20 20 30 20 20 30 20 20 30 20 20 30 20 20 30 20 20 30 20 20 30 20 20 30 20 20 30 0 255 0 20 20 30 20 20 30 20 20 30 20 20 30 20 20 30 20 20 30 20 20 30 20 20 30 20 20 30 20 20 30 20 20 30 20 20 30 20 20 30 20 20 30 20 20 30 20 20 30 20 20 30 20 20 30 20 20 30 20 20 30 20 20 30 20 20 30 20 20 30 20 20 30 20 20 30 20 20 30 20 20 30 20 20 30 20 20 30 20 20 30 20 20 30 20 20 30 20 20 30 20 20 30 20 20 30 20 20 30 20 20 30 20 20 30 20 20 30 20 20 30 20 20 30 20 20 30 20 20 30 20 20 30 20 20 30 20 20 30 20 20 30 20 20 30 20 20 30 20 20 30 20 20 30 20 20 30 20 20 30 20 20 30 20 20 30 20 20 30 20 20 30 20 20 30 20 20 30 20 20 30 0 255 255 20 20 30 20 20 30 20 20 30 20 20 30 20 20 30 20 20 30 20 20 30 20 20 30 20 20 30 20 20 30 20 20 30 20 20 30 20 20 30 20 20 30 20 20 30 20 20 30 20 20 30 20 20 30 20 20 30 20 20 30 20 20 30 20 20 30 20 20 30 20 20 30 20 20 30 
20 20 30 20 20 30 20 20 30 20 20 30 20 20 30 20 20 30 20 20 30 20 20 30 20 20 30 20 20 30 20 20 30 20 20 30 20 20 30 20 20 30 20 20 30 20 20 30 20 20 30 20 20 30 20 20 30 20 20 30 20 20 30 20 20 30 20 20 30 20 20 30 20 20 30 20 20 30 20 20 30 20 20 30 20 20 30 20 20 30 20 20 30 20 20 30 20 20 30 20 20 30 20 20 30 20 20 30 20 20 30 20 20 30 20 20 30 20 20 30 20 20 30 20 20 30 20 20 30 20 20 30 20 20 30 20 20 30 20 20 30 20 20 30 20 20 30 20 20 30 20 20 30 20 20 30 20 20 30 20 20 30 20 20 30 20 20 30 20 20 30 20 20 30 20 20 30 20 20 30 20 20 30 20 20 30 20 20 30 20 20 30 20 20 30 20 20 30 20 20 30 20 20 30 20 20 30 20 20 30 20 20 30 20 20 30 20 20 30 20 20 30 20 20 30 20 20 30 20 20 30 20 20 30 20 20 30 20 20 30 20 20 30 20 20 30 20 20 30 20 20 30 20 20 30 20 20 30 20 20 30 255 0 0 20 20 30 20 20 30 20 20 30 20 20 30 20 20 30 20 20 30 20 20 30 20 20 30 20 20 30 20 20 30 20 20 30 20 20 30 20 20 30 20 20 30 20 20 30 20 20 30 20 20 30 20 20 30 20 20 30 20 20 30 20 20 30 20 20 30 20 20 30 20 20 30 20 20 30 20 20 30 20 20 30 20 20 30 20 20 30 20 20 30 20 20 30 20 20 30 20 20 30 20 20 30 20 20 30 20 20 30 20 20 30 20 20 30 20 20 30 20 20 30 20 20 30 20 20 30 20 20 30 20 20 30 20 20 30 20 20 30 20 20 30 20 20 30 20 20 30 20 20 30 20 20 30 20 20 30 0 255 255 20 20 30 20 20 30 20 20 30 20 20 30 20 20 30 20 20 30 20 20 30 20 20 30 20 20 30 20 20 30 20 20 30 20 20 30 20 20 30 20 20 30 20 20 30 20 20 30 20 20 30 20 20 30 20 20 30 20 20 30 20 20 30 20 20 30 20 20 30 20 20 30 20 20 30 20 20 30 20 20 30 0 255 0 20 20 30 20 20 30 20 20 30 20 20 30 20 20 30 20 20 30 20 20 30 20 20 30 20 20 30 20 20 30 20 20 30 20 20 30 20 20 30 20 20 30 20 20 30 20 20 30 20 20 30 20 20 30 20 20 30 20 20 30 20 20 30 20 20 30 20 20 30 20 20 30 20 20 30 20 20 30 20 20 30 20 20 30 20 20 30 20 20 30 20 20 30 20 20 30 20 20 30 20 20 30 20 20 30 20 20 30 20 20 30 20 20 30 20 20 30 20 20 30 20 20 30 20 20 30 20 20 30 20 20 30 20 20 30 20 20 30 20 20 30 20 20 30 20 20 30 20 20 30 20 20 30 20 20 30 20 20 30 20 20 30 20 20 30 20 20 30 20 20 30 20 20 30 20 20 30 20 20 30 20 20 30 0 255 255 20 20 30 20 20 30 20 20 30 20 20 30 20 20 30 20 20 30 20 20 30 20 20 30 20 20 30 20 20 30 20 20 30 20 20 30 20 20 30 20 20 30 20 20 30 20 20 30 20 20 30 20 20 30 20 20 30 20 20 30 20 20 30 20 20 30 20 20 30 20 20 30 20 20 30 
20 20 30 20 20 30 20 20 30 20 20 30 20 20 30 20 20 30 20 20 30 20 20 30 20 20 30 20 20 30 20 20 30 20 20 30 20 20 30 20 20 30 20 20 30 20 20 30 20 20 30 20 20 30 20 20 30 20 20 30 20 20 30 20 20 30 20 20 30 20 20 30 20 20 30 20 20 30 20 20 30 20 20 30 20 20 30 20 20 30 20 20 30 20 20 30 20 20 30 20 20 30 20 20 30 20 20 30 20 20 30 20 20 30 20 20 30 20 20 30 20 20 30 20 20 30 20 20 30 20 20 30 20 20 30 20 20 30 20 20 30 20 20 30 20 20 30 20 20 30 20 20 30 20 20 30 20 20 30 20 20 30 20 20 30 20 20 30 20 20 30 20 20 30 20 20 30 20 20 30 20 20 30 20 20 30 20 20 30 20 20 30 20 20 30 20 20 30 20 20 30 20 20 30 20 20 30 20 20 30 20 20 30 20 20 30 20 20 30 20 20 30 20 20 30 20 20 30 20 20 30 20 20 30 20 20 30 20 20 30 20 20 30 20 20 30 20 20 30 20 20 30 20 20 30 20 20 30 20 20 30 20 20 30 255 0 0 20 20 30 20 20 30 20 20 30 20 20 30 20 20 30 20 20 30 20 20 30 20 20 30 20 20 30 20 20 30 20 20 30 20 20 30 20 20 30 20 20 30 20 20 30 20 20 30 20 20 30 20 20 30 20 20 30 20 20 30 20 20 30 20 20 30 20 20 30 20 20 30 20 20 30 20 20 30 20 20 30 20 20 30 20 20 30 20 20 30 20 20 30 20 20 30 20 20 30 20 20 30 20 20 30 20 20 30 20 20 30 20 20 30 20 20 30 20 20 30 20 20 30 20 20 30 20 20 30 20 20 30 20 20 30 20 20 30 20 20 30 20 20 30 20 20 30 20 20 30 20 20 30 0 255 255 20 20 30 20 20 30 20 20 30 20 20 30 20 20 30 20 20 30 20 20 30 20 20 30 20 20 30 20 20 30 20 20 30 20 20 30 20 20 30 20 20 30 20 20 30 20 20 30 20 20 30 20 20 30 20 20 30 20 20 30 20 20 30 20 20 30 20 20 30 20 20 30 20 20 30 20 20 30 0 255 0 20 20 30 20 20 30 20 20 30 20 20 30 20 20 30 20 20 30 20 20 30 20 20 30 20 20 30 20 20 30 20 20 30 20 20 30 20 20 30 20 20 30 20 20 30 20 20 30 20 20 30 20 20 30 20 20 30 20 20 30 20 20 30 20 20 30 20 20 30 20 20 30 20 20 30 20 20 30 20 20 30 20 20 30 20 20 30 20 20 30 20 20 30 20 20 30 20 20 30 20 20 30 20 20 30 20 20 30 20 20 30 20 20 30 20 20 30 20 20 30 20 20 30 20 20 30 20 20 30 20 20 30 20 20 30 20 20 30 20 20 30 20 20 30 20 20 30 20 20 30 20 20 30 20 20 30 20 20 30 20 20 30 20 20 30 20 20 30 20 20 30 20 20 30 20 20 30 20 20 30 20 20 30 20 20 30 0 255 255 20 20 30 20 20 30 20 20 30 20 20 30 20 20 30 20 20 30 20 20 30 20 20 30 20 20 30 20 20 30 20 20 30 20 20 30 20 20 30 20 20 30 20 20 30 20 20 30 20 20 30 20 20 30 20 20 30 20 20 30 20 20 30 20 20 30 20 20 30 20 20 30 20 20 30 
20 20 30 20 20 30 20 20 30 20 20 30 20 20 30 20 20 30 20 20 30 20 20 30 20 20 30 20 20 30 20 20 30 20 20 30 20 20 30 20 20 30 20 20 30 20 20 30 20 20 30 20 20 30 20 20 30 20 20 30 20 20 30 20 20 30 20 20 30 20 20 30 20 20 30 20 20 30 20 20 30 20 20 30 20 20 30 20 20 30 20 20 30 20 20 30 20 20 30 20 20 30 20 20 30 20 20 30 20 20 30 20 20 30 20 20 30 20 20 30 20 20 30 20 20 30 20 20 30 20 20 30 20 20 30 20 20 30 20 20 30 20 20 30 20 20 30 20 20 30 20 20 30 20 20 30 20 20 30 20 20 30 20 20 30 20 20 30 20 20 30 20 20 30 20 20 30 20 20 30 20 20 30 20 20 30 20 20 30 20 20 30 20 20 30 20 20 30 20 20 30 20 20 30 20 20 30 20 20 30 20 20 30 20 20 30 20 20 30 20 20 30 20 20 30 20 20 30 20 20 30 20 20 30 20 20 30 20 20 30 20 20 30 20 20 30 20 20 30 20 20 30 20 20 30 20 20 30 20 20 30 20 20 30 20 20 30 255 0 0 20 20 30 20 20 30 20 20 30 20 20 30 20 20 30 20 20 30 20 20 30 20 20 30 20 20 30 20 20 30 20 20 30 20 20 30 20 20 30 20 20 30 20 20 30 20 20 30 20 20 30 20 20 30 20 20 30 20 20 30 20 20 30 20 20 30 20 20 30 20 20 30 20 20 30 20 20 30 20 20 30 20 20 30 20 20 30 20 20 30 20 20 30 20 20 30 20 20 30 20 20 30 20 20 30 20 20 30 20 20 30 20 20 30 20 20 30 20 20 30 20 20 30 20 20 30 20 20 30 20 20 30 20 20 30 20 20 30 20 20 30 20 20 30 20 20 30 20 20 30 0 255 255 20 20 30 20 20 30 20 20 30 20 20 30 20 20 30 20 20 30 20 20 30 20 20 30 20 20 30 20 20 30 20 20 30 20 20 30 20 20 30 20 20 30 20 20 30 20 20 30 20 20 30 20 20 30 20 20 30 20 20 30 20 20 30 20 20 30 20 20 30 20 20 30 20 20 30 0 255 0 20 20 30 20 20 30 20 20 30 20 20 30 20 20 30 20 20 30 20 20 30 20 20 30 20 20 30 20 20 30 20 20 30 20 20 30 20 20 30 20 20 30 20 20 30 20 20 30 20 20 30 20 20 30 20 20 30 20 20 30 20 20 30 20 20 30 20 20 30 20 20 30 20 20 30 20 20 30 20 20 30 20 20 30 20 20 30 20 20 30 20 20 30 20 20 30 20 20 30 20 20 30 20 20 30 20 20 30 20 20 30 20 20 30 20 20 30 20 20 30 20 20 30 20 20 30 20 20 30 20 20 30 20 20 30 20 20 30 20 20 30 20 20 30 20 20 30 20 20 30 20 20 30 20 20 30 20 20 30 20 20 30 20 20 30 20 20 30 20 20 30 20 20 30 20 20 30 20 20 30 20 20 30 20 20 30 20 20 30 0 255 255 20 20 30 20 20 30 20 20 30 20 20 30 20 20 30 20 20 30 20 20 30 20 20 30 20 20 30 20 20 30 20 20 30 20 20 30 20 20 30 20 20 30 20 20 30 20 20 30 20 20 30 20 20 30 20 20 30 20 20 30 20 20 30 20 20 30 20 20 30 20 20 30 20 20 30 
20 20 30 20 20 30 20 20 30 20 20 30 20 20 30 20 20 30 20 20 30 20 20 30 20 20 30 20 20 30 20 20 30 20 20 30 20 20 30 20 20 30 20 20 30 20 20 30 20 20 30 20 20 30 20 20 30 20 20 30 20 20 30 20 20 30 20 20 30 20 20 30 20 20 30 20 20 30 20 20 30 20 20 30 20 20 30 20 20 30 20 20 30 20 20 30 20 20 30 20 20 30 20 20 30 20 20 30 20 20 30 20 20 30 20 20 30 20 20 30 20 20 30 20 20 30 20 20 30 20 20 30 20 20 30 20 20 30 20 20 30 20 20 30 20 20 30 20 20 30 20 20 30 20 20 30 20 20 30 20 20 30 20 20 30 20 20 30 20 20 30 20 20 30 20 20 30 20 20 30 20 20 30 20 20 30 20 20 30 20 20 30 20 20 30 20 20 30 20 20 30 20 20 30 20 20 30 20 20 30 20 20 30 20 20 30 20 20 30 20 20 30 20 20 30 20 20 30 20 20 30 20 20 30 20 20 30 20 20 30 20 20 30 20 20 30 20 20 30 20 20 30 20 20 30 20 20 30 20 20 30 20 20 30 20 20 30 20 20 30 255 0 0 20 20 30 20 20 30 20 20 30 20 20 30 20 20 30 20 20 30 20 20 30 20 20 30 20 20 30 20 20 30 20 20 30 20 20 30 20 20 30 20 20 30 20 20 30 20 20 30 20 20 30 20 20 30 20 20 30 20 20 30 20 20 30 20 20 30 20 20 30 20 20 30 20 20 30 20 20 30 20 20 30 20 20 30 20 20 30 20 20 30 20 20 30 20 20 30 20 20 30 20 20 30 20 20 30 20 20 30 20 20 30 20 20 30 20 20 30 20 20 30 20 20 30 20 20 30 20 20 30 20 20 30 20 20 30 20 20 30 20 20 30 20 20 30 20 20 30 0 255 255 20 20 30 20 20 30 20 20 30 20 20 30 20 20 30 20 20 30 20 20 30 20 20 30 20 20 30 20 20 30 20 20 30 20 20 30 20 20 30 20 20 30 20 20 30 20 20 30 20 20 30 20 20 30 20 20 30 20 20 30 20 20 30 20 20 30 20 20 30 20 20 30 0 255 0 20 20 30 20 20 30 20 20 30 20 20 30 20 20 30 20 20 30 20 20 30 20 20 30 20 20 30 20 20 30 20 20 30 20 20 30 20 20 30 20 20 30 20 20 30 20 20 30 20 20 30 20 20 30 20 20 30 20 20 30 20 20 30 20 20 30 20 20 30 20 20 30 20 20 30 20 20 30 20 20 30 20 20 30 20 20 30 20 20 30 20 20 30 20 20 30 20 20 30 20 20 30 20 20 30 20 20 30 20 20 30 20 20 30 20 20 30 20 20 30 20 20 30 20 20 30 20 20 30 20 20 30 20 20 30 20 20 30 20 20 30 20 20 30 20 20 30 20 20 30 20 20 30 20 20 30 20 20 30 20 20 30 20 20 30 20 20 30 20 20 30 20 20 30 20 20 30 20 20 30 20 20 30 20 20 30 20 20 30 20 20 30 0 255 255 20 20 30 20 20 30 20 20 30 20 20 30 20 20 30 20 20 30 20 20 30 20 20 30 20 20 30 20 20 30 20 20 30 20 20 30 20 20 30 20 20 30 20 20 30 20 20 30 20 20 30 20 20 30 20 20 30 20 20 30 20 20 30 20 20 30 20 20 30 20 20 30 20 20 30 
20 20 30 20 20 30 20 20 30 20 20 30 20 20 30 20 20 30 20 20 30 20 20 30 20 20 30 20 20 30 20 20 30 20 20 30 20 20 30 20 20 30 20 20 30 20 20 30 20 20 30 20 20 30 20 20 30 20 20 30 20 20 30 20 20 30 20 20 30 20 20 30 20 20 30 20 20 30 20 20 30 20 20 30 20 20 30 20 20 30 20 20 30 20 20 30 20 20 30 20 20 30 20 20 30 20 20 30 20 20 30 20 20 30 20 20 30 20 20 30 20 20 30 20 20 30 20 20 30 20 20 30 20 20 30 20 20 30 20 20 30 20 20 30 20 20 30 20 20 30 20 20 30 20 20 30 20 20 30 20 20 30 20 20 30 20 20 30 20 20 30 20 20 30 20 20 30 20 20 30 20 20 30 20 20 30 20 20 30 20 20 30 20 20 30 20 20 30 20 20 30 20 20 30 20 20 30 20 20 30 20 20 30 20 20 30 20 20 30 20 20 30 20 20 30 20 20 30 20 20 30 20 20 30 20 20 30 20 20 30 20 20 30 20 20 30 20 20 30 20 20 30 20 20 30 20 20 30 20 20 30 20 20 30 20 20 30 20 20 30 20 20 30 255 0 0 20 20 30 20 20 30 20 20 30 20 20 30 20 20 30 20 20 30 20 20 30 20 20 30 20 20 30 20 20 30 20 20 30 20 20 30 20 20 30 20 20 30 20 20 30 20 20 30 20 20 30 20 20 30 20 20 30 20 20 30 20 20 30 20 20 30 20 20 30 20 20 30 20 20 30 20 20 30 20 20 30 20 20 30 20 20 30 20 20 30 20 20 30 20 20 30 20 20 30 20 20 30 20 20 30 20 20 30 20 20 30 20 20 30 20 20 30 20 20 30 20 20 30 20 20 30 20 20 30 20 20 30 20 20 30 20 20 30 20 20 30 20 20 30 0 255 255 20 20 30 20 20 30 20 20 30 20 20 30 20 20 30 20 20 30 20 20 30 20 20 30 20 20 30 20 20 30 20 20 30 20 20 30 20 20 30 20 20 30 20 20 30 20 20 30 20 20 30 20 20 30 20 20 30 20 20 30 20 20 30 20 20 30 20 20 30 0 255 0 20 20 30 20 20 30 20 20 30 20 20 30 20 20 30 20 20 30 20 20 30 20 20 30 20 20 30 20 20 30 20 20 30 20 20 30 20 20 30 20 20 30 20 20 30 20 20 30 20 20 30 20 20 30 20 20 30 20 20 30 20 20 30 20 20 30 20 20 30 20 20 30 20 20 30 20 20 30 20 20 30 20 20 30 20 20 30 20 20 30 20 20 30 20 20 30 20 20 30 20 20 30 20 20 30 20 20 30 20 20 30 20 20 30 20 20 30 20 20 30 20 20 30 20 20 30 20 20 30 20 20 30 20 20 30 20 20 30 20 20 30 20 20 30 20 20 30 20 20 30 20 20 30 20 20 30 20 20 30 20 20 30 20 20 30 20 20 30 20 20 30 20 20 30 20 20 30 20 20 30 20 20 30 20 20 30 20 20 30 20 20 30 20 20 30 0 255 255 20 20 30 20 20 30 20 20 30 20 20 30 20 20 30 20 20 30 20 20 30 20 20 30 20 20 30 20 20 30 20 20 30 20 20 30 20 20 30 20 20 30 20 20 30 20 20 30 20 20 30 20 20 30 20 20 30 20 20 30 20 20 30 20 20 30 20 20 30 20 20 30 20 20 30 
20 20 30 20 20 30 20 20 30 20 20 30 20 20 30 20 20 30 20 20 30 20 20 30 20 20 30 20 20 30 20 20 30 20 20 30 20 20 30 20 20 30 20 20 30 20 20 30 20 20 30 20 20 30 20 20 30 20 20 30 20 20 30 20 20 30 20 20 30 20 20 30 20 20 30 20 20 30 20 20 30 20 20 30 20 20 30 20 20 30 20 20 30 20 20 30 20 20 30 20 20 30 20 20 30 20 20 30 20 20 30 20 20 30 20 20 30 20 20 30 20 20 30 20 20 30 20 20 30 20 20 30 20 20 30 20 20 30 20 20 30 20 20 30 20 20 30 20 20 30 20 20 30 20 20 30 20 20 30 20 20 30 20 20 30 20 20 30 20 20 30 20 20 30 20 20 30 20 20 30 20 20 30 20 20 30 20 20 30 20 20 30 20 20 30 20 20 30 20 20 30 20 20 30 20 20 30 20 20 30 20 20 30 20 20 30 20 20 30 20 20 30 20 20 30 20 20 30 20 20 30 20 20 30 20 20 30 20 20 30 20 20 30 20 20 30 20 20 30 20 20 30 20 20 30 20 20 30 20 20 30 20 20 30 20 20 30 20 20 30 20 20 30 20 20 30 255 0 0 20 20 30 20 20 30 20 20 30 20 20 30 20 20 30 20 20 30 20 20 30 20 20 30 20 20 30 20 20 30 20 20 30 20 20 30 20 20 30 20 20 30 20 20 30 20 20 30 20 20 30 20 20 30 20 20 30 20 20 30 20 20 30 20 20 30 20 20 30 20 20 30 20 20 30 20 20 30 20 20 30 20 20 30 20 20 30 20 20 30 20 20 30 20 20 30 20 20 30 20 20 30 20 20 30 20 20 30 20 20 30 20 20 30 20 20 30 20 20 30 20 20 30 20 20 30 20 20 30 20 20 30 20 20 30 20 20 30 20 20 30 0 255 255 20 20 30 20 20 30 20 20 30 20 20 30 20 20 30 20 20 30 20 20 30 20 20 30 20 20 30 20 20 30 20 20 30 20 20 30 20 20 30 20 20 30 20 20 30 20 20 30 20 20 30 20 20 30 20 20 30 20 20 30 20 20 30 20 20 30 0 255 0 20 20 30 20 20 30 20 20 30 20 20 30 20 20 30 20 20 30 20 20 30 20 20 30 20 20 30 20 20 30 20 20 30 20 20 30 20 20 30 20 20 30 20 20 30 20 20 30 20 20 30 20 20 30 20 20 30 20 20 30 20 20 30 20 20 30 20 20 30 20 20 30 20 20 30 20 20 30 20 20 30 20 20 30 20 20 30 20 20 30 20 20 30 20 20 30 20 20 30 20 20 30 20 20 30 20 20 30 20 20 30 20 20 30 20 20 30 20 20 30 20 20 30 20 20 30 20 20 30 20 20 30 20 20 30 20 20 30 20 20 30 20 20 30 20 20 30 20 20 30 20 20 30 20 20 30 20 20 30 20 20 30 20 20 30 20 20 30 20 20 30 20 20 30 20 20 30 20 20 30 20 20 30 20 20 30 20 20 30 20 20 30 20 20 30 20 20 30 0 255 255 20 20 30 20 20 30 20 20 30 20 20 30 20 20 30 20 20 30 20 20 30 20 20 30 20 20 30 20 20 30 20 20 30 20 20 30 20 20 30 20 20 30 20 20 30 20 20 30 20 20 30 20 20 30 20 20 30 20 20 30 20 20 30 20 20 30 20 20 30 20 20 30 20 20 30 
20 20 30 20 20 30 20 20 30 20 20 30 20 20 30 20 20 30 20 20 30 20 20 30 20 20 30 20 20 30 20 20 30 20 20 30 20 20 30 20 20 30 20 20 30 20 20 30 20 20 30 20 20 30 20 20 30 20 20 30 20 20 30 20 20 30 20 20 30 20 20 30 20 20 30 20 20 30 20 20 30 20 20 30 20 20 30 20 20 30 20 20 30 20 20 30 20 20 30 20 20 30 20 20 30 20 20 30 20 20 30 20 20 30 20 20 30 20 20 30 20 20 30 20 20 30 20 20 30 20 20 30 20 20 30 20 20 30 20 20 30 20 20 30 20 20 30 20 20 30 20 20 30 20 20 30 20 20 30 20 20 30 20 20 30 20 20 30 20 20 30 20 20 30 20 20 30 20 20 30 20 20 30 20 20 30 20 20 30 20 20 30 20 20 30 20 20 30 20 20 30 20 20 30 20 20 30 20 20 30 20 20 30 20 20 30 20 20 30 20 20 30 20 20 30 20 20 30 20 20 30 20 20 30 20 20 30 20 20 30 20 20 30 20 20 30 20 20 30 20 20 30 20 20 30 20 20 30 20 20 30 20 20 30 20 20 30 20 20 30 20 20 30 20 20 30 20 20 30 255 0 0 20 20 30 20 20 30 20 20 30 20 20 30 20 20 30 20 20 30 20 20 30 20 20 30 20 20 30 20 20 30 20 20 30 20 20 30 20 20 30 20 20 30 20 20 30 20 20 30 20 20 30 20 20 30 20 20 30 20 20 30 20 20 30 20 20 30 20 20 30 20 20 30 20 20 30 20 20 30 20 20 30 20 20 30 20 20 30 20 20 30 20 20 30 20 20 30 20 20 30 20 20 30 20 20 30 20 20 30 20 20 30 20 20 30 20 20 30 20 20 30 20 20 30 20 20 30 20 20 30 20 20 30 20 20 30 20 20 30 0 255 255 20 20 30 20 20 30 20 20 30 20 20 30 20 20 30 20 20 30 20 20 30 20 20 30 20 20 30 20 20 30 20 20 30 20 20 30 20 20 30 20 20 30 20 20 30 20 20 30 20 20 30 20 20 30 20 20 30 20 20 30 20 20 30 0 255 0 20 20 30 20 20 30 20 20 30 20 20 30 20 20 30 20 20 30 20 20 30 20 20 30 20 20 30 20 20 30 20 20 30 20 20 30 20 20 30 20 20 30 20 20 30 20 20 30 20 20 30 20 20 30 20 20 30 20 20 30 20 20 30 20 20 30 20 20 30 20 20 30 20 20 30 20 20 30 20 20 30 20 20 30 20 20 30 20 20 30 20 20 30 20 20 30 20 20 30 20 20 30 20 20 30 20 20 30 20 20 30 20 20 30 20 20 30 20 20 30 20 20 30 20 20 30 20 20 30 20 20 30 20 20 30 20 20 30 20 20 30 20 20 30 20 20 30 20 20 30 20 20 30 20 20 30 20 20 30 20 20 30 20 20 30 20 20 30 20 20 30 20 20 30 20 20 30 20 20 30 20 20 30 20 20 30 20 20 30 20 20 30 20 20 30 20 20 30 20 20 30 0 255 255 20 20 30 20 20 30 20 20 30 20 20 30 20 20 30 20 20 30 20 20 30 20 20 30 20 20 30 20 20 30 20 20 30 20 20 30 20 20 30 20 20 30 20 20 30 20 20 30 20 20 30 20 20 30 20 20 30 20 20 30 20 20 30 20 20 30 20 20 30 20 20 30 20 20 30 
20 20 30 20 20 30 20 20 30 20 20 30 20 20 30 20 20 30 20 20 30 20 20 30 20 20 30 20 20 30 20 20 30 20 20 30 20 20 30 20 20 30 20 20 30 20 20 30 20 20 30 20 20 30 20 20 30 20 20 30 20 20 30 20 20 30 20 20 30 20 20 30 20 20 30 20 20 30 20 20 30 20 20 30 20 20 30 20 20 30 20 20 30 20 20 30 20 20 30 20 20 30 20 20 30 20 20 30 20 20 30 20 20 30 20 20 30 20 20 30 20 20 30 20 20 30 20 20 30 20 20 30 20 20 30 20 20 30 20 20 30 20 20 30 20 20 30 20 20 30 20 20 30 20 20 30 20 20 30 20 20 30 20 20 30 20 20 30 20 20 30 20 20 30 20 20 30 20 20 30 20 20 30 20 20 30 20 20 30 20 20 30 20 20 30 20 20 30 20 20 30 20 20 30 20 20 30 20 20 30 20 20 30 20 20 30 20 20 30 20 20 30 20 20 30 20 20 30 20 20 30 20 20 30 20 20 30 20 20 30 20 20 30 20 20 30 20 20 30 20 20 30 20 20 30 20 20 30 20 20 30 20 20 30 20 20 30 20 20 30 20 20 30 20 20 30 20 20 30 20 20 30 255 0 0 20 20 30 20 20 30 20 20 30 20 20 30 20 20 30 20 20 30 20 20 30 20 20 30 20 20 30 20 20 30 20 20 30 20 20 30 20 20 30 20 20 30 20 20 30 20 20 30 20 20 30 20 20 30 20 20 30 20 20 30 20 20 30 20 20 30 20 20 30 20 20 30 20 20 30 20 20 30 20 20 30 20 20 30 20 20 30 20 20 30 20 20 30 20 20 30 20 20 30 20 20 30 20 20 30 20 20 30 20 20 30 20 20 30 20 20 30 20 20 30 20 20 30 20 20 30 20 20 30 20 20 30 20 20 30 0 255 255 20 20 30 20 20 30 20 20 30 20 20 30 20 20 30 20 20 30 20 20 30 20 20 30 20 20 30 20 20 30 20 20 30 20 20 30 20 20 30 20 20 30 20 20 30 20 20 30 20 20 30 20 20 30 20 20 30 20 20 30 0 255 0 20 20 30 20 20 30 20 20 30 20 20 30 20 20 30 20 20 30 20 20 30 20 20 30 20 20 30 20 20 30 20 20 30 20 20 30 20 20 30 20 20 30 20 20 30 20 20 30 20 20 30 20 20 30 20 20 30 20 20 30 20 20 30 20 20 30 20 20 30 20 20 30 20 20 30 20 20 30 20 20 30 20 20 30 20 20 30 20 20 30 20 20 30 20 20 30 20 20 30 20 20 30 20 20 30 20 20 30 20 20 30 20 20 30 20 20 30 20 20 30 20 20 30 20 20 30 20 20 30 20 20 30 20 20 30 20 20 30 20 20 30 20 20 30 20 20 30 20 20 30 20 20 30 20 20 30 20 20 30 20 20 30 20 20 30 20 20 30 20 20 30 20 20 30 20 20 30 20 20 30 20 20 30 20 20 30 20 20 30 20 20 30 20 20 30 20 20 30 20 20 30 20 20 30 0 255 255 20 20 30 20 20 30 20 20 30 20 20 30 20 20 30 20 20 30 20 20 30 20 20 30 20 20 30 20 20 30 20 20 30 20 20 30 20 20 30 20 20 30 20 20 30 20 20 30 20 20 30 20 20 30 20 20 30 20 20 30 20 20 30 20 20 30 20 20 30 20 20 30 20 20 30 
20 20 30 20 20 30 20 20 30 20 20 30 20 20 30 20 20 30 20 20 30 20 20 30 20 20 30 20 20 30 20 20 30 20 20 30 20 20 30 20 20 30 20 20 30 20 20 30 20 20 30 20 20 30 20 20 30 20 20 30 20 20 30 20 20 30 20 20 30 20 20 30 20 20 30 20 20 30 20 20 30 20 20 30 20 20 30 20 20 30 20 20 30 20 20 30 20 20 30 20 20 30 20 20 30 20 20 30 20 20 30 20 20 30 20 20 30 20 20 30 20 20 30 20 20 30 20 20 30 20 20 30 20 20 30 20 20 30 20 20 30 20 20 30 20 20 30 20 20 30 20 20 30 20 20 30 20 20 30 20 20 30 20 20 30 20 20 30 20 20 30 20 20 30 20 20 30 20 20 30 20 20 30 20 20 30 20 20 30 20 20 30 20 20 30 20 20 30 20 20 30 20 20 30 20 20 30 20 20 30 20 20 30 20 20 30 20 20 30 20 20 30 20 20 30 20 20 30 20 20 30 20 20 30 20 20 30 20 20 30 20 20 30 20 20 30 20 20 30 20 20 30 20 20 30 20 20 30 20 20 30 20 20 30 20 20 30 20 20 30 20 20 30 20 20 30 20 20 30 20 20 30 20 20 30 255 0 0 20 20 30 20 20 30 20 20 30 20 20 30 20 20 30 20 20 30 20 20 30 20 20 30 20 20 30 20 20 30 20 20 30 20 20 30 20 20 30 20 20 30 20 20 30 20 20 30 20 20 30 20 20 30 20 20 30 20 20 30 20 20 30 20 20 30 20 20 30 20 20 30 20 20 30 20 20 30 20 20 30 20 20 30 20 20 30 20 20 30 20 20 30 20 20 30 20 20 30 20 20 30 20 20 30 20 20 30 20 20 30 20 20 30 20 20 30 20 20 30 20 20 30 20 20 30 20 20 30 20 20 30 0 255 255 20 20 30 20 20 30 20 20 30 20 20 30 20 20 30 20 20 30 20 20 30 20 20 30 20 20 30 20 20 30 20 20 30 20 20 30 20 20 30 20 20 30 20 20 30 20 20 30 20 20 30 20 20 30 20 20 30 0 255 0 20 20 30 20 20 30 20 20 30 20 20 30 20 20 30 20 20 30 20 20 30 20 20 30 20 20 30 20 20 30 20 20 30 20 20 30 20 20 30 20 20 30 20 20 30 20 20 30 20 20 30 20 20 30 20 20 30 20 20 30 20 20 30 20 20 30 20 20 30 20 20 30 20 20 30 20 20 30 20 20 30 20 20 30 20 20 30 20 20 30 20 20 30 20 20 30 20 20 30 20 20 30 20 20 30 20 20 30 20 20 30 20 20 30 20 20 30 20 20 30 20 20 30 20 20 30 20 20 30 20 20 30 20 20 30 20 20 30 20 20 30 20 20 30 20 20 30 20 20 30 20 20 30 20 20 30 20 20 30 20 20 30 20 20 30 20 20 30 20 20 30 20 20 30 20 20 30 20 20 30 20 20 30 20 20 30 20 20 30 20 20 30 20 20 30 20 20 30 20 20 30 20 20 30 20 20 30 0 255 255 20 20 30 20 20 30 20 20 30 20 20 30 20 20 30 20 20 30 20 20 30 20 20 30 20 20 30 20 20 30 20 20 30 20 20 30 20 20 30 20 20 30 20 20 30 20 20 30 20 20 30 20 20 30 20 20 30 20 20 30 20 20 30 20 20 30 20 20 30 20 20 30 20 20 30 
20 20 30 20 20 30 20 20 30 20 20 30 20 20 30 20 20 30 20 20 30 20 20 30 20 20 30 20 20 30 20 20 30 20 20 30 20 20 30 20 20 30 20 20 30 20 20 30 20 20 30 20 20 30 20 20 30 20 20 30 20 20 30 20 20 30 20 20 30 20 20 30 20 20 30 20 20 30 20 20 30 20 20 30 20 20 30 20 20 30 20 20 30 20 20 30 20 20 30 20 20 30 20 20 30 20 20 30 20 20 30 20 20 30 20 20 30 20 20 30 20 20 30 20 20 30 20 20 30 20 20 30 20 20 30 20 20 30 20 20 30 20 20 30 20 20 30 20 20 30 20 20 30 20 20 30 20 20 30 20 20 30 20 20 30 20 20 30 20 20 30 20 20 30 20 20 30 20 20 30 20 20 30 20 20 30 20 20 30 20 20 30 20 20 30 20 20 30 20 20 30 20 20 30 20 20 30 20 20 30 20 20 30 20 20 30 20 20 30 20 20 30 20 20 30 20 20 30 20 20 30 20 20 30 20 20 30 20 20 30 20 20 30 20 20 30 20 20 30 20 20 30 20 20 30 20 20 30 20 20 30 20 20 30 20 20 30 20 20 30 20 20 30 20 20 30 20 20 30 20 20 30 20 20 30 20 20 30 255 0 0 20 20 30 20 20 30 20 20 30 20 20 30 20 20 30 20 20 30 20 20 30 20 20 30 20 20 30 20 20 30 20 20 30 20 20 30 20 20 30 20 20 30 20 20 30 20 20 30 20 20 30 20 20 30 20 20 30 20 20 30 20 20 30 20 20 30 20 20 30 20 20 30 20 20 30 20 20 30 20 20 30 20 20 30 20 20 30 20 20 30 20 20 30 20 20 30 20 20 30 20 20 30 20 20 30 20 20 30 20 20 30 20 20 30 20 20 30 20 20 30 20 20 30 20 20 30 20 20 30 0 255 255 20 20 30 20 20 30 20 20 30 20 20 30 20 20 30 20 20 30 20 20 30 20 20 30 20 20 30 20 20 30 20 20 30 20 20 30 20 20 30 20 20 30 20 20 30 20 20 30 20 20 30 20 20 30 0 255 0 20 20 30 20 20 30 20 20 30 20 20 30 20 20 30 20 20 30 20 20 30 20 20 30 20 20 30 20 20 30 20 20 30 20 20 30 20 20 30 20 20 30 20 20 30 20 20 30 20 20 30 20 20 30 20 20 30 20 20 30 20 20 30 20 20 30 20 20 30 20 20 30 20 20 30 20 20 30 20 20 30 20 20 30 20 20 30 20 20 30 20 20 30 20 20 30 20 20 30 20 20 30 20 20 30 20 20 30 20 20 30 20 20 30 20 20 30 20 20 30 20 20 30 20 20 30 20 20 30 20 20 30 20 20 30 20 20 30 20 20 30 20 20 30 20 20 30 20 20 30 20 20 30 20 20 30 20 20 30 20 20 30 20 20 30 20 20 30 20 20 30 20 20 30 20 20 30 20 20 30 20 20 30 20 20 30 20 20 30 20 20 30 20 20 30 20 20 30 20 20 30 20 20 30 20 20 30 20 20 30 0 255 255 20 20 30 20 20 30 20 20 30 20 20 30 20 20 30 20 20 30 20 20 30 20 20 30 20 20 30 20 20 30 20 20 30 20 20 30 20 20 30 20 20 30 20 20 30 20 20 30 20 20 30 20 20 30 20 20 30 20 20 30 20 20 30 20 20 30 20 20 30 20 20 30 20 20 30 
20 20 30 20 20 30 20 20 30 20 20 30 20 20 30 20 20 30 20 20 30 20 20 30 20 20 30 20 20 30 20 20 30 20 20 30 20 20 30 20 20 30 20 20 30 20 20 30 20 20 30 20 20 30 20 20 30 20 20 30 20 20 30 20 20 30 20 20 30 20 20 30 20 20 30 20 20 30 20 20 30 20 20 30 20 20 30 20 20 30 20 20 30 20 20 30 20 20 30 20 20 30 20 20 30 20 20 30 20 20 30 20 20 30 20 20 30 20 20 30 20 20 30 20 20 30 20 20 30 20 20 30 20 20 30 20 20 30 20 20 30 20 20 30 20 20 30 20 20 30 20 20 30 20 20 30 20 20 30 20 20 30 20 20 30 20 20 30 20 20 30 20 20 30 20 20 30 20 20 30 20 20 30 20 20 30 20 20 30 20 20 30 20 20 30 20 20 30 20 20 30 20 20 30 20 20 30 20 20 30 20 20 30 20 20 30 20 20 30 20 20 30 20 20 30 20 20 30 20 20 30 20 20 30 20 20 30 20 20 30 20 20 30 20 20 30 20 20 30 20 20 30 20 20 30 20 20 30 20 20 30 20 20 30 20 20 30 20 20 30 20 20 30 20 20 30 20 20 30 20 20 30 20 20 30 20 20 30 20 20 30 255 0 0 20 20 30 20 20 30 20 20 30 20 20 30 20 20 30 20 20 30 20 20 30 20 20 30 20 20 30 20 20 30 20 20 30 20 20 30 20 20 30 20 20 30 20 20 30 20 20 30 20 20 30 20 20 30 20 20 30 20 20 30 20 20 30 20 20 30 20 20 30 20 20 30 20 20 30 20 20 30 20 20 30 20 20 30 20 20 30 20 20 30 20 20 30 20 20 30 20 20 30 20 20 30 20 20 30 20 20 30 20 20 30 20 20 30 20 20 30 20 20 30 20 20 30 20 20 30 0 255 255 20 20 30 20 20 30 20 20 30 20 20 30 20 20 30 20 20 30 20 20 30 20 20 30 20 20 30 20 20 30 20 20 30 20 20 30 20 20 30 20 20 30 20 20 30 20 20 30 20 20 30 0 255 0 20 20 30 20 20 30 20 20 30 20 20 30 20 20 30 20 20 30 20 20 30 20 20 30 20 20 30 20 20 30 20 20 30 20 20 30 20 20 30 20 20 30 20 20 30 20 20 30 20 20 30 20 20 30 20 20 30 20 20 30 20 20 30 20 20 30 20 20 30 20 20 30 20 20 30 20 20 30 20 20 30 20 20 30 20 20 30 20 20 30 20 20 30 20 20 30 20 20 30 20 20 30 20 20 30 20 20 30 20 20 30 20 20 30 20 20 30 20 20 30 20 20 30 20 20 30 20 20 30 20 20 30 20 20 30 20 20 30 20 20 30 20 20 30 20 20 30 20 20 30 20 20 30 20 20 30 20 20 30 20 20 30 20 20 30 20 20 30 20 20 30 20 20 30 20 20 30 20 20 30 20 20 30 20 20 30 20 20 30 20 20 30 20 20 30 20 20 30 20 20 30 20 20 30 20 20 30 20 20 30 20 20 30 0 255 255 20 20 30 20 20 30 20 20 30 20 20 30 20 20 30 20 20 30 20 20 30 20 20 30 20 20 30 20 20 30 20 20 30 20 20 30 20 20 30 20 20 30 20 20 30 20 20 30 20 20 30 20 20 30 20 20 30 20 20 30 20 20 30 20 20 30 20 20 30 20 20 30 20 20 30 
20 20 30 20 20 30 20 20 30 20 20 30 20 20 30 20 20 30 20 20 30 20 20 30 20 20 30 20 20 30 20 20 30 20 20 30 20 20 30 20 20 30 20 20 30 20 20 30 20 20 30 20 20 30 20 20 30 20 20 30 20 20 30 20 20 30 20 20 30 20 20 30 20 20 30 20 20 30 20 20 30 20 20 30 20 20 30 20 20 30 20 20 30 20 20 30 20 20 30 20 20 30 20 20 30 20 20 30 20 20 30 20 20 30 20 20 30 20 20 30 20 20 30 20 20 30 20 20 30 20 20 30 20 20 30 20 20 30 20 20 30 20 20 30 20 20 30 20 20 30 20 20 30 20 20 30 20 20 30 20 20 30 20 20 30 20 20 30 20 20 30 20 20 30 20 20 30 20 20 30 20 20 30 20 20 30 20 20 30 20 20 30 20 20 30 20 20 30 20 20 30 20 20 30 20 20 30 20 20 30 20 20 30 20 20 30 20 20 30 20 20 30 20 20 30 20 20 30 20 20 30 20 20 30 20 20 30 20 20 30 20 20 30 20 20 30 20 20 30 20 20 30 20 20 30 20 20 30 20 20 30 20 20 30 20 20 30 20 20 30 20 20 30 20 20 30 20 20 30 20 20 30 20 20 30 20 20 30 20 20 30 20 20 30 255 0 0 20 20 30 20 20 30 20 20 30 20 20 30 20 20 30 20 20 30 20 20 30 20 20 30 20 20 30 20 20 30 20 20 30 20 20 30 20 20 30 20 20 30 20 20 30 20 20 30 20 20 30 20 20 30 20 20 30 20 20 30 20 20 30 20 20 30 20 20 30 20 20 30 20 20 30 20 20 30 20 20 30 20 20 30 20 20 30 20 20 30 20 20 30 20 20 30 20 20 30 20 20 30 20 20 30 20 20 30 20 20 30 20 20 30 20 20 30 20 20 30 20 20 30 0 255 255 20 20 30 20 20 30 20 20 30 20 20 30 20 20 30 20 20 30 20 20 30 20 20 30 20 20 30 20 20 30 20 20 30 20 20 30 20 20 30 20 20 30 20 20 30 20 20 30 0 255 0 20 20 30 20 20 30 20 20 30 20 20 30 20 20 30 20 20 30 20 20 30 20 20 30 20 20 30 20 20 30 20 20 30 20 20 30 20 20 30 20 20 30 20 20 30 20 20 30 20 20 30 20 20 30 20 20 30 20 20 30 20 20 30 20 20 30 20 20 30 20 20 30 20 20 30 20 20 30 20 20 30 20 20 30 20 20 30 20 20 30 20 20 30 20 20 30 20 20 30 20 20 30 20 20 30 20 20 30 20 20 30 20 20 30 20 20 30 20 20 30 20 20 30 20 20 30 20 20 30 20 20 30 20 20 30 20 20 30 20 20 30 20 20 30 20 20 30 20 20 30 20 20 30 20 20 30 20 20 30 20 20 30 20 20 30 20 20 30 20 20 30 20 20 30 20 20 30 20 20 30 20 20 30 20 20 30 20 20 30 20 20 30 20 20 30 20 20 30 20 20 30 20 20 30 20 20 30 20 20 30 20 20 30 20 20 30 0 255 255 20 20 30 20 20 30 20 20 30 20 20 30 20 20 30 20 20 30 20 20 30 20 20 30 20 20 30 20 20 30 20 20 30 20 20 30 20 20 30 20 20 30 20 20 30 20 20 30 20 20 30 20 20 30 20 20 30 20 20 30 20 20 30 20 20 30 20 20 30 20 20 30 20 20 30 
20 20 30 20 20 30 20 20 30 20 20 30 20 20 30 20 20 30 20 20 30 20 20 30 20 20 30 20 20 30 20 20 30 20 20 30 20 20 30 20 20 30 20 20 30 20 20 30 20 20 30 20 20 30 20 20 30 20 20 30 20 20 30 20 20 30 20 20 30 20 20 30 20 20 30 20 20 30 20 20 30 20 20 30 20 20 30 20 20 30 20 20 30 20 20 30 20 20 30 20 20 30 20 20 30 20 20 30 20 20 30 20 20 30 20 20 30 20 20 30 20 20 30 20 20 30 20 20 30 20 20 30 20 20 30 20 20 30 20 20 30 20 20 30 20 20 30 20 20 30 20 20 30 20 20 30 20 20 30 20 20 30 20 20 30 20 20 30 20 20 30 20 20 30 20 20 30 20 20 30 20 20 30 20 20 30 20 20 30 20 20 30 20 20 30 20 20 30 20 20 30 20 20 30 20 20 30 20 20 30 20 20 30 20 20 30 20 20 30 20 20 30 20 20 30 20 20 30 20 20 30 20 20 30 20 20 30 20 20 30 20 20 30 20 20 30 20 20 30 20 20 30 20 20 30 20 20 30 20 20 30 20 20 30 20 20 30 20 20 30 20 20 30 20 20 30 20 20 30 20 20 30 20 20 30 20 20 30 20 20 30 20 20 30 20 20 30 255 0 0 20 20 30 20 20 30 20 20 30 20 20 30 20 20 30 20 20 30 20 20 30 20 20 30 20 20 30 20 20 30 20 20 30 20 20 30 20 20 30 20 20 30 20 20 30 20 20 30 20 20 30 20 20 30 20 20 30 20 20 30 20 20 30 20 20 30 20 20 30 20 20 30 20 20 30 20 20 30 20 20 30 20 20 30 20 20 30 20 20 30 20 20 30 20 20 30 20 20 30 20 20 30 20 20 30 20 20 30 20 20 30 20 20 30 20 20 30 20 20 30 0 255 255 20 20 30 20 20 30 20 20 30 20 20 30 20 20 30 20 20 30 20 20 30 20 20 30 20 20 30 20 20 30 20 20 30 20 20 30 20 20 30 20 20 30 20 20 30 0 255 0 20 20 30 20 20 30 20 20 30 20 20 30 20 20 30 20 20 30 20 20 30 20 20 30 20 20 30 20 20 30 20 20 30 20 20 30 20 20 30 20 20 30 20 20 30 20 20 30 20 20 30 20 20 30 20 20 30 20 20 30 20 20 30 20 20 30 20 20 30 20 20 30 20 20 30 20 20 30 20 20 30 20 20 30 20 20 30 20 20 30 20 20 30 20 20 30 20 20 30 20 20 30 20 20 30 20 20 30 20 20 30 20 20 30 20 20 30 20 20 30 20 20 30 20 20 30 20 20 30 20 20 30 20 20 30 20 20 30 20 20 30 20 20 30 20 20 30 20 20 30 20 20 30 20 20 30 20 20 30 20 20 30 20 20 30 20 20 30 20 20 30 20 20 30 20 20 30 20 20 30 20 20 30 20 20 30 20 20 30 20 20 30 20 20 30 20 20 30 20 20 30 20 20 30 20 20 30 20 20 30 20 20 30 20 20 30 20 20 30 0 255 255 20 20 30 20 20 30 20 20 30 20 20 30 20 20 30 20 20 30 20 20 30 20 20 30 20 20 30 20 20 30 20 20 30 20 20 30 20 20 30 20 20 30 20 20 30 20 20 30 20 20 30 20 20 30 20 20 30 20 20 30 20 20 30 20 20 30 20 20 30 20 20 30 20 20 30 
20 20 30 20 20 30 20 20 30 20 20 30 20 20 30 20 20 30 20 20 30 20 20 30 20 20 30 20 20 30 20 20 30 20 20 30 20 20 30 20 20 30 20 20 30 20 20 30 20 20 30 20 20 30 20 20 30 20 20 30 20 20 30 20 20 30 20 20 30 20 20 30 20 20 30 20 20 30 20 20 30 20 20 30 20 20 30 20 20 30 20 20 30 20 20 30 20 20 30 20 20 30 20 20 30 20 20 30 20 20 30 20 20 30 20 20 30 20 20 30 20 20 30 20 20 30 20 20 30 20 20 30 20 20 30 20 20 30 20 20 30 20 20 30 20 20 30 20 20 30 20 20 30 20 20 30 20 20 30 20 20 30 20 20 30 20 20 30 20 20 30 20 20 30 20 20 30 20 20 30 20 20 30 20 20 30 20 20 30 20 20 30 20 20 30 20 20 30 20 20 30 20 20 30 20 20 30 20 20 30 20 20 30 20 20 30 20 20 30 20 20 30 20 20 30 20 20 30 20 20 30 20 20 30 20 20 30 20 20 30 20 20 30 20 20 30 20 20 30 20 20 30 20 20 30 20 20 30 20 20 30 20 20 30 20 20 30 20 20 30 20 20 30 20 20 30 20 20 30 20 20 30 20 20 30 20 20 30 20 20 30 20 20 30 20 20 30 20 20 30 255 0 0 20 20 30 20 20 30 20 20 30 20 20 30 20 20 30 20 20 30 20 20 30 20 20 30 20 20 30 20 20 30 20 20 30 20 20 30 20 20 30 20 20 30 20 20 30 20 20 30 20 20 30 20 20 30 20 20 30 20 20 30 20 20 30 20 20 30 20 20 30 20 20 30 20 20 30 20 20 30 20 20 30 20 20 30 20 20 30 20 20 30 20 20 30 20 20 30 20 20 30 20 20 30 20 20 30 20 20 30 20 20 30 20 20 30 20 20 30 0 255 255 20 20 30 20 20 30 20 20 30 20 20 30 20 20 30 20 20 30 20 20 30 20 20 30 20 20 30 20 20 30 20 20 30 20 20 30 20 20 30 20 20 30 0 255 0 20 20 30 20 20 30 20 20 30 20 20 30 20 20 30 20 20 30 20 20 30 20 20 30 20 20 30 20 20 30 20 20 30 20 20 30 20 20 30 20 20 30 20 20 30 20 20 30 20 20 30 20 20 30 20 20 30 20 20 30 20 20 30 20 20 30 20 20 30 20 20 30 20 20 30 20 20 30 20 20 30 20 20 30 20 20 30 20 20 30 20 20 30 20 20 30 20 20 30 20 20 30 20 20 30 20 20 30 20 20 30 20 20 30 20 20 30 20 20 30 20 20 30 20 20 30 20 20 30 20 20 30 20 20 30 20 20 30 20 20 30 20 20 30 20 20 30 20 20 30 20 20 30 20 20 30 20 20 30 20 20 30 20 20 30 20 20 30 20 20 30 20 20 30 20 20 30 20 20 30 20 20 30 20 20 30 20 20 30 20 20 30 20 20 30 20 20 30 20 20 30 20 20 30 20 20 30 20 20 30 20 20 30 20 20 30 20 20 30 20 20 30 0 255 255 20 20 30 20 20 30 20 20 30 20 20 30 20 20 30 20 20 30 20 20 30 20 20 30 20 20 30 20 20 30 20 20 30 20 20 30 20 20 30 20 20 30 20 20 30 20 20 30 20 20 30 20 20 30 20 20 30 20 20 30 20 20 30 20 20 30 20 20 30 20 20 30 20 20 30 
20 20 30 20 20 30 20 20 30 20 20 30 20 20 30 20 20 30 20 20 30 20 20 30 20 20 30 20 20 30 20 20 30 20 20 30 20 20 30 20 20 30 20 20 30 20 20 30 20 20 30 20 20 30 20 20 30 20 20 30 20 20 30 20 20 30 20 20 30 20 20 30 20 20 30 20 20 30 20 20 30 20 20 30 20 20 30 20 20 30 20 20 30 20 20 30 20 20 30 20 20 30 20 20 30 20 20 30 20 20 30 20 20 30 20 20 30 20 20 30 20 20 30 20 20 30 20 20 30 20 20 30 20 20 30 20 20 30 20 20 30 20 20 30 20 20 30 20 20 30 20 20 30 20 20 30 20 20 30 20 20 30 20 20 30 20 20 30 20 20 30 20 20 30 20 20 30 20 20 30 20 20 30 20 20 30 20 20 30 20 20 30 20 20 30 20 20 30 20 20 30 20 20 30 20 20 30 20 20 30 20 20 30 20 20 30 20 20 30 20 20 30 20 20 30 20 20 30 20 20 30 20 20 30 20 20 30 20 20 30 20 20 30 20 20 30 20 20 30 20 20 30 20 20 30 20 20 30 20 20 30 20 20 30 20 20 30 20 20 30 20 20 30 20 20 30 20 20 30 20 20 30 20 20 30 20 20 30 20 20 30 20 20 30 20 20 30 20 20 30 20 20 30 255 0 0 20 20 30 20 20 30 20 20 30 20 20 30 20 20 30 20 20 30 20 20 30 20 20 30 20 20 30 20 20 30 20 20 30 20 20 30 20 20 30 20 20 30 20 20 30 20 20 30 20 20 30 20 20 30 20 20 30 20 20 30 20 20 30 20 20 30 20 20 30 20 20 30 20 20 30 20 20 30 20 20 30 20 20 30 20 20 30 20 20 30 20 20 30 20 20 30 20 20 30 20 20 30 20 20 30 20 20 30 20 20 30 20 20 30 0 255 255 20 20 30 20 20 30 20 20 30 20 20 30 20 20 30 20 20 30 20 20 30 20 20 30 20 20 30 20 20 30 20 20 30 20 20 30 20 20 30 0 255 0 20 20 30 20 20 30 20 20 30 20 20 30 20 20 30 20 20 30 20 20 30 20 20 30 20 20 30 20 20 30 20 20 30 20 20 30 20 20 30 20 20 30 20 20 30 20 20 30 20 20 30 20 20 30 20 20 30 20 20 30 20 20 30 20 20 30 20 20 30 20 20 30 20 20 30 20 20 30 20 20 30 20 20 30 20 20 30 20 20 30 20 20 30 20 20 30 20 20 30 20 20 30 20 20 30 20 20 30 20 20 30 20 20 30 20 20 30 20 20 30 20 20 30 20 20 30 20 20 30 20 20 30 20 20 30 20 20 30 20 20 30 20 20 30 20 20 30 20 20 30 20 20 30 20 20 30 20 20 30 20 20 30 20 20 30 20 20 30 20 20 30 20 20 30 20 20 30 20 20 30 20 20 30 20 20 30 20 20 30 20 20 30 20 20 30 20 20 30 20 20 30 20 20 30 20 20 30 20 20 30 20 20 30 20 20 30 20 20 30 20 20 30 20 20 30 0 255 255 20 20 30 20 20 30 20 20 30 20 20 30 20 20 30 20 20 30 20 20 30 20 20 30 20 20 30 20 20 30 20 20 30 20 20 30 20 20 30 20 20 30 20 20 30 20 20 30 20 20 30 20 20 30 20 20 30 20 20 30 20 20 30 20 20 30 20 20 30 20 20 30 20 20 30 
20 20 30 20 20 30 20 20 30 20 20 30 20 20 30 20 20 30 20 20 30 20 20 30 20 20 30 20 20 30 20 20 30 20 20 30 20 20 30 20 20 30 20 20 30 20 20 30 20 20 30 20 20 30 20 20 30 20 20 30 20 20 30 20 20 30 20 20 30 20 20 30 20 20 30 20 20 30 20 20 30 20 20 30 20 20 30 20 20 30 20 20 30 20 20 30 20 20 30 20 20 30 20 20 30 20 20 30 20 20 30 20 20 30 20 20 30 20 20 30 20 20 30 20 20 30 20 20 30 20 20 30 20 20 30 20 20 30 20 20 30 20 20 30 20 20 30 20 20 30 20 20 30 20 20 30 20 20 30 20 20 30 20 20 30 20 20 30 20 20 30 20 20 30 20 20 30 20 20 30 20 20 30 20 20 30 20 20 30 20 20 30 20 20 30 20 20 30 20 20 30 20 20 30 20 20 30 20 20 30 20 20 30 20 20 30 20 20 30 20 20 30 20 20 30 20 20 30 20 20 30 20 20 30 20 20 30 20 20 30 20 20 30 20 20 30 20 20 30 20 20 30 20 20 30 20 20 30 20 20 30 20 20 30 20 20 30 20 20 30 20 20 30 20 20 30 20 20 30 20 20 30 20 20 30 20 20 30 20 20 30 20 20 30 20 20 30 20 20 30 20 20 30 20 20 30 255 0 0 20 20 30 20 20 30 20 20 30 20 20 30 20 20 30 20 20 30 20 20 30 20 20 30 20 20 30 20 20 30 20 20 30 20 20 30 20 20 30 20 20 30 20 20 30 20 20 30 20 20 30 20 20 30 20 20 30 20 20 30 20 20 30 20 20 30 20 20 30 20 20 30 20 20 30 20 20 30 20 20 30 20 20 30 20 20 30 20 20 30 20 20 30 20 20 30 20 20 30 20 20 30 20 20 30 20 20 30 20 20 30 0 255 255 20 20 30 20 20 30 20 20 30 20 20 30 20 20 30 20 20 30 20 20 30 20 20 30 20 20 30 20 20 30 20 20 30 20 20 30 0 255 0 20 20 30 20 20 30 20 20 30 20 20 30 20 20 30 20 20 30 20 20 30 20 20 30 20 20 30 20 20 30 20 20 30 20 20 30 20 20 30 20 20 30 20 20 30 20 20 30 20 20 30 20 20 30 20 20 30 20 20 30 20 20 30 20 20 30 20 20 30 20 20 30 20 20 30 20 20 30 20 20 30 20 20 30 20 20 30 20 20 30 20 20 30 20 20 30 20 20 30 20 20 30 20 20 30 20 20 30 20 20 30 20 20 30 20 20 30 20 20 30 20 20 30 20 20 30 20 20 30 20 20 30 20 20 30 20 20 30 20 20 30 20 20 30 20 20 30 20 20 30 20 20 30 20 20 30 20 20 30 20 20 30 20 20 30 20 20 30 20 20 30 20 20 30 20 20 30 20 20 30 20 20 30 20 20 30 20 20 30 20 20 30 20 20 30 20 20 30 20 20 30 20 20 30 20 20 30 20 20 30 20 20 30 20 20 30 20 20 30 20 20 30 20 20 30 20 20 30 0 255 255 20 20 30 20 20 30 20 20 30 20 20 30 20 20 30 20 20 30 20 20 30 20 20 30 20 20 30 20 20 30 20 20 30 20 20 30 20 20 30 20 20 30 20 20 30 20 20 30 20 20 30 20 20 30 20 20 30 20 20 30 20 20 30 20 20 30 20 20 30 20 20 30 20 20 30 
20 20 30 20 20 30 20 20 30 20 20 30 20 20 30 20 20 30 20 20 30 20 20 30 20 20 30 20 20 30 20 20 30 20 20 30 20 20 30 20 20 30 20 20 30 20 20 30 20 20 30 20 20 30 20 20 30 20 20 30 20 20 30 20 20 30 20 20 30 20 20 30 20 20 30 20 20 30 20 20 30 20 20 30 20 20 30 20 20 30 20 20 30 20 20 30 20 20 30 20 20 30 20 20 30 20 20 30 20 20 30 20 20 30 20 20 30 20 20 30 20 20 30 20 20 30 20 20 30 20 20 30 20 20 30 20 20 30 20 20 30 20 20 30 20 20 30 20 20 30 20 20 30 20 20 30 20 20 30 20 20 30 20 20 30 20 20 30 20 20 30 20 20 30 20 20 30 20 20 30 20 20 30 20 20 30 20 20 30 20 20 30 20 20 30 20 20 30 20 20 30 20 20 30 20 20 30 20 20 30 20 20 30 20 20 30 20 20 30 20 20 30 20 20 30 20 20 30 20 20 30 20 20 30 20 20 30 20 20 30 20 20 30 20 20 30 20 20 30 20 20 30 20 20 30 20 20 30 20 20 30 20 20 30 20 20 30 20 20 30 20 20 30 20 20 30 20 20 30 20 20 30 20 20 30 20 20 30 20 20 30 20 20 30 20 20 30 20 20 30 20 20 30 20 20 30 20 20 30 255 0 0 20 20 30 20 20 30 20 20 30 20 20 30 20 20 30 20 20 30 20 20 30 20 20 30 20 20 30 20 20 30 20 20 30 20 20 30 20 20 30 20 20 30 20 20 30 20 20 30 20 20 30 20 20 30 20 20 30 20 20 30 20 20 30 20 20 30 20 20 30 20 20 30 20 20 30 20 20 30 20 20 30 20 20 30 20 20 30 20 20 30 20 20 30 20 20 30 20 20 30 20 20 30 20 20 30 20 20 30 0 255 255 20 20 30 20 20 30 20 20 30 20 20 30 20 20 30 20 20 30 20 20 30 20 20 30 20 20 30 20 20 30 20 20 30 0 255 0 20 20 30 20 20 30 20 20 30 20 20 30 20 20 30 20 20 30 20 20 30 20 20 30 20 20 30 20 20 30 20 20 30 20 20 30 20 20 30 20 20 30 20 20 30 20 20 30 20 20 30 20 20 30 20 20 30 20 20 30 20 20 30 20 20 30 20 20 30 20 20 30 20 20 30 20 20 30 20 20 30 20 20 30 20 20 30 20 20 30 20 20 30 20 20 30 20 20 30 20 20 30 20 20 30 20 20 30 20 20 30 20 20 30 20 20 30 20 20 30 20 20 30 20 20 30 20 20 30 20 20 30 20 20 30 20 20 30 20 20 30 20 20 30 20 20 30 20 20 30 20 20 30 20 20 30 20 20 30 20 20 30 20 20 30 20 20 30 20 20 30 20 20 30 20 20 30 20 20 30 20 20 30 20 20 30 20 20 30 20 20 30 20 20 30 20 20 30 20 20 30 20 20 30 20 20 30 20 20 30 20 20 30 20 20 30 20 20 30 20 20 30 20 20 30 20 20 30 20 20 30 0 255 255 20 20 30 20 20 30 20 20 30 20 20 30 20 20 30 20 20 30 20 20 30 20 20 30 20 20 30 20 20 30 20 20 30 20 20 30 20 20 30 20 20 30 20 20 30 20 20 30 20 20 30 20 20 30 20 20 30 20 20 30 20 20 30 20 20 30 20 20 30 20 20 30 20 20 30 
20 20 30 20 20 30 20 20 30 20 20 30 20 20 30 20 20 30 20 20 30 20 20 30 20 20 30 20 20 30 20 20 30 20 20 30 20 20 30 20 20 30 20 20 30 20 20 30 20 20 30 20 20 30 20 20 30 20 20 30 20 20 30 20 20 30 20 20 30 20 20 30 20 20 30 20 20 30 20 20 30 20 20 30 20 20 30 20 20 30 20 20 30 20 20 30 20 20 30 20 20 30 20 20 30 20 20 30 20 20 30 20 20 30 20 20 30 20 20 30 20 20 30 20 20 30 20 20 30 20 20 30 20 20 30 20 20 30 20 20 30 20 20 30 20 20 30 20 20 30 20 20 30 20 20 30 20 20 30 20 20 30 20 20 30 20 20 30 20 20 30 20 20 30 20 20 30 20 20 30 20 20 30 20 20 30 20 20 30 20 20 30 20 20 30 20 20 30 20 20 30 20 20 30 20 20 30 20 20 30 20 20 30 20 20 30 20 20 30 20 20 30 20 20 30 20 20 30 20 20 30 20 20 30 20 20 30 20 20 30 20 20 30 20 20 30 20 20 30 20 20 30 20 20 30 20 20 30 20 20 30 20 20 30 20 20 30 20 20 30 20 20 30 20 20 30 20 20 30 20 20 30 20 20 30 20 20 30 20 20 30 20 20 30 20 20 30 20 20 30 20 20 30 20 20 30 20 20 30 20 20 30 255 0 0 20 20 30 20 20 30 20 20 30 20 20 30 20 20 30 20 20 30 20 20 30 20 20 30 20 20 30 20 20 30 20 20 30 20 20 30 20 20 30 20 20 30 20 20 30 20 20 30 20 20 30 20 20 30 20 20 30 20 20 30 20 20 30 20 20 30 20 20 30 20 20 30 20 20 30 20 20 30 20 20 30 20 20 30 20 20 30 20 20 30 20 20 30 20 20 30 20 20 30 20 20 30 20 20 30 0 255 255 20 20 30 20 20 30 20 20 30 20 20 30 20 20 30 20 20 30 20 20 30 20 20 30 20 20 30 20 20 30 0 255 0 20 20 30 20 20 30 20 20 30 20 20 30 20 20 30 20 20 30 20 20 30 20 20 30 20 20 30 20 20 30 20 20 30 20 20 30 20 20 30 20 20 30 20 20 30 20 20 30 20 20 30 20 20 30 20 20 30 20 20 30 20 20 30 20 20 30 20 20 30 20 20 30 20 20 30 20 20 30 20 20 30 20 20 30 20 20 30 20 20 30 20 20 30 20 20 30 20 20 30 20 20 30 20 20 30 20 20 30 20 20 30 20 20 30 20 20 30 20 20 30 20 20 30 20 20 30 20 20 30 20 20 30 20 20 30 20 20 30 20 20 30 20 20 30 20 20 30 20 20 30 20 20 30 20 20 30 20 20 30 20 20 30 20 20 30 20 20 30 20 20 30 20 20 30 20 20 30 20 20 30 20 20 30 20 20 30 20 20 30 20 20 30 20 20 30 20 20 30 20 20 30 20 20 30 20 20 30 20 20 30 20 20 30 20 20 30 20 20 30 20 20 30 20 20 30 20 20 30 20 20 30 20 20 30 0 255 255 20 20 30 20 20 30 20 20 30 20 20 30 20 20 30 20 20 30 20 20 30 20 20 30 20 20 30 20 20 30 20 20 30 20 20 30 20 20 30 20 20 30 20 20 30 20 20 30 20 20 30 20 20 30 20 20 30 20 20 30 20 20 30 20 20 30 20 20 30 20 20 30 20 20 30 
20 20 30 20 20 30 20 20 30 20 20 30 20 20 30 20 20 30 20 20 30 20 20 30 20 20 30 20 20 30 20 20 30 20 20 30 20 20 30 20 20 30 20 20 30 20 20 30 20 20 30 20 20 30 20 20 30 20 20 30 20 20 30 20 20 30 20 20 30 20 20 30 20 20 30 20 20 30 20 20 30 20 20 30 20 20 30 20 20 30 20 20 30 20 20 30 20 20 30 20 20 30 20 20 30 20 20 30 20 20 30 20 20 30 20 20 30 20 20 30 20 20 30 20 20 30 20 20 30 20 20 30 20 20 30 20 20 30 20 20 30 20 20 30 20 20 30 20 20 30 20 20 30 20 20 30 20 20 30 20 20 30 20 20 30 20 20 30 20 20 30 20 20 30 20 20 30 20 20 30 20 20 30 20 20 30 20 20 30 20 20 30 20 20 30 20 20 30 20 20 30 20 20 30 20 20 30 20 20 30 20 20 30 20 20 30 20 20 30 20 20 30 20 20 30 20 20 30 20 20 30 20 20 30 20 20 30 20 20 30 20 20 30 20 20 30 20 20 30 20 20 30 20 20 30 20 20 30 20 20 30 20 20 30 20 20 30 20 20 30 20 20 30 20 20 30 20 20 30 20 20 30 20 20 30 20 20 30 20 20 30 20 20 30 20 20 30 20 20 30 20 20 30 20 20 30 20 20 30 20 20 30 20 20 30 255 0 0 20 20 30 20 20 30 20 20 30 20 20 30 20 20 30 20 20 30 20 20 30 20 20 30 20 20 30 20 20 30 20 20 30 20 20 30 20 20 30 20 20 30 20 20 30 20 20 30 20 20 30 20 20 30 20 20 30 20 20 30 20 20 30 20 20 30 20 20 30 20 20 30 20 20 30 20 20 30 20 20 30 20 20 30 20 20 30 20 20 30 20 20 30 20 20 30 20 20 30 20 20 30 0 255 255 20 20 30 20 20 30 20 20 30 20 20 30 20 20 30 20 20 30 20 20 30 20 20 30 20 20 30 0 255 0 20 20 30 20 20 30 20 20 30 20 20 30 20 20 30 20 20 30 20 20 30 20 20 30 20 20 30 20 20 30 20 20 30 20 20 30 20 20 30 20 20 30 20 20 30 20 20 30 20 20 30 20 20 30 20 20 30 20 20 30 20 20 30 20 20 30 20 20 30 20 20 30 20 20 30 20 20 30 20 20 30 20 20 30 20 20 30 20 20 30 20 20 30 20 20 30 20 20 30 20 20 30 20 20 30 20 20 30 20 20 30 20 20 30 20 20 30 20 20 30 20 20 30 20 20 30 20 20 30 20 20 30 20 20 30 20 20 30 20 20 30 20 20 30 20 20 30 20 20 30 20 20 30 20 20 30 20 20 30 20 20 30 20 20 30 20 20 30 20 20 30 20 20 30 20 20 30 20 20 30 20 20 30 20 20 30 20 20 30 20 20 30 20 20 30 20 20 30 20 20 30 20 20 30 20 20 30 20 20 30 20 20 30 20 20 30 20 20 30 20 20 30 20 20 30 20 20 30 20 20 30 20 20 30 20 20 30 0 255 255 20 20 30 20 20 30 20 20 30 20 20 30 20 20 30 20 20 30 20 20 30 20 20 30 20 20 30 20 20 30 20 20 30 20 20 30 20 20 30 20 20 30 20 20 30 20 20 30 20 20 30 20 20 30 20 20 30 20 20 30 20 20 30 20 20 30 20 20 30 20 20 30 20 20 30 
20 20 30 20 20 30 20 20 30 20 20 30 20 20 30 20 20 30 20 20 30 20 20 30 20 20 30 20 20 30 20 20 30 20 20 30 20 20 30 20 20 30 20 20 30 20 20 30 20 20 30 20 20 30 20 20 30 20 20 30 20 20 30 20 20 30 20 20 30 20 20 30 20 20 30 20 20 30 20 20 30 20 20 30 20 20 30 20 20 30 20 20 30 20 20 30 20 20 30 20 20 30 20 20 30 20 20 30 20 20 30 20 20 30 20 20 30 20 20 30 20 20 30 20 20 30 20 20 30 20 20 30 20 20 30 20 20 30 20 20 30 20 20 30 20 20 30 20 20 30 20 20 30 20 20 30 20 20 30 20 20 30 20 20 30 20 20 30 20 20 30 20 20 30 20 20 30 20 20 30 20 20 30 20 20 30 20 20 30 20 20 30 20 20 30 20 20 30 20 20 30 20 20 30 20 20 30 20 20 30 20 20 30 20 20 30 20 20 30 20 20 30 20 20 30 20 20 30 20 20 30 20 20 30 20 20 30 20 20 30 20 20 30 20 20 30 20 20 30 20 20 30 20 20 30 20 20 30 20 20 30 20 20 30 20 20 30 20 20 30 20 20 30 20 20 30 20 20 30 20 20 30 20 20 30 20 20 30 20 20 30 20 20 30 20 20 30 20 20 30 20 20 30 20 20 30 20 20 30 20 20 30 20 20 30 20 20 30 255 0 0 20 20 30 20 20 30 20 20 30 20 20 30 20 20 30 20 20 30 20 20 30 20 20 30 20 20 30 20 20 30 20 20 30 20 20 30 20 20 30 20 20 30 20 20 30 20 20 30 20 20 30 20 20 30 20 20 30 20 20 30 20 20 30 20 20 30 20 20 30 20 20 30 20 20 30 20 20 30 20 20 30 20 20 30 20 20 30 20 20 30 20 20 30 20 20 30 20 20 30 0 255 255 20 20 30 20 20 30 20 20 30 20 20 30 20 20 30 20 20 30 20 20 30 20 20 30 0 255 0 20 20 30 20 20 30 20 20 30 20 20 30 20 20 30 20 20 30 20 20 30 20 20 30 20 20 30 20 20 30 20 20 30 20 20 30 20 20 30 20 20 30 20 20 30 20 20 30 20 20 30 20 20 30 20 20 30 20 20 30 20 20 30 20 20 30 20 20 30 20 20 30 20 20 30 20 20 30 20 20 30 20 20 30 20 20 30 20 20 30 20 20 30 20 20 30 20 20 30 20 20 30 20 20 30 20 20 30 20 20 30 20 20 30 20 20 30 20 20 30 20 20 30 20 20 30 20 20 30 20 20 30 20 20 30 20 20 30 20 20 30 20 20 30 20 20 30 20 20 30 20 20 30 20 20 30 20 20 30 20 20 30 20 20 30 20 20 30 20 20 30 20 20 30 20 20 30 20 20 30 20 20 30 20 20 30 20 20 30 20 20 30 20 20 30 20 20 30 20 20 30 20 20 30 20 20 30 20 20 30 20 20 30 20 20 30 20 20 30 20 20 30 20 20 30 20 20 30 20 20 30 20 20 30 20 20 30 20 20 30 0 255 255 20 20 30 20 20 30 20 20 30 20 20 30 20 20 30 20 20 30 20 20 30 20 20 30 20 20 30 20 20 30 20 20 30 20 20 30 20 20 30 20 20 30 20 20 30 20 20 30 20 20 30 20 20 30 20 20 30 20 20 30 20 20 30 20 20 30 20 20 30 20 20 30 20 20 30 
20 20 30 20 20 30 20 20 30 20 20 30 20 20 30 20 20 30 20 20 30 20 20 30 20 20 30 20 20 30 20 20 30 20 20 30 20 20 30 20 20 30 20 20 30 20 20 30 20 20 30 20 20 30 20 20 30 20 20 30 20 20 30 20 20 30 20 20 30 20 20 30 20 20 30 20 20 30 20 20 30 20 20 30 20 20 30 20 20 30 20 20 30 20 20 30 20 20 30 20 20 30 20 20 30 20 20 30 20 20 30 20 20 30 20 20 30 20 20 30 20 20 30 20 20 30 20 20 30 20 20 30 20 20 30 20 20 30 20 20 30 20 20 30 20 20 30 20 20 30 20 20 30 20 20 30 20 20 30 20 20 30 20 20 30 20 20 30 20 20 30 20 20 30 20 20 30 20 20 30 20 20 30 20 20 30 20 20 30 20 20 30 20 20 30 20 20 30 20 20 30 20 20 30 20 20 30 20 20 30 20 20 30 20 20 30 20 20 30 20 20 30 20 20 30 20 20 30 20 20 30 20 20 30 20 20 30 20 20 30 20 20 30 20 20 30 20 20 30 20 20 30 20 20 30 20 20 30 20 20 30 20 20 30 20 20 30 20 20 30 20 20 30 20 20 30 20 20 30 20 20 30 20 20 30 20 20 30 20 20 30 20 20 30 20 20 30 20 20 30 20 20 30 20 20 30 20 20 30 20 20 30 20 20 30 20 20 30 20 20 30 255 0 0 20 20 30 20 20 30 20 20 30 20 20 30 20 20 30 20 20 30 20 20 30 20 20 30 20 20 30 20 20 30 20 20 30 20 20 30 20 20 30 20 20 30 20 20 30 20 20 30 20 20 30 20 20 30 20 20 30 20 20 30 20 20 30 20 20 30 20 20 30 20 20 30 20 20 30 20 20 30 20 20 30 20 20 30 20 20 30 20 20 30 20 20 30 20 20 30 0 255 255 20 20 30 20 20 30 20 20 30 20 20 30 20 20 30 20 20 30 20 20 30 0 255 0 20 20 30 20 20 30 20 20 30 20 20 30 20 20 30 20 20 30 20 20 30 20 20 30 20 20 30 20 20 30 20 20 30 20 20 30 20 20 30 20 20 30 20 20 30 20 20 30 20 20 30 20 20 30 20 20 30 20 20 30 20 20 30 20 20 30 20 20 30 20 20 30 20 20 30 20 20 30 20 20 30 20 20 30 20 20 30 20 20 30 20 20 30 20 20 30 20 20 30 20 20 30 20 20 30 20 20 30 20 20 30 20 20 30 20 20 30 20 20 30 20 20 30 20 20 30 20 20 30 20 20 30 20 20 30 20 20 30 20 20 30 20 20 30 20 20 30 20 20 30 20 20 30 20 20 30 20 20 30 20 20 30 20 20 30 20 20 30 20 20 30 20 20 30 20 20 30 20 20 30 20 20 30 20 20 30 20 20 30 20 20 30 20 20 30 20 20 30 20 20 30 20 20 30 20 20 30 20 20 30 20 20 30 20 20 30 20 20 30 20 20 30 20 20 30 20 20 30 20 20 30 20 20 30 20 20 30 20 20 30 20 20 30 0 255 255 20 20 30 20 20 30 20 20 30 20 20 30 20 20 30 20 20 30 20 20 30 20 20 30 20 20 30 20 20 30 20 20 30 20 20 30 20 20 30 20 20 30 20 20 30 20 20 30 20 20 30 20 20 30 20 20 30 20 20 30 20 20 30 20 20 30 20 20 30 20 20 30 20 20 30 
20 20 30 20 20 30 20 20 30 20 20 30 20 20 30 20 20 30 20 20 30 20 20 30 20 20 30 20 20 30 20 20 30 20 20 30 20 20 30 20 20 30 20 20 30 20 20 30 20 20 30 20 20 30 20 20 30 20 20 30 20 20 30 20 20 30 20 20 30 20 20 30 20 20 30 20 20 30 20 20 30 20 20 30 20 20 30 20 20 30 20 20 30 20 20 30 20 20 30 20 20 30 20 20 30 20 20 30 20 20 30 20 20 30 20 20 30 20 20 30 20 20 30 20 20 30 20 20 30 20 20 30 20 20 30 20 20 30 20 20 30 20 20 30 20 20 30 20 20 30 20 20 30 20 20 30 20 20 30 20 20 30 20 20 30 20 20 30 20 20 30 20 20 30 20 20 30 20 20 30 20 20 30 20 20 30 20 20 30 20 20 30 20 20 30 20 20 30 20 20 30 20 20 30 20 20 30 20 20 30 20 20 30 20 20 30 20 20 30 20 20 30 20 20 30 20 20 30 20 20 30 20 20 30 20 20 30 20 20 30 20 20 30 20 20 30 20 20 30 20 20 30 20 20 30 20 20 30 20 20 30 20 20 30 20 20 30 20 20 30 20 20 30 20 20 30 20 20 30 20 20 30 20 20 30 20 20 30 20 20 30 20 20 30 20 20 30 20 20 30 20 20 30 20 20 30 20 20 30 20 20 30 20 20 30 20 20 30 20 20 30 20 20 30 255 0 0 20 20 30 20 20 30 20 20 30 20 20 30 20 20 30 20 20 30 20 20 30 20 20 30 20 20 30 20 20 30 20 20 30 20 20 30 20 20 30 20 20 30 20 20 30 20 20 30 20 20 30 20 20 30 20 20 30 20 20 30 20 20 30 20 20 30 20 20 30 20 20 30 20 20 30 20 20 30 20 20 30 20 20 30 20 20 30 20 20 30 20 20 30 0 255 255 20 20 30 20 20 30 20 20 30 20 20 30 20 20 30 20 20 30 0 255 0 20 20 30 20 20 30 20 20 30 20 20 30 20 20 30 20 20 30 20 20 30 20 20 30 20 20 30 20 20 30 20 20 30 20 20 30 20 20 30 20 20 30 20 20 30 20 20 30 20 20 30 20 20 30 20 20 30 20 20 30 20 20 30 20 20 30 20 20 30 20 20 30 20 20 30 20 20 30 20 20 30 20 20 30 20 20 30 20 20 30 20 20 30 20 20 30 20 20 30 20 20 30 20 20 30 20 20 30 20 20 30 20 20 30 20 20 30 20 20 30 20 20 30 20 20 30 20 20 30 20 20 30 20 20 30 20 20 30 20 20 30 20 20 30 20 20 30 20 20 30 20 20 30 20 20 30 20 20 30 20 20 30 20 20 30 20 20 30 20 20 30 20 20 30 20 20 30 20 20 30 20 20 30 20 20 30 20 20 30 20 20 30 20 20 30 20 20 30 20 20 30 20 20 30 20 20 30 20 20 30 20 20 30 20 20 30 20 20 30 20 20 30 20 20 30 20 20 30 20 20 30 20 20 30 20 20 30 20 20 30 20 20 30 20 20 30 0 255 255 20 20 30 20 20 30 20 20 30 20 20 30 20 20 30 20 20 30 20 20 30 20 20 30 20 20 30 20 20 30 20 20 30 20 20 30 20 20 30 20 20 30 20 20 30 20 20 30 20 20 30 20 20 30 20 20 30 20 20 30 20 20 30 20 20 30 20 20 30 20 20 30 20 20 30 
20 20 30 20 20 30 20 20 30 20 20 30 20 20 30 20 20 30 20 20 30 20 20 30 20 20 30 20 20 30 20 20 30 20 20 30 20 20 30 20 20 30 20 20 30 20 20 30 20 20 30 20 20 30 20 20 30 20 20 30 20 20 30 20 20 30 20 20 30 20 20 30 20 20 30 20 20 30 20 20 30 20 20 30 20 20 30 20 20 30 20 20 30 20 20 30 20 20 30 20 20 30 20 20 30 20 20 30 20 20 30 20 20 30 20 20 30 20 20 30 20 20 30 20 20 30 20 20 30 20 20 30 20 20 30 20 20 30 20 20 30 20 20 30 20 20 30 20 20 30 20 20 30 20 20 30 20 20 30 20 20 30 20 20 30 20 20 30 20 20 30 20 20 30 20 20 30 20 20 30 20 20 30 20 20 30 20 20 30 20 20 30 20 20 30 20 20 30 20 20 30 20 20 30 20 20 30 20 20 30 20 20 30 20 20 30 20 20 30 20 20 30 20 20 30 20 20 30 20 20 30 20 20 30 20 20 30 20 20 30 20 20 30 20 20 30 20 20 30 20 20 30 20 20 30 20 20 30 20 20 30 20 20 30 20 20 30 20 20 30 20 20 30 20 20 30 20 20 30 20 20 30 20 20 30 20 20 30 20 20 30 20 20 30 20 20 30 20 20 30 20 20 30 20 20 30 20 20 30 20 20 30 20 20 30 20 20 30 20 20 30 20 20 30 20 20 30 255 0 0 20 20 30 20 20 30 20 20 30 20 20 30 20 20 30 20 20 30 20 20 30 20 20 30 20 20 30 20 20 30 20 20 30 20 20 30 20 20 30 20 20 30 20 20 30 20 20 30 20 20 30 20 20 30 20 20 30 20 20 30 20 20 30 20 20 30 20 20 30 20 20 30 20 20 30 20 20 30 20 20 30 20 20 30 20 20 30 20 20 30 0 255 255 20 20 30 20 20 30 20 20 30 20 20 30 20 20 30 0 255 0 20 20 30 20 20 30 20 20 30 20 20 30 20 20 30 20 20 30 20 20 30 20 20 30 20 20 30 20 20 30 20 20 30 20 20 30 20 20 30 20 20 30 20 20 30 20 20 30 20 20 30 20 20 30 20 20 30 20 20 30 20 20 30 20 20 30 20 20 30 20 20 30 20 20 30 20 20 30 20 20 30 20 20 30 20 20 30 20 20 30 20 20 30 20 20 30 20 20 30 20 20 30 20 20 30 20 20 30 20 20 30 20 20 30 20 20 30 20 20 30 20 20 30 20 20 30 20 20 30 20 20 30 20 20 30 20 20 30 20 20 30 20 20 30 20 20 30 20 20 30 20 20 30 20 20 30 20 20 30 20 20 30 20 20 30 20 20 30 20 20 30 20 20 30 20 20 30 20 20 30 20 20 30 20 20 30 20 20 30 20 20 30 20 20 30 20 20 30 20 20 30 20 20 30 20 20 30 20 20 30 20 20 30 20 20 30 20 20 30 20 20 30 20 20 30 20 20 30 20 20 30 20 20 30 20 20 30 20 20 30 20 20 30 20 20 30 20 20 30 0 255 255 20 20 30 20 20 30 20 20 30 20 20 30 20 20 30 20 20 30 20 20 30 20 20 30 20 20 30 20 20 30 20 20 30 20 20 30 20 20 30 20 20 30 20 20 30 20 20 30 20 20 30 20 20 30 20 20 30 20 20 30 20 20 30 20 20 30 20 20 30 20 20 30 20 20 30 
20 20 30 20 20 30 20 20 30 20 20 30 20 20 30 20 20 30 20 20 30 20 20 30 20 20 30 20 20 30 20 20 30 20 20 30 20 20 30 20 20 30 20 20 30 20 20 30 20 20 30 20 20 30 20 20 30 20 20 30 20 20 30 20 20 30 20 20 30 20 20 30 20 20 30 20 20 30 20 20 30 20 20 30 20 20 30 20 20 30 20 20 30 20 20 30 20 20 30 20 20 30 20 20 30 20 20 30 20 20 30 20 20 30 20 20 30 20 20 30 20 20 30 20 20 30 20 20 30 20 20 30 20 20 30 20 20 30 20 20 30 20 20 30 20 20 30 20 20 30 20 20 30 20 20 30 20 20 30 20 20 30 20 20 30 20 20 30 20 20 30 20 20 30 20 20 30 20 20 30 20 20 30 20 20 30 20 20 30 20 20 30 20 20 30 20 20 30 20 20 30 20 20 30 20 20 30 20 20 30 20 20 30 20 20 30 20 20 30 20 20 30 20 20 30 20 20 30 20 20 30 20 20 30 20 20 30 20 20 30 20 20 30 20 20 30 20 20 30 20 20 30 20 20 30 20 20 30 20 20 30 20 20 30 20 20 30 20 20 30 20 20 30 20 20 30 20 20 30 20 20 30 20 20 30 20 20 30 20 20 30 20 20 30 20 20 30 20 20 30 20 20 30 20 20 30 20 20 30 20 20 30 20 20 30 20 20 30 20 20 30 20 20 30 20 20 30 20 20 30 255 0 0 20 20 30 20 20 30 20 20 30 20 20 30 20 20 30 20 20 30 20 20 30 20 20 30 20 20 30 20 20 30 20 20 30 20 20 30 20 20 30 20 20 30 20 20 30 20 20 30 20 20 30 20 20 30 20 20 30 20 20 30 20 20 30 20 20 30 20 20 30 20 20 30 20 20 30 20 20 30 20 20 30 20 20 30 20 20 30 0 255 255 20 20 30 20 20 30 20 20 30 20 20 30 0 255 0 20 20 30 20 20 30 20 20 30 20 20 30 20 20 30 20 20 30 20 20 30 20 20 30 20 20 30 20 20 30 20 20 30 20 20 30 20 20 30 20 20 30 20 20 30 20 20 30 20 20 30 20 20 30 20 20 30 20 20 30 20 20 30 20 20 30 20 20 30 20 20 30 20 20 30 20 20 30 20 20 30 20 20 30 20 20 30 20 20 30 20 20 30 20 20 30 20 20 30 20 20 30 20 20 30 20 20 30 20 20 30 20 20 30 20 20 30 20 20 30 20 20 30 20 20 30 20 20 30 20 20 30 20 20 30 20 20 30 20 20 30 20 20 30 20 20 30 20 20 30 20 20 30 20 20 30 20 20 30 20 20 30 20 20 30 20 20 30 20 20 30 20 20 30 20 20 30 20 20 30 20 20 30 20 20 30 20 20 30 20 20 30 20 20 30 20 20 30 20 20 30 20 20 30 20 20 30 20 20 30 20 20 30 20 20 30 20 20 30 20 20 30 20 20 30 20 20 30 20 20 30 20 20 30 20 20 30 20 20 30 20 20 30 20 20 30 20 20 30 20 20 30 0 255 255 20 20 30 20 20 30 20 20 30 20 20 30 20 20 30 20 20 30 20 20 30 20 20 30 20 20 30 20 20 30 20 20 30 20 20 30 20 20 30 20 20 30 20 20 30 20 20 30 20 20 30 20 20 30 20 20 30 20 20 30 20 20 30 20 20 30 20 20 30 20 20 30 20 20 30 
20 20 30 20 20 30 20 20 30 20 20 30 20 20 30 20 20 30 20 20 30 20 20 30 20 20 30 20 20 30 20 20 30 20 20 30 20 20 30 20 20 30 20 20 30 20 20 30 20 20 30 20 20 30 20 20 30 20 20 30 20 20 30 20 20 30 20 20 30 20 20 30 20 20 30 20 20 30 20 20 30 20 20 30 20 20 30 20 20 30 20 20 30 20 20 30 20 20 30 20 20 30 20 20 30 20 20 30 20 20 30 20 20 30 20 20 30 20 20 30 20 20 30 20 20 30 20 20 30 20 20 30 20 20 30 20 20 30 20 20 30 20 20 30 20 20 30 20 20 30 20 20 30 20 20 30 20 20 30 20 20 30 20 20 30 20 20 30 20 20 30 20 20 30 20 20 30 20 20 30 20 20 30 20 20 30 20 20 30 20 20 30 20 20 30 20 20 30 20 20 30 20 20 30 20 20 30 20 20 30 20 20 30 20 20 30 20 20 30 20 20 30 20 20 30 20 20 30 20 20 30 20 20 30 20 20 30 20 20 30 20 20 30 20 20 30 20 20 30 20 20 30 20 20 30 20 20 30 20 20 30 20 20 30 20 20 30 20 20 30 20 20 30 20 20 30 20 20 30 20 20 30 20 20 30 20 20 30 20 20 30 20 20 30 20 20 30 20 20 30 20 20 30 20 20 30 20 20 30 20 20 30 20 20 30 20 20 30 20 20 30 20 20 30 20 20 30 20 20 30 20 20 30 255 0 0 20 20 30 20 20 30 20 20 30 20 20 30 20 20 30 20 20 30 20 20 30 20 20 30 20 20 30 20 20 30 20 20 30 20 20 30 20 20 30 20 20 30 20 20 30 20 20 30 20 20 30 20 20 30 20 20 30 20 20 30 20 20 30 20 20 30 20 20 30 20 20 30 20 20 30 20 20 30 20 20 30 20 20 30 0 255 255 20 20 30 20 20 30 20 20 30 0 255 0 20 20 30 20 20 30 20 20 30 20 20 30 20 20 30 20 20 30 20 20 30 20 20 30 20 20 30 20 20 30 20 20 30 20 20 30 20 20 30 20 20 30 20 20 30 20 20 30 20 20 30 20 20 30 20 20 30 20 20 30 20 20 30 20 20 30 20 20 30 20 20 30 20 20 30 20 20 30 20 20 30 20 20 30 20 20 30 20 20 30 20 20 30 20 20 30 20 20 30 20 20 30 20 20 30 20 20 30 20 20 30 20 20 30 20 20 30 20 20 30 20 20 30 20 20 30 20 20 30 20 20 30 20 20 30 20 20 30 20 20 30 20 20 30 20 20 30 20 20 30 20 20 30 20 20 30 20 20 30 20 20 30 20 20 30 20 20 30 20 20 30 20 20 30 20 20 30 20 20 30 20 20 30 20 20 30 20 20 30 20 20 30 20 20 30 20 20 30 20 20 30 20 20 30 20 20 30 20 20 30 20 20 30 20 20 30 20 20 30 20 20 30 20 20 30 20 20 30 20 20 30 20 20 30 20 20 30 20 20 30 20 20 30 20 20 30 20 20 30 20 20 30 20 20 30 0 255 255 20 20 30 20 20 30 20 20 30 20 20 30 20 20 30 20 20 30 20 20 30 20 20 30 20 20 30 20 20 30 20 20 30 20 20 30 20 20 30 20 20 30 20 20 30 20 20 30 20 20 30 20 20 30 20 20 30 20 20 30 20 20 30 20 20 30 20 20 30 20 20 30 20 20 30 
20 20 30 20 20 30 20 20 30 20 20 30 20 20 30 20 20 30 20 20 30 20 20 30 20 20 30 20 20 30 20 20 30 20 20 30 20 20 30 20 20 30 20 20 30 20 20 30 20 20 30 20 20 30 20 20 30 20 20 30 20 20 30 20 20 30 20 20 30 20 20 30 20 20 30 20 20 30 20 20 30 20 20 30 20 20 30 20 20 30 20 20 30 20 20 30 20 20 30 20 20 30 20 20 30 20 20 30 20 20 30 20 20 30 20 20 30 20 20 30 20 20 30 20 20 30 20 20 30 20 20 30 20 20 30 20 20 30 20 20 30 20 20 30 20 20 30 20 20 30 20 20 30 20 20 30 20 20 30 20 20 30 20 20 30 20 20 30 20 20 30 20 20 30 20 20 30 20 20 30 20 20 30 20 20 30 20 20 30 20 20 30 20 20 30 20 20 30 20 20 30 20 20 30 20 20 30 20 20 30 20 20 30 20 20 30 20 20 30 20 20 30 20 20 30 20 20 30 20 20 30 20 20 30 20 20 30 20 20 30 20 20 30 20 20 30 20 20 30 20 20 30 20 20 30 20 20 30 20 20 30 20 20 30 20 20 30 20 20 30 20 20 30 20 20 30 20 20 30 20 20 30 20 20 30 20 20 30 20 20 30 20 20 30 20 20 30 20 20 30 20 20 30 20 20 30 20 20 30 20 20 30 20 20 30 20 20 30 20 20 30 20 20 30 20 20 30 20 20 30 20 20 30 20 20 30 255 0 0 20 20 30 20 20 30 20 20 30 20 20 30 20 20 30 20 20 30 20 20 30 20 20 30 20 20 30 20 20 30 20 20 30 20 20 30 20 20 30 20 20 30 20 20 30 20 20 30 20 20 30 20 20 30 20 20 30 20 20 30 20 20 30 20 20 30 20 20 30 20 20 30 20 20 30 20 20 30 20 20 30 0 255 255 20 20 30 20 20 30 0 255 0 20 20 30 20 20 30 20 20 30 20 20 30 20 20 30 20 20 30 20 20 30 20 20 30 20 20 30 20 20 30 20 20 30 20 20 30 20 20 30 20 20 30 20 20 30 20 20 30 20 20 30 20 20 30 20 20 30 20 20 30 20 20 30 20 20 30 20 20 30 20 20 30 20 20 30 20 20 30 20 20 30 20 20 30 20 20 30 20 20 30 20 20 30 20 20 30 20 20 30 20 20 30 20 20 30 20 20 30 20 20 30 20 20 30 20 20 30 20 20 30 20 20 30 20 20 30 20 20 30 20 20 30 20 20 30 20 20 30 20 20 30 20 20 30 20 20 30 20 20 30 20 20 30 20 20 30 20 20 30 20 20 30 20 20 30 20 20 30 20 20 30 20 20 30 20 20 30 20 20 30 20 20 30 20 20 30 20 20 30 20 20 30 20 20 30 20 20 30 20 20 30 20 20 30 20 20 30 20 20 30 20 20 30 20 20 30 20 20 30 20 20 30 20 20 30 20 20 30 20 20 30 20 20 30 20 20 30 20 20 30 20 20 30 20 20 30 20 20 30 20 20 30 20 20 30 20 20 30 0 255 255 20 20 30 20 20 30 20 20 30 20 20 30 20 20 30 20 20 30 20 20 30 20 20 30 20 20 30 20 20 30 20 20 30 20 20 30 20 20 30 20 20 30 20 20 30 20 20 30 20 20 30 20 20 30 20 20 30 20 20 30 20 20 30 20 20 30 20 20 30 20 20 30 20 20 30 
20 20 30 20 20 30 20 20 30 20 20 30 20 20 30 20 20 30 20 20 30 20 20 30 20 20 30 20 20 30 20 20 30 20 20 30 20 20 30 20 20 30 20 20 30 20 20 30 20 20 30 20 20 30 20 20 30 20 20 30 20 20 30 20 20 30 20 20 30 20 20 30 20 20 30 20 20 30 20 20 30 20 20 30 20 20 30 20 20 30 20 20 30 20 20 30 20 20 30 20 20 30 20 20 30 20 20 30 20 20 30 20 20 30 20 20 30 20 20 30 20 20 30 20 20 30 20 20 30 20 20 30 20 20 30 20 20 30 20 20 30 20 20 30 20 20 30 20 20 30 20 20 30 20 20 30 20 20 30 20 20 30 20 20 30 20 20 30 20 20 30 20 20 30 20 20 30 20 20 30 20 20 30 20 20 30 20 20 30 20 20 30 20 20 30 20 20 30 20 20 30 20 20 30 20 20 30 20 20 30 20 20 30 20 20 30 20 20 30 20 20 30 20 20 30 20 20 30 20 20 30 20 20 30 20 20 30 20 20 30 20 20 30 20 20 30 20 20 30 20 20 30 20 20 30 20 20 30 20 20 30 20 20 30 20 20 30 20 20 30 20 20 30 20 20 30 20 20 30 20 20 30 20 20 30 20 20 30 20 20 30 20 20 30 20 20 30 20 20 30 20 20 30 20 20 30 20 20 30 20 20 30 20 20 30 20 20 30 20 20 30 20 20 30 20 20 30 20 20 30 20 20 30 20 20 30 20 20 30 255 0 0 20 20 30 20 20 30 20 20 30 20 20 30 20 20 30 20 20 30 20 20 30 20 20 30 20 20 30 20 20 30 20 20 30 20 20 30 20 20 30 20 20 30 20 20 30 20 20 30 20 20 30 20 20 30 20 20 30 20 20 30 20 20 30 20 20 30 20 20 30 20 20 30 20 20 30 20 20 30 0 255 255 20 20 30 0 255 0 20 20 30 20 20 30 20 20 30 20 20 30 20 20 30 20 20 30 20 20 30 20 20 30 20 20 30 20 20 30 20 20 30 20 20 30 20 20 30 20 20 30 20 20 30 20 20 30 20 20 30 20 20 30 20 20 30 20 20 30 20 20 30 20 20 30 20 20 30 20 20 30 20 20 30 20 20 30 20 20 30 20 20 30 20 20 30 20 20 30 20 20 30 20 20 30 20 20 30 20 20 30 20 20 30 20 20 30 20 20 30 20 20 30 20 20 30 20 20 30 20 20 30 20 20 30 20 20 30 20 20 30 20 20 30 20 20 30 20 20 30 20 20 30 20 20 30 20 20 30 20 20 30 20 20 30 20 20 30 20 20 30 20 20 30 20 20 30 20 20 30 20 20 30 20 20 30 20 20 30 20 20 30 20 20 30 20 20 30 20 20 30 20 20 30 20 20 30 20 20 30 20 20 30 20 20 30 20 20 30 20 20 30 20 20 30 20 20 30 20 20 30 20 20 30 20 20 30 20 20 30 20 20 30 20 20 30 20 20 30 20 20 30 20 20 30 20 20 30 20 20 30 20 20 30 20 20 30 20 20 30 0 255 255 20 20 30 20 20 30 20 20 30 20 20 30 20 20 30 20 20 30 20 20 30 20 20 30 20 20 30 20 20 30 20 20 30 20 20 30 20 20 30 20 20 30 20 20 30 20 20 30 20 20 30 20 20 30 20 20 30 20 20 30 20 20 30 20 20 30 20 20 30 20 20 30 20 20 30 
20 20 30 20 20 30 20 20 30 20 20 30 20 20 30 20 20 30 20 20 30 20 20 30 20 20 30 20 20 30 20 20 30 20 20 30 20 20 30 20 20 30 20 20 30 20 20 30 20 20 30 20 20 30 20 20 30 20 20 30 20 20 30 20 20 30 20 20 30 20 20 30 20 20 30 20 20 30 20 20 30 20 20 30 20 20 30 20 20 30 20 20 30 20 20 30 20 20 30 20 20 30 20 20 30 20 20 30 20 20 30 20 20 30 20 20 30 20 20 30 20 20 30 20 20 30 20 20 30 20 20 30 20 20 30 20 20 30 20 20 30 20 20 30 20 20 30 20 20 30 20 20 30 20 20 30 20 20 30 20 20 30 20 20 30 20 20 30 20 20 30 20 20 30 20 20 30 20 20 30 20 20 30 20 20 30 20 20 30 20 20 30 20 20 30 20 20 30 20 20 30 20 20 30 20 20 30 20 20 30 20 20 30 20 20 30 20 20 30 20 20 30 20 20 30 20 20 30 20 20 30 20 20 30 20 20 30 20 20 30 20 20 30 20 20 30 20 20 30 20 20 30 20 20 30 20 20 30 20 20 30 20 20 30 20 20 30 20 20 30 20 20 30 20 20 30 20 20 30 20 20 30 20 20 30 20 20 30 20 20 30 20 20 30 20 20 30 20 20 30 20 20 30 20 20 30 20 20 30 20 20 30 20 20 30 20 20 30 20 20 30 20 20 30 20 20 30 20 20 30 20 20 30 20 20 30 20 20 30 20 20 30 255 0 0 20 20 30 20 20 30 20 20 30 20 20 30 20 20 30 20 20 30 20 20 30 20 20 30 20 20 30 20 20 30 20 20 30 20 20 30 20 20 30 20 20 30 20 20 30 20 20 30 20 20 30 20 20 30 20 20 30 20 20 30 20 20 30 20 20 30 20 20 30 20 20 30 20 20 30 0 255 255 0 255 0 20 20 30 20 20 30 20 20 30 20 20 30 20 20 30 20 20 30 20 20 30 20 20 30 20 20 30 20 20 30 20 20 30 20 20 30 20 20 30 20 20 30 20 20 30 20 20 30 20 20 30 20 20 30 20 20 30 20 20 30 20 20 30 20 20 30 20 20 30 20 20 30 20 20 30 20 20 30 20 20 30 20 20 30 20 20 30 20 20 30 20 20 30 20 20 30 20 20 30 20 20 30 20 20 30 20 20 30 20 20 30 20 20 30 20 20 30 20 20 30 20 20 30 20 20 30 20 20 30 20 20 30 20 20 30 20 20 30 20 20 30 20 20 30 20 20 30 20 20 30 20 20 30 20 20 30 20 20 30 20 20 30 20 20 30 20 20 30 20 20 30 20 20 30 20 20 30 20 20 30 20 20 30 20 20 30 20 20 30 20 20 30 20 20 30 20 20 30 20 20 30 20 20 30 20 20 30 20 20 30 20 20 30 20 20 30 20 20 30 20 20 30 20 20 30 20 20 30 20 20 30 20 20 30 20 20 30 20 20 30 20 20 30 20 20 30 20 20 30 20 20 30 20 20 30 20 20 30 20 20 30 20 20 30 0 255 255 20 20 30 20 20 30 20 20 30 20 20 30 20 20 30 20 20 30 20 20 30 20 20 30 20 20 30 20 20 30 20 20 30 20 20 30 20 20 30 20 20 30 20 20 30 20 20 30 20 20 30 20 20 30 20 20 30 20 20 30 20 20 30 20 20 30 20 20 30 20 20 30 20 20 30 
20 20 30 20 20 30 20 20 30 20 20 30 20 20 30 20 20 30 20 20 30 20 20 30 20 20 30 20 20 30 20 20 30 20 20 30 20 20 30 20 20 30 20 20 30 20 20 30 20 20 30 20 20 30 20 20 30 20 20 30 20 20 30 20 20 30 20 20 30 20 20 30 20 20 30 20 20 30 20 20 30 20 20 30 20 20 30 20 20 30 20 20 30 20 20 30 20 20 30 20 20 30 20 20 30 20 20 30 20 20 30 20 20 30 20 20 30 20 20 30 20 20 30 20 20 30 20 20 30 20 20 30 20 20 30 20 20 30 20 20 30 20 20 30 20 20 30 20 20 30 20 20 30 20 20 30 20 20 30 20 20 30 20 20 30 20 20 30 20 20 30 20 20 30 20 20 30 20 20 30 20 20 30 20 20 30 20 20 30 20 20 30 20 20 30 20 20 30 20 20 30 20 20 30 20 20 30 20 20 30 20 20 30 20 20 30 20 20 30 20 20 30 20 20 30 20 20 30 20 20 30 20 20 30 20 20 30 20 20 30 20 20 30 20 20 30 20 20 30 20 20 30 20 20 30 20 20 30 20 20 30 20 20 30 20 20 30 20 20 30 20 20 30 20 20 30 20 20 30 20 20 30 20 20 30 20 20 30 20 20 30 20 20 30 20 20 30 20 20 30 20 20 30 20 20 30 20 20 30 20 20 30 20 20 30 20 20 30 20 20 30 20 20 30 20 20 30 20 20 30 20 20 30 20 20 30 20 20 30 20 20 30 20 20 30 255 0 0 20 20 30 20 20 30 20 20 30 20 20 30 20 20 30 20 20 30 20 20 30 20 20 30 20 20 30 20 20 30 20 20 30 20 20 30 20 20 30 20 20 30 20 20 30 20 20 30 20 20 30 20 20 30 20 20 30 20 20 30 20 20 30 20 20 30 20 20 30 20 20 30 0 255 255 20 20 30 20 20 30 20 20 30 20 20 30 20 20 30 20 20 30 20 20 30 20 20 30 20 20 30 20 20 30 20 20 30 20 20 30 20 20 30 20 20 30 20 20 30 20 20 30 20 20 30 20 20 30 20 20 30 20 20 30 20 20 30 20 20 30 20 20 30 20 20 30 20 20 30 20 20 30 20 20 30 20 20 30 20 20 30 20 20 30 20 20 30 20 20 30 20 20 30 20 20 30 20 20 30 20 20 30 20 20 30 20 20 30 20 20 30 20 20 30 20 20 30 20 20 30 20 20 30 20 20 30 20 20 30 20 20 30 20 20 30 20 20 30 20 20 30 20 20 30 20 20 30 20 20 30 20 20 30 20 20 30 20 20 30 20 20 30 20 20 30 20 20 30 20 20 30 20 20 30 20 20 30 20 20 30 20 20 30 20 20 30 20 20 30 20 20 30 20 20 30 20 20 30 20 20 30 20 20 30 20 20 30 20 20 30 20 20 30 20 20 30 20 20 30 20 20 30 20 20 30 20 20 30 20 20 30 20 20 30 20 20 30 20 20 30 20 20 30 20 20 30 20 20 30 20 20 30 20 20 30 20 20 30 20 20 30 0 255 255 20 20 30 20 20 30 20 20 30 20 20 30 20 20 30 20 20 30 20 20 30 20 20 30 20 20 30 20 20 30 20 20 30 20 20 30 20 20 30 20 20 30 20 20 30 20 20 30 20 20 30 20 20 30 20 20 30 20 20 30 20 20 30 20 20 30 20 20 30 20 20 30 20 20 30 
20 20 30 20 20 30 20 20 30 20 20 30 20 20 30 20 20 30 20 20 30 20 20 30 20 20 30 20 20 30 20 20 30 20 20 30 20 20 30 20 20 30 20 20 30 20 20 30 20 20 30 20 20 30 20 20 30 20 20 30 20 20 30 20 20 30 20 20 30 20 20 30 20 20 30 20 20 30 20 20 30 20 20 30 20 20 30 20 20 30 20 20 30 20 20 30 20 20 30 20 20 30 20 20 30 20 20 30 20 20 30 20 20 30 20 20 30 20 20 30 20 20 30 20 20 30 20 20 30 20 20 30 20 20 30 20 20 30 20 20 30 20 20 30 20 20 30 20 20 30 20 20 30 20 20 30 20 20 30 20 20 30 20 20 30 20 20 30 20 20 30 20 20 30 20 20 30 20 20 30 20 20 30 20 20 30 20 20 30 20 20 30 20 20 30 20 20 30 20 20 30 20 20 30 20 20 30 20 20 30 20 20 30 20 20 30 20 20 30 20 20 30 20 20 30 20 20 30 20 20 30 20 20 30 20 20 30 20 20 30 20 20 30 20 20 30 20 20 30 20 20 30 20 20 30 20 20 30 20 20 30 20 20 30 20 20 30 20 20 30 20 20 30 20 20 30 20 20 30 20 20 30 20 20 30 20 20 30 20 20 30 20 20 30 20 20 30 20 20 30 20 20 30 20 20 30 20 20 30 20 20 30 20 20 30 20 20 30 20 20 30 20 20 30 20 20 30 20 20 30 20 20 30 20 20 30 20 20 30 20 20 30 20 20 30 20 20 30 255 0 0 20 20 30 20 20 30 20 20 30 20 20 30 20 20 30 20 20 30 20 20 30 20 20 30 20 20 30 20 20 30 20 20 30 20 20 30 20 20 30 20 20 30 20 20 30 20 20 30 20 20 30 20 20 30 20 20 30 20 20 30 20 20 30 20 20 30 0 255 0 0 255 255 20 20 30 20 20 30 20 20 30 20 20 30 20 20 30 20 20 30 20 20 30 20 20 30 20 20 30 20 20 30 20 20 30 20 20 30 20 20 30 20 20 30 20 20 30 20 20 30 20 20 30 20 20 30 20 20 30 20 20 30 20 20 30 20 20 30 20 20 30 20 20 30 20 20 30 20 20 30 20 20 30 20 20 30 20 20 30 20 20 30 20 20 30 20 20 30 20 20 30 20 20 30 20 20 30 20 20 30 20 20 30 20 20 30 20 20 30 20 20 30 20 20 30 20 20 30 20 20 30 20 20 30 20 20 30 20 20 30 20 20 30 20 20 30 20 20 30 20 20 30 20 20 30 20 20 30 20 20 30 20 20 30 20 20 30 20 20 30 20 20 30 20 20 30 20 20 30 20 20 30 20 20 30 20 20 30 20 20 30 20 20 30 20 20 30 20 20 30 20 20 30 20 20 30 20 20 30 20 20 30 20 20 30 20 20 30 20 20 30 20 20 30 20 20 30 20 20 30 20 20 30 20 20 30 20 20 30 20 20 30 20 20 30 20 20 30 20 20 30 20 20 30 20 20 30 20 20 30 20 20 30 20 20 30 20 20 30 0 255 255 20 20 30 20 20 30 20 20 30 20 20 30 20 20 30 20 20 30 20 20 30 20 20 30 20 20 30 20 20 30 20 20 30 20 20 30 20 20 30 20 20 30 20 20 30 20 20 30 20 20 30 20 20 30 20 20 30 20 20 30 20 20 30 20 20 30 20 20 30 20 20 30 20 20 30 
20 20 30 20 20 30 20 20 30 20 20 30 20 20 30 20 20 30 20 20 30 20 20 30 20 20 30 20 20 30 20 20 30 20 20 30 20 20 30 20 20 30 20 20 30 20 20 30 20 20 30 20 20 30 20 20 30 20 20 30 20 20 30 20 20 30 20 20 30 20 20 30 20 20 30 20 20 30 20 20 30 20 20 30 20 20 30 20 20 30 20 20 30 20 20 30 20 20 30 20 20 30 20 20 30 20 20 30 20 20 30 20 20 30 20 20 30 20 20 30 20 20 30 20 20 30 20 20 30 20 20 30 20 20 30 20 20 30 20 20 30 20 20 30 20 20 30 20 20 30 20 20 30 20 20 30 20 20 30 20 20 30 20 20 30 20 20 30 20 20 30 20 20 30 20 20 30 20 20 30 20 20 30 20 20 30 20 20 30 20 20 30 20 20 30 20 20 30 20 20 30 20 20 30 20 20 30 20 20 30 20 20 30 20 20 30 20 20 30 20 20 30 20 20 30 20 20 30 20 20 30 20 20 30 20 20 30 20 20 30 20 20 30 20 20 30 20 20 30 20 20 30 20 20 30 20 20 30 20 20 30 20 20 30 20 20 30 20 20 30 20 20 30 20 20 30 20 20 30 20 20 30 20 20 30 20 20 30 20 20 30 20 20 30 20 20 30 20 20 30 20 20 30 20 20 30 20 20 30 20 20 30 20 20 30 20 20 30 20 20 30 20 20 30 20 20 30 20 20 30 20 20 30 20 20 30 20 20 30 20 20 30 20 20 30 20 20 30 20 20 30 255 0 0 20 20 30 20 20 30 20 20 30 20 20 30 20 20 30 20 20 30 20 20 30 20 20 30 20 20 30 20 20 30 20 20 30 20 20 30 20 20 30 20 20 30 20 20 30 20 20 30 20 20 30 20 20 30 20 20 30 20 20 30 0 255 0 20 20 30 0 255 255 20 20 30 20 20 30 20 20 30 20 20 30 20 20 30 20 20 30 20 20 30 20 20 30 20 20 30 20 20 30 20 20 30 20 20 30 20 20 30 20 20 30 20 20 30 20 20 30 20 20 30 20 20 30 20 20 30 20 20 30 20 20 30 20 20 30 20 20 30 20 20 30 20 20 30 20 20 30 20 20 30 20 20 30 20 20 30 20 20 30 20 20 30 20 20 30 20 20 30 20 20 30 20 20 30 20 20 30 20 20 30 20 20 30 20 20 30 20 20 30 20 20 30 20 20 30 20 20 30 20 20 30 20 20 30 20 20 30 20 20 30 20 20 30 20 20 30 20 20 30 20 20 30 20 20 30 20 20 30 20 20 30 20 20 30 20 20 30 20 20 30 20 20 30 20 20 30 20 20 30 20 20 30 20 20 30 20 20 30 20 20 30 20 20 30 20 20 30 20 20 30 20 20 30 20 20 30 20 20 30 20 20 30 20 20 30 20 20 30 20 20 30 20 20 30 20 20 30 20 20 30 20 20 30 20 20 30 20 20 30 20 20 30 20 20 30 20 20 30 20 20 30 20 20 30 20 20 30 20 20 30 20 20 30 20 20 30 0 255 255 20 20 30 20 20 30 20 20 30 20 20 30 20 20 30 20 20 30 20 20 30 20 20 30 20 20 30 20 20 30 20 20 30 20 20 30 20 20 30 20 20 30 20 20 30 20 20 30 20 20 30 20 20 30 20 20 30 20 20 30 20 20 30 20 20 30 20 20 30 20 20 30 20 20 30 
20 20 30 20 20 30 20 20 30 20 20 30 20 20 30 20 20 30 20 20 30 20 20 30 20 20 30 20 20 30 20 20 30 20 20 30 20 20 30 20 20 30 20 20 30 20 20 30 20 20 30 20 20 30 20 20 30 20 20 30 20 20 30 20 20 30 20 20 30 20 20 30 20 20 30 20 20 30 20 20 30 20 20 30 20 20 30 20 20 30 20 20 30 20 20 30 20 20 30 20 20 30 20 20 30 20 20 30 20 20 30 20 20 30 20 20 30 20 20 30 20 20 30 20 20 30 20 20 30 20 20 30 20 20 30 20 20 30 20 20 30 20 20 30 20 20 30 20 20 30 20 20 30 20 20 30 20 20 30 20 20 30 20 20 30 20 20 30 20 20 30 20 20 30 20 20 30 20 20 30 20 20 30 20 20 30 20 20 30 20 20 30 20 20 30 20 20 30 20 20 30 20 20 30 20 20 30 20 20 30 20 20 30 20 20 30 20 20 30 20 20 30 20 20 30 20 20 30 20 20 30 20 20 30 20 20 30 20 20 30 20 20 30 20 20 30 20 20 30 20 20 30 20 20 30 20 20 30 20 20 30 20 20 30 20 20 30 20 20 30 20 20 30 20 20 30 20 20 30 20 20 30 20 20 30 20 20 30 20 20 30 20 20 30 20 20 30 20 20 30 20 20 30 20 20 30 20 20 30 20 20 30 20 20 30 20 20 30 20 20 30 20 20 30 20 20 30 20 20 30 20 20 30 20 20 30 20 20 30 20 20 30 20 20 30 20 20 30 20 20 30 20 20 30 255 0 0 20 20 30 20 20 30 20 20 30 20 20 30 20 20 30 20 20 30 20 20 30 20 20 30 20 20 30 20 20 30 20 20 30 20 20 30 20 20 30 20 20 30 20 20 30 20 20 30 20 20 30 20 20 30 0 255 0 20 20 30 20 20 30 0 255 255 20 20 30 20 20 30 20 20 30 20 20 30 20 20 30 20 20 30 20 20 30 20 20 30 20 20 30 20 20 30 20 20 30 20 20 30 20 20 30 20 20 30 20 20 30 20 20 30 20 20 30 20 20 30 20 20 30 20 20 30 20 20 30 20 20 30 20 20 30 20 20 30 20 20 30 20 20 30 20 20 30 20 20 30 20 20 30 20 20 30 20 20 30 20 20 30 20 20 30 20 20 30 20 20 30 20 20 30 20 20 30 20 20 30 20 20 30 20 20 30 20 20 30 20 20 30 20 20 30 20 20 30 20 20 30 20 20 30 20 20 30 20 20 30 20 20 30 20 20 30 20 20 30 20 20 30 20 20 30 20 20 30 20 20 30 20 20 30 20 20 30 20 20 30 20 20 30 20 20 30 20 20 30 20 20 30 20 20 30 20 20 30 20 20 30 20 20 30 20 20 30 20 20 30 20 20 30 20 20 30 20 20 30 20 20 30 20 20 30 20 20 30 20 20 30 20 20 30 20 20 30 20 20 30 20 20 30 20 20 30 20 20 30 20 20 30 20 20 30 20 20 30 20 20 30 20 20 30 20 20 30 20 20 30 20 20 30 0 255 255 20 20 30 20 20 30 20 20 30 20 20 30 20 20 30 20 20 30 20 20 30 20 20 30 20 20 30 20 20 30 20 20 30 20 20 30 20 20 30 20 20 30 20 20 30 20 20 30 20 20 30 20 20 30 20 20 30 20 20 30 20 20 30 20 20 30 20 20 30 20 20 30 20 20 30 
20 20 30 20 20 30 20 20 30 20 20 30 20 20 30 20 20 30 20 20 30 20 20 30 20 20 30 20 20 30 20 20 30 20 20 30 20 20 30 20 20 30 20 20 30 20 20 30 20 20 30 20 20 30 20 20 30 20 20 30 20 20 30 20 20 30 20 20 30 20 20 30 20 20 30 20 20 30 20 20 30 20 20 30 20 20 30 20 20 30 20 20 30 20 20 30 20 20 30 20 20 30 20 20 30 20 20 30 20 20 30 20 20 30 20 20 30 20 20 30 20 20 30 20 20 30 20 20 30 20 20 30 20 20 30 20 20 30 20 20 30 20 20 30 20 20 30 20 20 30 20 20 30 20 20 30 20 20 30 20 20 30 20 20 30 20 20 30 20 20 30 20 20 30 20 20 30 20 20 30 20 20 30 20 20 30 20 20 30 20 20 30 20 20 30 20 20 30 20 20 30 20 20 30 20 20 30 20 20 30 20 20 30 20 20 30 20 20 30 20 20 30 20 20 30 20 20 30 20 20 30 20 20 30 20 20 30 20 20 30 20 20 30 20 20 30 20 20 30 20 20 30 20 20 30 20 20 30 20 20 30 20 20 30 20 20 30 20 20 30 20 20 30 20 20 30 20 20 30 20 20 30 20 20 30 20 20 30 20 20 30 20 20 30 20 20 30 20 20 30 20 20 30 20 20 30 20 20 30 20 20 30 20 20 30 20 20 30 20 20 30 20 20 30 20 20 30 20 20 30 20 20 30 20 20 30 20 20 30 20 20 30 20 20 30 20 20 30 20 20 30 20 20 30 20 20 30 255 0 0 20 20 30 20 20 30 20 20 30 20 20 30 20 20 30 20 20 30 20 20 30 20 20 30 20 20 30 20 20 30 20 20 30 20 20 30 20 20 30 20 20 30 20 20 30 20 20 30 0 255 0 20 20 30 20 20 30 20 20 30 0 255 255 20 20 30 20 20 30 20 20 30 20 20 30 20 20 30 20 20 30 20 20 30 20 20 30 20 20 30 20 20 30 20 20 30 20 20 30 20 20 30 20 20 30 20 20 30 20 20 30 20 20 30 20 20 30 20 20 30 20 20 30 20 20 30 20 20 30 20 20 30 20 20 30 20 20 30 20 20 30 20 20 30 20 20 30 20 20 30 20 20 30 20 20 30 20 20 30 20 20 30 20 20 30 20 20 30 20 20 30 20 20 30 20 20 30 20 20 30 20 20 30 20 20 30 20 20 30 20 20 30 20 20 30 20 20 30 20 20 30 20 20 30 20 20 30 20 20 30 20 20 30 20 20 30 20 20 30 20 20 30 20 20 30 20 20 30 20 20 30 20 20 30 20 20 30 20 20 30 20 20 30 20 20 30 20 20 30 20 20 30 20 20 30 20 20 30 20 20 30 20 20 30 20 20 30 20 20 30 20 20 30 20 20 30 20 20 30 20 20 30 20 20 30 20 20 30 20 20 30 20 20 30 20 20 30 20 20 30 20 20 30 20 20 30 20 20 30 20 20 30 20 20 30 20 20 30 20 20 30 20 20 30 20 20 30 20 20 30 0 255 255 20 20 30 20 20 30 20 20 30 20 20 30 20 20 30 20 20 30 20 20 30 20 20 30 20 20 30 20 20 30 20 20 30 20 20 30 20 20 30 20 20 30 20 20 30 20 20 30 20 20 30 20 20 30 20 20 30 20 20 30 20 20 30 20 20 30 20 20 30 20 20 30 20 20 30 
20 20 30 20 20 30 20 20 30 20 20 30 20 20 30 20 20 30 20 20 30 20 20 30 20 20 30 20 20 30 20 20 30 20 20 30 20 20 30 20 20 30 20 20 30 20 20 30 20 20 30 20 20 30 20 20 30 20 20 30 20 20 30 20 20 30 20 20 30 20 20 30 20 20 30 20 20 30 20 20 30 20 20 30 20 20 30 20 20 30 20 20 30 20 20 30 20 20 30 20 20 30 20 20 30 20 20 30 20 20 30 20 20 30 20 20 30 20 20 30 0 100 255 0 100 255 0 100 255 0 100 255 0 100 255 0 100 255 0 100 255 0 100 255 0 100 255 0 100 255 0 100 255 0 100 255 0 100 255 0 100 255 0 100 255 0 100 255 0 100 255 0 100 255 0 100 255 0 100 255 0 100 255 0 100 255 0 100 255 0 100 255 0 100 255 0 100 255 0 100 255 0 100 255 0 100 255 0 100 255 0 100 255 0 100 255 0 100 255 0 100 255 0 100 255 0 100 255 0 100 255 0 100 255 0 100 255 0 100 255 0 100 255 0 100 255 0 100 255 0 100 255 0 100 255 0 100 255 0 100 255 0 100 255 0 100 255 0 100 255 0 100 255 0 100 255 0 100 255 0 100 255 0 100 255 0 100 255 0 100 255 0 100 255 0 100 255 0 100 255 0 100 255 0 100 255 0 100 255 0 100 255 0 100 255 0 100 255 0 100 255 0 100 255 0 100 255 0 100 255 20 20 30 20 20 30 20 20 30 20 20 30 20 20 30 20 20 30 20 20 30 20 20 30 20 20 30 20 20 30 255 0 0 20 20 30 20 20 30 20 20 30 20 20 30 20 20 30 20 20 30 20 20 30 20 20 30 20 20 30 20 20 30 20 20 30 20 20 30 20 20 30 20 20 30 0 255 0 20 20 30 20 20 30 20 20 30 20 20 30 0 255 255 20 20 30 20 20 30 20 20 30 20 20 30 20 20 30 20 20 30 20 20 30 20 20 30 20 20 30 20 20 30 20 20 30 20 20 30 20 20 30 20 20 30 20 20 30 20 20 30 20 20 30 20 20 30 20 20 30 20 20 30 20 20 30 20 20 30 20 20 30 20 20 30 20 20 30 20 20 30 20 20 30 20 20 30 20 20 30 20 20 30 20 20 30 20 20 30 20 20 30 20 20 30 20 20 30 20 20 30 20 20 30 20 20 30 20 20 30 20 20 30 20 20 30 20 20 30 20 20 30 20 20 30 20 20 30 20 20 30 20 20 30 20 20 30 20 20 30 20 20 30 20 20 30 20 20 30 20 20 30 20 20 30 20 20 30 20 20 30 20 20 30 20 20 30 20 20 30 20 20 30 20 20 30 20 20 30 20 20 30 20 20 30 20 20 30 20 20 30 20 20 30 20 20 30 20 20 30 20 20 30 20 20 30 20 20 30 20 20 30 20 20 30 20 20 30 20 20 30 20 20 30 20 20 30 20 20 30 20 20 30 20 20 30 20 20 30 20 20 30 20 20 30 20 20 30 20 20 30 20 20 30 20 20 30 20 20 30 0 255 255 20 20 30 20 20 30 20 20 30 20 20 30 20 20 30 20 20 30 20 20 30 20 20 30 20 20 30 20 20 30 20 20 30 20 20 30 20 20 30 20 20 30 20 20 30 20 20 30 20 20 30 20 20 30 20 20 30 20 20 30 20 20 30 20 20 30 20 20 30 20 20 30 20 20 30 
20 20 30 20 20 30 20 20 30 20 20 30 20 20 30 20 20 30 20 20 30 20 20 30 20 20 30 20 20 30 20 20 30 20 20 30 20 20 30 20 20 30 20 20 30 20 20 30 20 20 30 20 20 30 20 20 30 20 20 30 20 20 30 20 20 30 20 20 30 20 20 30 20 20 30 20 20 30 20 20 30 20 20 30 20 20 30 20 20 30 20 20 30 20 20 30 20 20 30 20 20 30 20 20 30 20 20 30 20 20 30 20 20 30 20 20 30 20 20 30 0 100 255 0 100 255 0 100 255 0 100 255 0 100 255 0 100 255 0 100 255 0 100 255 0 100 255 0 100 255 0 100 255 0 100 255 0 100 255 0 100 255 0 100 255 0 100 255 0 100 255 0 100 255 0 100 255 0 100 255 0 100 255 0 100 255 0 100 255 0 100 255 0 100 255 0 100 255 0 100 255 0 100 255 0 100 255 0 100 255 0 100 255 0 100 255 0 100 255 0 100 255 0 100 255 0 100 255 0 100 255 0 100 255 0 100 255 0 100 255 0 100 255 0 100 255 0 100 255 0 100 255 0 100 255 0 100 255 0 100 255 0 100 255 0 100 255 0 100 255 0 100 255 0 100 255 0 100 255 0 100 255 0 100 255 0 100 255 0 100 255 0 100 255 0 100 255 0 100 255 0 100 255 0 100 255 0 100 255 0 100 255 0 100 255 0 100 255 0 100 255 0 100 255 0 100 255 0 100 255 20 20 30 20 20 30 20 20 30 20 20 30 20 20 30 20 20 30 20 20 30 20 20 30 20 20 30 20 20 30 20 20 30 255 0 0 20 20 30 20 20 30 20 20 30 20 20 30 20 20 30 20 20 30 20 20 30 20 20 30 20 20 30 20 20 30 20 20 30 20 20 30 0 255 0 20 20 30 20 20 30 20 20 30 20 20 30 20 20 30 0 255 255 20 20 30 20 20 30 20 20 30 20 20 30 20 20 30 20 20 30 20 20 30 20 20 30 20 20 30 20 20 30 20 20 30 20 20 30 20 20 30 20 20 30 20 20 30 20 20 30 20 20 30 20 20 30 20 20 30 20 20 30 20 20 30 20 20 30 20 20 30 20 20 30 20 20 30 20 20 30 20 20 30 20 20 30 20 20 30 20 20 30 20 20 30 20 20 30 20 20 30 20 20 30 20 20 30 20 20 30 20 20 30 20 20 30 20 20 30 20 20 30 20 20 30 20 20 30 20 20 30 20 20 30 20 20 30 20 20 30 20 20 30 20 20 30 20 20 30 20 20 30 20 20 30 20 20 30 20 20 30 20 20 30 20 20 30 20 20 30 20 20 30 20 20 30 20 20 30 20 20 30 20 20 30 20 20 30 20 20 30 20 20 30 20 20 30 20 20 30 20 20 30 20 20 30 20 20 30 20 20 30 20 20 30 20 20 30 20 20 30 20 20 30 20 20 30 20 20 30 20 20 30 20 20 30 20 20 30 20 20 30 20 20 30 20 20 30 20 20 30 20 20 30 20 20 30 20 20 30 20 20 30 20 20 30 20 20 30 0 255 255 20 20 30 20 20 30 20 20 30 20 20 30 20 20 30 20 20 30 20 20 30 20 20 30 20 20 30 20 20 30 20 20 30 20 20 30 20 20 30 20 20 30 20 20 30 20 20 30 20 20 30 20 20 30 20 20 30 20 20 30 20 20 30 20 20 30 20 20 30 20 20 30 20 20 30 
20 20 30 20 20 30 20 20 30 20 20 30 20 20 30 20 20 30 20 20 30 20 20 30 20 20 30 20 20 30 20 20 30 20 20 30 20 20 30 20 20 30 20 20 30 20 20 30 20 20 30 20 20 30 20 20 30 20 20 30 20 20 30 20 20 30 20 20 30 20 20 30 20 20 30 20 20 30 20 20 30 20 20 30 20 20 30 20 20 30 20 20 30 20 20 30 20 20 30 20 20 30 20 20 30 20 20 30 20 20 30 20 20 30 20 20 30 20 20 30 0 100 255 0 100 255 0 100 255 0 100 255 0 100 255 0 100 255 0 100 255 0 100 255 0 100 255 0 100 255 0 100 255 0 100 255 0 100 255 0 100 255 0 100 255 0 100 255 0 100 255 0 100 255 0 100 255 0 100 255 0 100 255 0 100 255 0 100 255 0 100 255 0 100 255 0 100 255 0 100 255 0 100 255 0 100 255 0 100 255 0 100 255 0 100 255 0 100 255 0 100 255 0 100 255 0 100 255 0 100 255 0 100 255 0 100 255 0 100 255 0 100 255 0 100 255 0 100 255 0 100 255 0 100 255 0 100 255 0 100 255 0 100 255 0 100 255 0 100 255 0 100 255 0 100 255 0 100 255 0 100 255 0 100 255 0 100 255 0 100 255 0 100 255 0 100 255 0 100 255 0 100 255 0 100 255 0 100 255 0 100 255 0 100 255 0 100 255 0 100 255 0 100 255 0 100 255 0 100 255 20 20 30 20 20 30 20 20 30 20 20 30 20 20 30 20 20 30 20 20 30 20 20 30 20 20 30 20 20 30 20 20 30 20 20 30 255 0 0 20 20 30 20 20 30 20 20 30 20 20 30 20 20 30 20 20 30 20 20 30 20 20 30 20 20 30 20 20 30 0 255 0 20 20 30 20 20 30 20 20 30 20 20 30 20 20 30 20 20 30 0 255 255 20 20 30 20 20 30 20 20 30 20 20 30 20 20 30 20 20 30 20 20 30 20 20 30 20 20 30 20 20 30 20 20 30 20 20 30 20 20 30 20 20 30 20 20 30 20 20 30 20 20 30 20 20 30 20 20 30 20 20 30 20 20 30 20 20 30 20 20 30 20 20 30 20 20 30 20 20 30 20 20 30 20 20 30 20 20 30 20 20 30 20 20 30 20 20 30 20 20 30 20 20 30 20 20 30 20 20 30 20 20 30 20 20 30 20 20 30 20 20 30 20 20 30 20 20 30 20 20 30 20 20 30 20 20 30 20 20 30 20 20 30 20 20 30 20 20 30 20 20 30 20 20 30 20 20 30 20 20 30 20 20 30 20 20 30 20 20 30 20 20 30 20 20 30 20 20 30 20 20 30 20 20 30 20 20 30 20 20 30 20 20 30 20 20 30 20 20 30 20 20 30 20 20 30 20 20 30 20 20 30 20 20 30 20 20 30 20 20 30 20 20 30 20 20 30 20 20 30 20 20 30 20 20 30 20 20 30 20 20 30 20 20 30 20 20 30 20 20 30 20 20 30 20 20 30 20 20 30 20 20 30 20 20 30 20 20 30 0 255 255 20 20 30 20 20 30 20 20 30 20 20 30 20 20 30 20 20 30 20 20 30 20 20 30 20 20 30 20 20 30 20 20 30 20 20 30 20 20 30 20 20 30 20 20 30 20 20 30 20 20 30 20 20 30 20 20 30 20 20 30 20 20 30 20 20 30 20 20 30 20 20 30 20 20 30 
20 20 30 20 20 30 20 20 30 20 20 30 20 20 30 20 20 30 20 20 30 20 20 30 20 20 30 20 20 30 20 20 30 20 20 30 20 20 30 20 20 30 20 20 30 20 20 30 20 20 30 20 20 30 20 20 30 20 20 30 20 20 30 20 20 30 20 20 30 20 20 30 20 20 30 20 20 30 20 20 30 20 20 30 20 20 30 20 20 30 20 20 30 20 20 30 20 20 30 20 20 30 20 20 30 20 20 30 20 20 30 20 20 30 20 20 30 20 20 30 0 100 255 0 100 255 0 100 255 0 100 255 0 100 255 0 100 255 0 100 255 0 100 255 0 100 255 0 100 255 0 100 255 0 100 255 0 100 255 0 100 255 0 100 255 0 100 255 0 100 255 0 100 255 0 100 255 0 100 255 0 100 255 0 100 255 0 100 255 0 100 255 0 100 255 0 100 255 0 100 255 0 100 255 0 100 255 0 100 255 0 100 255 0 100 255 0 100 255 0 100 255 0 100 255 0 100 255 0 100 255 0 100 255 0 100 255 0 100 255 0 100 255 0 100 255 0 100 255 0 100 255 0 100 255 0 100 255 0 100 255 0 100 255 0 100 255 0 100 255 0 100 255 0 100 255 0 100 255 0 100 255 0 100 255 0 100 255 0 100 255 0 100 255 0 100 255 0 100 255 0 100 255 0 100 255 0 100 255 0 100 255 0 100 255 0 100 255 0 100 255 0 100 255 0 100 255 0 100 255 20 20 30 20 20 30 20 20 30 20 20 30 20 20 30 20 20 30 20 20 30 20 20 30 20 20 30 20 20 30 20 20 30 20 20 30 20 20 30 255 0 0 20 20 30 20 20 30 20 20 30 20 20 30 20 20 30 20 20 30 20 20 30 20 20 30 0 255 0 20 20 30 20 20 30 20 20 30 20 20 30 20 20 30 20 20 30 20 20 30 0 255 255 20 20 30 20 20 30 20 20 30 20 20 30 20 20 30 20 20 30 20 20 30 20 20 30 20 20 30 20 20 30 20 20 30 20 20 30 20 20 30 20 20 30 20 20 30 20 20 30 20 20 30 20 20 30 20 20 30 20 20 30 20 20 30 20 20 30 20 20 30 20 20 30 20 20 30 20 20 30 20 20 30 20 20 30 20 20 30 20 20 30 20 20 30 20 20 30 20 20 30 20 20 30 20 20 30 20 20 30 20 20 30 20 20 30 20 20 30 20 20 30 20 20 30 20 20 30 20 20 30 20 20 30 20 20 30 20 20 30 20 20 30 20 20 30 20 20 30 20 20 30 20 20 30 20 20 30 20 20 30 20 20 30 20 20 30 20 20 30 20 20 30 20 20 30 20 20 30 20 20 30 20 20 30 20 20 30 20 20 30 20 20 30 20 20 30 20 20 30 20 20 30 20 20 30 20 20 30 20 20 30 20 20 30 20 20 30 20 20 30 20 20 30 20 20 30 20 20 30 20 20 30 20 20 30 20 20 30 20 20 30 20 20 30 20 20 30 20 20 30 20 20 30 20 20 30 20 20 30 20 20 30 20 20 30 20 20 30 0 255 255 20 20 30 20 20 30 20 20 30 20 20 30 20 20 30 20 20 30 20 20 30 20 20 30 20 20 30 20 20 30 20 20 30 20 20 30 20 20 30 20 20 30 20 20 30 20 20 30 20 20 30 20 20 30 20 20 30 20 20 30 20 20 30 20 20 30 20 20 30 20 20 30 20 20 30 
20 20 30 20 20 30 20 20 30 20 20 30 20 20 30 20 20 30 20 20 30 20 20 30 20 20 30 20 20 30 20 20 30 20 20 30 20 20 30 20 20 30 20 20 30 20 20 30 20 20 30 20 20 30 20 20 30 20 20 30 20 20 30 20 20 30 20 20 30 20 20 30 20 20 30 20 20 30 20 20 30 20 20 30 20 20 30 20 20 30 20 20 30 20 20 30 20 20 30 20 20 30 20 20 30 20 20 30 20 20 30 20 20 30 20 20 30 20 20 30 0 100 255 0 100 255 0 100 255 0 100 255 0 100 255 0 100 255 0 100 255 0 100 255 0 100 255 0 100 255 0 100 255 0 100 255 0 100 255 0 100 255 0 100 255 0 100 255 0 100 255 0 100 255 0 100 255 0 100 255 0 100 255 0 100 255 0 100 255 0 100 255 0 100 255 0 100 255 0 100 255 0 100 255 0 100 255 0 100 255 0 100 255 0 100 255 0 100 255 0 100 255 0 100 255 0 100 255 0 100 255 0 100 255 0 100 255 0 100 255 0 100 255 0 100 255 0 100 255 0 100 255 0 100 255 0 100 255 0 100 255 0 100 255 0 100 255 0 100 255 0 100 255 0 100 255 0 100 255 0 100 255 0 100 255 0 100 255 0 100 255 0 100 255 0 100 255 0 100 255 0 100 255 0 100 255 0 100 255 0 100 255 0 100 255 0 100 255 0 100 255 0 100 255 0 100 255 0 100 255 20 20 30 20 20 30 20 20 30 20 20 30 20 20 30 20 20 30 20 20 30 20 20 30 20 20 30 20 20 30 20 20 30 20 20 30 20 20 30 20 20 30 255 0 0 20 20 30 20 20 30 20 20 30 20 20 30 20 20 30 20 20 30 0 255 0 20 20 30 20 20 30 20 20 30 20 20 30 20 20 30 20 20 30 20 20 30 20 20 30 0 255 255 20 20 30 20 20 30 20 20 30 20 20 30 20 20 30 20 20 30 20 20 30 20 20 30 20 20 30 20 20 30 20 20 30 20 20 30 20 20 30 20 20 30 20 20 30 20 20 30 20 20 30 20 20 30 20 20 30 20 20 30 20 20 30 20 20 30 20 20 30 20 20 30 20 20 30 20 20 30 20 20 30 20 20 30 20 20 30 20 20 30 20 20 30 20 20 30 20 20 30 20 20 30 20 20 30 20 20 30 20 20 30 20 20 30 20 20 30 20 20 30 20 20 30 20 20 30 20 20 30 20 20 30 20 20 30 20 20 30 20 20 30 20 20 30 20 20 30 20 20 30 20 20 30 20 20 30 20 20 30 20 20 30 20 20 30 20 20 30 20 20 30 20 20 30 20 20 30 20 20 30 20 20 30 20 20 30 20 20 30 20 20 30 20 20 30 20 20 30 20 20 30 20 20 30 20 20 30 20 20 30 20 20 30 20 20 30 20 20 30 20 20 30 20 20 30 20 20 30 20 20 30 20 20 30 20 20 30 20 20 30 20 20 30 20 20 30 20 20 30 20 20 30 20 20 30 20 20 30 20 20 30 20 20 30 20 20 30 0 255 255 20 20 30 20 20 30 20 20 30 20 20 30 20 20 30 20 20 30 20 20 30 20 20 30 20 20 30 20 20 30 20 20 30 20 20 30 20 20 30 20 20 30 20 20 30 20 20 30 20 20 30 20 20 30 20 20 30 20 20 30 20 20 30 20 20 30 20 20 30 20 20 30 20 20 30 
20 20 30 20 20 30 20 20 30 20 20 30 20 20 30 20 20 30 20 20 30 20 20 30 20 20 30 20 20 30 20 20 30 20 20 30 20 20 30 20 20 30 20 20 30 20 20 30 20 20 30 20 20 30 20 20 30 20 20 30 20 20 30 20 20 30 20 20 30 20 20 30 20 20 30 20 20 30 20 20 30 20 20 30 20 20 30 20 20 30 20 20 30 20 20 30 20 20 30 20 20 30 20 20 30 20 20 30 20 20 30 20 20 30 20 20 30 20 20 30 0 100 255 0 100 255 0 100 255 0 100 255 0 100 255 0 100 255 0 100 255 0 100 255 0 100 255 0 100 255 0 100 255 0 100 255 0 100 255 0 100 255 0 100 255 0 100 255 0 100 255 0 100 255 0 100 255 0 100 255 0 100 255 0 100 255 0 100 255 0 100 255 0 100 255 0 100 255 0 100 255 0 100 255 0 100 255 0 100 255 0 100 255 0 100 255 0 100 255 0 100 255 0 100 255 0 100 255 0 100 255 0 100 255 0 100 255 0 100 255 0 100 255 0 100 255 0 100 255 0 100 255 0 100 255 0 100 255 0 100 255 0 100 255 0 100 255 0 100 255 0 100 255 0 100 255 0 100 255 0 100 255 0 100 255 0 100 255 0 100 255 0 100 255 0 100 255 0 100 255 0 100 255 0 100 255 0 100 255 0 100 255 0 100 255 0 100 255 0 100 255 0 100 255 0 100 255 0 100 255 20 20 30 20 20 30 20 20 30 20 20 30 20 20 30 20 20 30 20 20 30 20 20 30 20 20 30 20 20 30 20 20 30 20 20 30 20 20 30 20 20 30 20 20 30 255 0 0 20 20 30 20 20 30 20 20 30 20 20 30 0 255 0 20 20 30 20 20 30 20 20 30 20 20 30 20 20 30 20 20 30 20 20 30 20 20 30 20 20 30 0 255 255 20 20 30 20 20 30 20 20 30 20 20 30 20 20 30 20 20 30 20 20 30 20 20 30 20 20 30 20 20 30 20 20 30 20 20 30 20 20 30 20 20 30 20 20 30 20 20 30 20 20 30 20 20 30 20 20 30 20 20 30 20 20 30 20 20 30 20 20 30 20 20 30 20 20 30 20 20 30 20 20 30 20 20 30 20 20 30 20 20 30 20 20 30 20 20 30 20 20 30 20 20 30 20 20 30 20 20 30 20 20 30 20 20 30 20 20 30 20 20 30 20 20 30 20 20 30 20 20 30 20 20 30 20 20 30 20 20 30 20 20 30 20 20 30 20 20 30 20 20 30 20 20 30 20 20 30 20 20 30 20 20 30 20 20 30 20 20 30 20 20 30 20 20 30 20 20 30 20 20 30 20 20 30 20 20 30 20 20 30 20 20 30 20 20 30 20 20 30 20 20 30 20 20 30 20 20 30 20 20 30 20 20 30 20 20 30 20 20 30 20 20 30 20 20 30 20 20 30 20 20 30 20 20 30 20 20 30 20 20 30 20 20 30 20 20 30 20 20 30 20 20 30 20 20 30 20 20 30 20 20 30 20 20 30 20 20 30 0 255 255 20 20 30 20 20 30 20 20 30 20 20 30 20 20 30 20 20 30 20 20 30 20 20 30 20 20 30 20 20 30 20 20 30 20 20 30 20 20 30 20 20 30 20 20 30 20 20 30 20 20 30 20 20 30 20 20 30 20 20 30 20 20 30 20 20 30 20 20 30 20 20 30 20 20 30 
20 20 30 20 20 30 20 20 30 20 20 30 20 20 30 20 20 30 20 20 30 20 20 30 20 20 30 20 20 30 20 20 30 20 20 30 20 20 30 20 20 30 20 20 30 20 20 30 20 20 30 20 20 30 20 20 30 20 20 30 20 20 30 20 20 30 20 20 30 20 20 30 20 20 30 20 20 30 20 20 30 20 20 30 20 20 30 20 20 30 20 20 30 20 20 30 20 20 30 20 20 30 20 20 30 20 20 30 20 20 30 20 20 30 20 20 30 20 20 30 0 100 255 0 100 255 0 100 255 0 100 255 0 100 255 0 100 255 0 100 255 0 100 255 0 100 255 0 100 255 0 100 255 0 100 255 0 100 255 0 100 255 0 100 255 0 100 255 0 100 255 0 100 255 0 100 255 0 100 255 0 100 255 0 100 255 0 100 255 0 100 255 0 100 255 0 100 255 0 100 255 0 100 255 0 100 255 0 100 255 0 100 255 0 100 255 0 100 255 0 100 255 0 100 255 0 100 255 0 100 255 0 100 255 0 100 255 0 100 255 0 100 255 0 100 255 0 100 255 0 100 255 0 100 255 0 100 255 0 100 255 0 100 255 0 100 255 0 100 255 0 100 255 0 100 255 0 100 255 0 100 255 0 100 255 0 100 255 0 100 255 0 100 255 0 100 255 0 100 255 0 100 255 0 100 255 0 100 255 0 100 255 0 100 255 0 100 255 0 100 255 0 100 255 0 100 255 0 100 255 20 20 30 20 20 30 20 20 30 20 20 30 20 20 30 20 20 30 20 20 30 20 20 30 20 20 30 20 20 30 20 20 30 20 20 30 20 20 30 20 20 30 20 20 30 20 20 30 255 0 0 20 20 30 20 20 30 0 255 0 20 20 30 20 20 30 20 20 30 20 20 30 20 20 30 20 20 30 20 20 30 20 20 30 20 20 30 20 20 30 0 255 255 20 20 30 20 20 30 20 20 30 20 20 30 20 20 30 20 20 30 20 20 30 20 20 30 20 20 30 20 20 30 20 20 30 20 20 30 20 20 30 20 20 30 20 20 30 20 20 30 20 20 30 20 20 30 20 20 30 20 20 30 20 20 30 20 20 30 20 20 30 20 20 30 20 20 30 20 20 30 20 20 30 20 20 30 20 20 30 20 20 30 20 20 30 20 20 30 20 20 30 20 20 30 20 20 30 20 20 30 20 20 30 20 20 30 20 20 30 20 20 30 20 20 30 20 20 30 20 20 30 20 20 30 20 20 30 20 20 30 20 20 30 20 20 30 20 20 30 20 20 30 20 20 30 20 20 30 20 20 30 20 20 30 20 20 30 20 20 30 20 20 30 20 20 30 20 20 30 20 20 30 20 20 30 20 20 30 20 20 30 20 20 30 20 20 30 20 20 30 20 20 30 20 20 30 20 20 30 20 20 30 20 20 30 20 20 30 20 20 30 20 20 30 20 20 30 20 20 30 20 20 30 20 20 30 20 20 30 20 20 30 20 20 30 20 20 30 20 20 30 20 20 30 20 20 30 20 20 30 20 20 30 20 20 30 20 20 30 0 255 255 20 20 30 20 20 30 20 20 30 20 20 30 20 20 30 20 20 30 20 20 30 20 20 30 20 20 30 20 20 30 20 20 30 20 20 30 20 20 30 20 20 30 20 20 30 20 20 30 20 20 30 20 20 30 20 20 30 20 20 30 20 20 30 20 20 30 20 20 30 20 20 30 20 20 30 
20 20 30 20 20 30 20 20 30 20 20 30 20 20 30 20 20 30 20 20 30 20 20 30 20 20 30 20 20 30 20 20 30 20 20 30 20 20 30 20 20 30 20 20 30 20 20 30 20 20 30 20 20 30 20 20 30 20 20 30 20 20 30 20 20 30 20 20 30 20 20 30 20 20 30 20 20 30 20 20 30 20 20 30 20 20 30 20 20 30 20 20 30 20 20 30 20 20 30 20 20 30 20 20 30 20 20 30 20 20 30 20 20 30 20 20 30 20 20 30 0 100 255 0 100 255 0 100 255 0 100 255 0 100 255 0 100 255 0 100 255 0 100 255 0 100 255 0 100 255 0 100 255 0 100 255 0 100 255 0 100 255 0 100 255 0 100 255 0 100 255 0 100 255 0 100 255 0 100 255 0 100 255 0 100 255 0 100 255 0 100 255 0 100 255 0 100 255 0 100 255 0 100 255 0 100 255 0 100 255 0 100 255 0 100 255 0 100 255 0 100 255 0 100 255 0 100 255 0 100 255 0 100 255 0 100 255 0 100 255 0 100 255 0 100 255 0 100 255 0 100 255 0 100 255 0 100 255 0 100 255 0 100 255 0 100 255 0 100 255 0 100 255 0 100 255 0 100 255 0 100 255 0 100 255 0 100 255 0 100 255 0 100 255 0 100 255 0 100 255 0 100 255 0 100 255 0 100 255 0 100 255 0 100 255 0 100 255 0 100 255 0 100 255 0 100 255 0 100 255 20 20 30 20 20 30 20 20 30 20 20 30 20 20 30 20 20 30 20 20 30 20 20 30 20 20 30 20 20 30 20 20 30 20 20 30 20 20 30 20 20 30 20 20 30 20 20 30 20 20 30 255 0 0 0 255 0 20 20 30 20 20 30 20 20 30 20 20 30 20 20 30 20 20 30 20 20 30 20 20 30 20 20 30 20 20 30 20 20 30 0 255 255 20 20 30 20 20 30 20 20 30 20 20 30 20 20 30 20 20 30 20 20 30 20 20 30 20 20 30 20 20 30 20 20 30 20 20 30 20 20 30 20 20 30 20 20 30 20 20 30 20 20 30 20 20 30 20 20 30 20 20 30 20 20 30 20 20 30 20 20 30 20 20 30 20 20 30 20 20 30 20 20 30 20 20 30 20 20 30 20 20 30 20 20 30 20 20 30 20 20 30 20 20 30 20 20 30 20 20 30 20 20 30 20 20 30 20 20 30 20 20 30 20 20 30 20 20 30 20 20 30 20 20 30 20 20 30 20 20 30 20 20 30 20 20 30 20 20 30 20 20 30 20 20 30 20 20 30 20 20 30 20 20 30 20 20 30 20 20 30 20 20 30 20 20 30 20 20 30 20 20 30 20 20 30 20 20 30 20 20 30 20 20 30 20 20 30 20 20 30 20 20 30 20 20 30 20 20 30 20 20 30 20 20 30 20 20 30 20 20 30 20 20 30 20 20 30 20 20 30 20 20 30 20 20 30 20 20 30 20 20 30 20 20 30 20 20 30 20 20 30 20 20 30 20 20 30 20 20 30 20 20 30 20 20 30 20 20 30 0 255 255 20 20 30 20 20 30 20 20 30 20 20 30 20 20 30 20 20 30 20 20 30 20 20 30 20 20 30 20 20 30 20 20 30 20 20 30 20 20 30 20 20 30 20 20 30 20 20 30 20 20 30 20 20 30 20 20 30 20 20 30 20 20 30 20 20 30 20 20 30 20 20 30 20 20 30 
20 20 30 20 20 30 20 20 30 20 20 30 20 20 30 20 20 30 20 20 30 20 20 30 20 20 30 20 20 30 20 20 30 20 20 30 20 20 30 20 20 30 20 20 30 20 20 30 20 20 30 20 20 30 20 20 30 20 20 30 20 20 30 20 20 30 20 20 30 20 20 30 20 20 30 20 20 30 20 20 30 20 20 30 20 20 30 20 20 30 20 20 30 20 20 30 20 20 30 20 20 30 20 20 30 20 20 30 20 20 30 20 20 30 20 20 30 20 20 30 0 100 255 0 100 255 0 100 255 0 100 255 0 100 255 0 100 255 0 100 255 0 100 255 0 100 255 0 100 255 0 100 255 0 100 255 0 100 255 0 100 255 0 100 255 0 100 255 0 100 255 0 100 255 0 100 255 0 100 255 0 100 255 0 100 255 0 100 255 0 100 255 0 100 255 0 100 255 0 100 255 0 100 255 0 100 255 0 100 255 0 100 255 0 100 255 0 100 255 0 100 255 0 100 255 0 100 255 0 100 255 0 100 255 0 100 255 0 100 255 0 100 255 0 100 255 0 100 255 0 100 255 0 100 255 0 100 255 0 100 255 0 100 255 0 100 255 0 100 255 0 100 255 0 100 255 0 100 255 0 100 255 0 100 255 0 100 255 0 100 255 0 100 255 0 100 255 0 100 255 0 100 255 0 100 255 0 100 255 0 100 255 0 100 255 0 100 255 0 100 255 0 100 255 0 100 255 0 100 255 20 20 30 20 20 30 20 20 30 20 20 30 20 20 30 20 20 30 20 20 30 20 20 30 20 20 30 20 20 30 20 20 30 20 20 30 20 20 30 20 20 30 20 20 30 20 20 30 20 20 30 0 255 0 255 0 0 20 20 30 20 20 30 20 20 30 20 20 30 20 20 30 20 20 30 20 20 30 20 20 30 20 20 30 20 20 30 20 20 30 0 255 255 20 20 30 20 20 30 20 20 30 20 20 30 20 20 30 20 20 30 20 20 30 20 20 30 20 20 30 20 20 30 20 20 30 20 20 30 20 20 30 20 20 30 20 20 30 20 20 30 20 20 30 20 20 30 20 20 30 20 20 30 20 20 30 20 20 30 20 20 30 20 20 30 20 20 30 20 20 30 20 20 30 20 20 30 20 20 30 20 20 30 20 20 30 20 20 30 20 20 30 20 20 30 20 20 30 20 20 30 20 20 30 20 20 30 20 20 30 20 20 30 20 20 30 20 20 30 20 20 30 20 20 30 20 20 30 20 20 30 20 20 30 20 20 30 20 20 30 20 20 30 20 20 30 20 20 30 20 20 30 20 20 30 20 20 30 20 20 30 20 20 30 20 20 30 20 20 30 20 20 30 20 20 30 20 20 30 20 20 30 20 20 30 20 20 30 20 20 30 20 20 30 20 20 30 20 20 30 20 20 30 20 20 30 20 20 30 20 20 30 20 20 30 20 20 30 20 20 30 20 20 30 20 20 30 20 20 30 20 20 30 20 20 30 20 20 30 20 20 30 20 20 30 20 20 30 20 20 30 20 20 30 20 20 30 20 20 30 0 255 255 20 20 30 20 20 30 20 20 30 20 20 30 20 20 30 20 20 30 20 20 30 20 20 30 20 20 30 20 20 30 20 20 30 20 20 30 20 20 30 20 20 30 20 20 30 20 20 30 20 20 30 20 20 30 20 20 30 20 20 30 20 20 30 20 20 30 20 20 30 20 20 30 20 20 30 
20 20 30 20 20 30 20 20 30 20 20 30 20 20 30 20 20 30 20 20 30 20 20 30 20 20 30 20 20 30 20 20 30 20 20 30 20 20 30 20 20 30 20 20 30 20 20 30 20 20 30 20 20 30 20 20 30 20 20 30 20 20 30 20 20 30 20 20 30 20 20 30 20 20 30 20 20 30 20 20 30 20 20 30 20 20 30 20 20 30 20 20 30 20 20 30 20 20 30 20 20 30 20 20 30 20 20 30 20 20 30 20 20 30 20 20 30 20 20 30 0 100 255 0 100 255 0 100 255 0 100 255 0 100 255 0 100 255 0 100 255 0 100 255 0 100 255 0 100 255 0 100 255 0 100 255 0 100 255 0 100 255 0 100 255 0 100 255 0 100 255 0 100 255 0 100 255 0 100 255 0 100 255 0 100 255 0 100 255 0 100 255 0 100 255 0 100 255 0 100 255 0 100 255 0 100 255 0 100 255 0 100 255 0 100 255 0 100 255 0 100 255 0 100 255 0 100 255 0 100 255 0 100 255 0 100 255 0 100 255 0 100 255 0 100 255 0 100 255 0 100 255 0 100 255 0 100 255 0 100 255 0 100 255 0 100 255 0 100 255 0 100 255 0 100 255 0 100 255 0 100 255 0 100 255 0 100 255 0 100 255 0 100 255 0 100 255 0 100 255 0 100 255 0 100 255 0 100 255 0 100 255 0 100 255 0 100 255 0 100 255 0 100 255 0 100 255 0 100 255 20 20 30 20 20 30 20 20 30 20 20 30 20 20 30 20 20 30 20 20 30 20 20 30 20 20 30 20 20 30 20 20 30 20 20 30 20 20 30 20 20 30 20 20 30 20 20 30 0 255 0 20 20 30 20 20 30 255 0 0 20 20 30 20 20 30 20 20 30 20 20 30 20 20 30 20 20 30 20 20 30 20 20 30 20 20 30 20 20 30 0 255 255 20 20 30 20 20 30 20 20 30 20 20 30 20 20 30 20 20 30 20 20 30 20 20 30 20 20 30 20 20 30 20 20 30 20 20 30 20 20 30 20 20 30 20 20 30 20 20 30 20 20 30 20 20 30 20 20 30 20 20 30 20 20 30 20 20 30 20 20 30 20 20 30 20 20 30 20 20 30 20 20 30 20 20 30 20 20 30 20 20 30 20 20 30 20 20 30 20 20 30 20 20 30 20 20 30 20 20 30 20 20 30 20 20 30 20 20 30 20 20 30 20 20 30 20 20 30 20 20 30 20 20 30 20 20 30 20 20 30 20 20 30 20 20 30 20 20 30 20 20 30 20 20 30 20 20 30 20 20 30 20 20 30 20 20 30 20 20 30 20 20 30 20 20 30 20 20 30 20 20 30 20 20 30 20 20 30 20 20 30 20 20 30 20 20 30 20 20 30 20 20 30 20 20 30 20 20 30 20 20 30 20 20 30 20 20 30 20 20 30 20 20 30 20 20 30 20 20 30 20 20 30 20 20 30 20 20 30 20 20 30 20 20 30 20 20 30 20 20 30 20 20 30 20 20 30 20 20 30 20 20 30 20 20 30 20 20 30 0 255 255 20 20 30 20 20 30 20 20 30 20 20 30 20 20 30 20 20 30 20 20 30 20 20 30 20 20 30 20 20 30 20 20 30 20 20 30 20 20 30 20 20 30 20 20 30 20 20 30 20 20 30 20 20 30 20 20 30 20 20 30 20 20 30 20 20 30 20 20 30 20 20 30 20 20 30 
20 20 30 20 20 30 20 20 30 20 20 30 20 20 30 20 20 30 20 20 30 20 20 30 20 20 30 20 20 30 20 20 30 20 20 30 20 20 30 20 20 30 20 20 30 20 20 30 20 20 30 20 20 30 20 20 30 20 20 30 20 20 30 20 20 30 20 20 30 20 20 30 20 20 30 20 20 30 20 20 30 20 20 30 20 20 30 20 20 30 20 20 30 20 20 30 20 20 30 20 20 30 20 20 30 20 20 30 20 20 30 20 20 30 20 20 30 20 20 30 0 100 255 0 100 255 0 100 255 0 100 255 0 100 255 0 100 255 0 100 255 0 100 255 0 100 255 0 100 255 0 100 255 0 100 255 0 100 255 0 100 255 0 100 255 0 100 255 0 100 255 0 100 255 0 100 255 0 100 255 0 100 255 0 100 255 0 100 255 0 100 255 0 100 255 0 100 255 0 100 255 0 100 255 0 100 255 0 100 255 0 100 255 0 100 255 0 100 255 0 100 255 0 100 255 0 100 255 0 100 255 0 100 255 0 100 255 0 100 255 0 100 255 0 100 255 0 100 255 0 100 255 0 100 255 0 100 255 0 100 255 0 100 255 0 100 255 0 100 255 0 100 255 0 100 255 0 100 255 0 100 255 0 100 255 0 100 255 0 100 255 0 100 255 0 100 255 0 100 255 0 100 255 0 100 255 0 100 255 0 100 255 0 100 255 0 100 255 0 100 255 0 100 255 0 100 255 0 100 255 20 20 30 20 20 30 20 20 30 20 20 30 20 20 30 20 20 30 20 20 30 20 20 30 20 20 30 20 20 30 20 20 30 20 20 30 20 20 30 20 20 30 20 20 30 0 255 0 20 20 30 20 20 30 20 20 30 20 20 30 255 0 0 20 20 30 20 20 30 20 20 30 20 20 30 20 20 30 20 20 30 20 20 30 20 20 30 20 20 30 0 255 255 0 255 255 0 255 255 0 255 255 0 255 255 0 255 255 0 255 255 0 255 255 0 255 255 0 255 255 0 255 255 0 255 255 0 255 255 0 255 255 0 255 255 0 255 255 0 255 255 0 255 255 0 255 255 0 255 255 0 255 255 0 255 255 0 255 255 0 255 255 0 255 255 0 255 255 0 255 255 0 255 255 0 255 255 0 255 255 0 255 255 0 255 255 0 255 255 0 255 255 0 255 255 0 255 255 0 255 255 0 255 255 0 255 255 0 255 255 0 255 255 0 255 255 0 255 255 0 255 255 0 255 255 0 255 255 0 255 255 0 255 255 0 255 255 0 255 255 0 255 255 0 255 255 0 255 255 0 255 255 0 255 255 0 255 255 0 255 255 0 255 255 0 255 255 0 255 255 0 255 255 0 255 255 0 255 255 0 255 255 0 255 255 0 255 255 0 255 255 0 255 255 0 255 255 0 255 255 0 255 255 0 255 255 0 255 255 0 255 255 0 255 255 0 255 255 0 255 255 0 255 255 0 255 255 0 255 255 0 255 255 0 255 255 0 255 255 0 255 255 0 255 255 0 255 255 0 255 255 0 255 255 0 255 255 0 255 255 0 255 255 20 20 30 20 20 30 20 20 30 20 20 30 20 20 30 20 20 30 20 20 30 20 20 30 20 20 30 20 20 30 20 20 30 20 20 30 20 20 30 20 20 30 20 20 30 20 20 30 20 20 30 20 20 30 20 20 30 20 20 30 20 20 30 20 20 30 20 20 30 20 20 30 20 20 30 
20 20 30 20 20 30 20 20 30 20 20 30 20 20 30 20 20 30 20 20 30 20 20 30 20 20 30 20 20 30 20 20 30 20 20 30 20 20 30 20 20 30 20 20 30 20 20 30 20 20 30 20 20 30 20 20 30 20 20 30 20 20 30 20 20 30 20 20 30 20 20 30 20 20 30 20 20 30 20 20 30 20 20 30 20 20 30 20 20 30 20 20 30 20 20 30 20 20 30 20 20 30 20 20 30 20 20 30 20 20 30 20 20 30 20 20 30 20 20 30 0 100 255 0 100 255 0 100 255 0 100 255 0 100 255 0 100 255 0 100 255 0 100 255 0 100 255 0 100 255 0 100 255 0 100 255 0 100 255 0 100 255 0 100 255 0 100 255 0 100 255 0 100 255 0 100 255 0 100 255 0 100 255 0 100 255 0 100 255 0 100 255 0 100 255 0 100 255 0 100 255 0 100 255 0 100 255 0 100 255 0 100 255 0 100 255 0 100 255 0 100 255 0 100 255 0 100 255 0 100 255 0 100 255 0 100 255 0 100 255 0 100 255 0 100 255 0 100 255 0 100 255 0 100 255 0 100 255 0 100 255 0 100 255 0 100 255 0 100 255 0 100 255 0 100 255 0 100 255 0 100 255 0 100 255 0 100 255 0 100 255 0 100 255 0 100 255 0 100 255 0 100 255 0 100 255 0 100 255 0 100 255 0 100 255 0 100 255 0 100 255 0 100 255 0 100 255 0 100 255 20 20 30 20 20 30 20 20 30 20 20 30 20 20 30 20 20 30 20 20 30 20 20 30 20 20 30 20 20 30 20 20 30 20 20 30 20 20 30 20 20 30 0 255 0 20 20 30 20 20 30 20 20 30 20 20 30 20 20 30 20 20 30 255 0 0 20 20 30 20 20 30 20 20 30 20 20 30 20 20 30 20 20 30 20 20 30 20 20 30 20 20 30 20 20 30 20 20 30 20 20 30 20 20 30 20 20 30 20 20 30 20 20 30 20 20 30 20 20 30 20 20 30 20 20 30 20 20 30 20 20 30 20 20 30 20 20 30 20 20 30 20 20 30 20 20 30 20 20 30 20 20 30 20 20 30 20 20 30 20 20 30 20 20 30 20 20 30 20 20 30 20 20 30 20 20 30 20 20 30 20 20 30 20 20 30 20 20 30 20 20 30 20 20 30 20 20 30 20 20 30 20 20 30 20 20 30 20 20 30 20 20 30 20 20 30 20 20 30 20 20 30 20 20 30 20 20 30 20 20 30 20 20 30 20 20 30 20 20 30 20 20 30 20 20 30 20 20 30 20 20 30 20 20 30 20 20 30 20 20 30 20 20 30 20 20 30 20 20 30 20 20 30 20 20 30 20 20 30 20 20 30 20 20 30 20 20 30 20 20 30 20 20 30 20 20 30 20 20 30 20 20 30 20 20 30 20 20 30 20 20 30 20 20 30 20 20 30 20 20 30 20 20 30 20 20 30 20 20 30 20 20 30 20 20 30 20 20 30 20 20 30 20 20 30 20 20 30 20 20 30 20 20 30 20 20 30 20 20 30 20 20 30 20 20 30 20 20 30 20 20 30 20 20 30 20 20 30 20 20 30 20 20 30 20 20 30 20 20 30 20 20 30 20 20 30 20 20 30 20 20 30 20 20 30 20 20 30 20 20 30 20 20 30 20 20 30 20 20 30 20 20 30 20 20 30 20 20 30 20 20 30 20 20 30 20 20 30 
20 20 30 20 20 30 20 20 30 20 20 30 20 20 30 20 20 30 20 20 30 20 20 30 20 20 30 20 20 30 20 20 30 20 20 30 20 20 30 20 20 30 20 20 30 20 20 30 20 20 30 20 20 30 20 20 30 20 20 30 20 20 30 20 20 30 20 20 30 20 20 30 20 20 30 20 20 30 20 20 30 20 20 30 20 20 30 20 20 30 20 20 30 20 20 30 20 20 30 20 20 30 20 20 30 20 20 30 20 20 30 20 20 30 20 20 30 20 20 30 0 100 255 0 100 255 0 100 255 0 100 255 0 100 255 0 100 255 0 100 255 0 100 255 0 100 255 0 100 255 0 100 255 0 100 255 0 100 255 0 100 255 0 100 255 0 100 255 0 100 255 0 100 255 0 100 255 0 100 255 0 100 255 0 100 255 0 100 255 0 100 255 0 100 255 0 100 255 0 100 255 0 100 255 0 100 255 0 100 255 0 100 255 0 100 255 0 100 255 0 100 255 0 100 255 0 100 255 0 100 255 0 100 255 0 100 255 0 100 255 0 100 255 0 100 255 0 100 255 0 100 255 0 100 255 0 100 255 0 100 255 0 100 255 0 100 255 0 100 255 0 100 255 0 100 255 0 100 255 0 100 255 0 100 255 0 100 255 0 100 255 0 100 255 0 100 255 0 100 255 0 100 255 0 100 255 0 100 255 0 100 255 0 100 255 0 100 255 0 100 255 0 100 255 0 100 255 0 100 255 20 20 30 20 20 30 20 20 30 20 20 30 20 20 30 20 20 30 20 20 30 20 20 30 20 20 30 20 20 30 20 20 30 20 20 30 20 20 30 0 255 0 20 20 30 20 20 30 20 20 30 20 20 30 20 20 30 20 20 30 20 20 30 20 20 30 255 0 0 20 20 30 20 20 30 20 20 30 20 20 30 20 20 30 20 20 30 20 20 30 20 20 30 20 20 30 20 20 30 20 20 30 20 20 30 20 20 30 20 20 30 20 20 30 20 20 30 20 20 30 20 20 30 20 20 30 20 20 30 20 20 30 20 20 30 20 20 30 20 20 30 20 20 30 20 20 30 20 20 30 20 20 30 20 20 30 20 20 30 20 20 30 20 20 30 20 20 30 20 20 30 20 20 30 20 20 30 20 20 30 20 20 30 20 20 30 20 20 30 20 20 30 20 20 30 20 20 30 20 20 30 20 20 30 20 20 30 20 20 30 20 20 30 20 20 30 20 20 30 20 20 30 20 20 30 20 20 30 20 20 30 20 20 30 20 20 30 20 20 30 20 20 30 20 20 30 20 20 30 20 20 30 20 20 30 20 20 30 20 20 30 20 20 30 20 20 30 20 20 30 20 20 30 20 20 30 20 20 30 20 20 30 20 20 30 20 20 30 20 20 30 20 20 30 20 20 30 20 20 30 20 20 30 20 20 30 20 20 30 20 20 30 20 20 30 20 20 30 20 20 30 20 20 30 20 20 30 20 20 30 20 20 30 20 20 30 20 20 30 20 20 30 20 20 30 20 20 30 20 20 30 20 20 30 20 20 30 20 20 30 20 20 30 20 20 30 20 20 30 20 20 30 20 20 30 20 20 30 20 20 30 20 20 30 20 20 30 20 20 30 20 20 30 20 20 30 20 20 30 20 20 30 20 20 30 20 20 30 20 20 30 20 20 30 20 20 30 20 20 30 20 20 30 20 20 30 20 20 30 20 20 30 20 20 30 20 20 30 
20 20 30 20 20 30 20 20 30 20 20 30 20 20 30 20 20 30 20 20 30 20 20 30 20 20 30 20 20 30 20 20 30 20 20 30 20 20 30 20 20 30 20 20 30 20 20 30 20 20 30 20 20 30 20 20 30 20 20 30 20 20 30 20 20 30 20 20 30 20 20 30 20 20 30 20 20 30 20 20 30 20 20 30 20 20 30 20 20 30 20 20 30 20 20 30 20 20 30 20 20 30 20 20 30 20 20 30 20 20 30 20 20 30 20 20 30 20 20 30 0 100 255 0 100 255 0 100 255 0 100 255 0 100 255 0 100 255 0 100 255 0 100 255 0 100 255 0 100 255 0 100 255 0 100 255 0 100 255 0 100 255 0 100 255 0 100 255 0 100 255 0 100 255 0 100 255 0 100 255 0 100 255 0 100 255 0 100 255 0 100 255 0 100 255 0 100 255 0 100 255 0 100 255 0 100 255 0 100 255 0 100 255 0 100 255 0 100 255 0 100 255 0 100 255 0 100 255 0 100 255 0 100 255 0 100 255 0 100 255 0 100 255 0 100 255 0 100 255 0 100 255 0 100 255 0 100 255 0 100 255 0 100 255 0 100 255 0 100 255 0 100 255 0 100 255 0 100 255 0 100 255 0 100 255 0 100 255 0 100 255 0 100 255 0 100 255 0 100 255 0 100 255 0 100 255 0 100 255 0 100 255 0 100 255 0 100 255 0 100 255 0 100 255 0 100 255 0 100 255 20 20 30 20 20 30 20 20 30 20 20 30 20 20 30 20 20 30 20 20 30 20 20 30 20 20 30 20 20 30 20 20 30 20 20 30 0 255 0 20 20 30 20 20 30 20 20 30 20 20 30 20 20 30 20 20 30 20 20 30 20 20 30 20 20 30 20 20 30 255 0 0 20 20 30 20 20 30 20 20 30 20 20 30 20 20 30 20 20 30 20 20 30 20 20 30 20 20 30 20 20 30 20 20 30 20 20 30 20 20 30 20 20 30 20 20 30 20 20 30 20 20 30 20 20 30 20 20 30 20 20 30 20 20 30 20 20 30 20 20 30 20 20 30 20 20 30 20 20 30 20 20 30 20 20 30 20 20 30 20 20 30 20 20 30 20 20 30 20 20 30 20 20 30 20 20 30 20 20 30 20 20 30 20 20 30 20 20 30 20 20 30 20 20 30 20 20 30 20 20 30 20 20 30 20 20 30 20 20 30 20 20 30 20 20 30 20 20 30 20 20 30 20 20 30 20 20 30 20 20 30 20 20 30 20 20 30 20 20 30 20 20 30 20 20 30 20 20 30 20 20 30 20 20 30 20 20 30 20 20 30 20 20 30 20 20 30 20 20 30 20 20 30 20 20 30 20 20 30 20 20 30 20 20 30 20 20 30 20 20 30 20 20 30 20 20 30 20 20 30 20 20 30 20 20 30 20 20 30 20 20 30 20 20 30 20 20 30 20 20 30 20 20 30 20 20 30 20 20 30 20 20 30 20 20 30 20 20 30 20 20 30 20 20 30 20 20 30 20 20 30 20 20 30 20 20 30 20 20 30 20 20 30 20 20 30 20 20 30 20 20 30 20 20 30 20 20 30 20 20 30 20 20 30 20 20 30 20 20 30 20 20 30 20 20 30 20 20 30 20 20 30 20 20 30 20 20 30 20 20 30 20 20 30 20 20 30 20 20 30 20 20 30 20 20 30 20 20 30 20 20 30 20 20 30 20 20 30 
20 20 30 20 20 30 20 20 30 20 20 30 20 20 30 20 20 30 20 20 30 20 20 30 20 20 30 20 20 30 20 20 30 20 20 30 20 20 30 20 20 30 20 20 30 20 20 30 20 20 30 20 20 30 20 20 30 20 20 30 20 20 30 20 20 30 20 20 30 20 20 30 20 20 30 20 20 30 20 20 30 20 20 30 20 20 30 20 20 30 20 20 30 20 20 30 20 20 30 20 20 30 20 20 30 20 20 30 20 20 30 20 20 30 20 20 30 20 20 30 0 100 255 0 100 255 0 100 255 0 100 255 0 100 255 0 100 255 0 100 255 0 100 255 0 100 255 0 100 255 0 100 255 0 100 255 0 100 255 0 100 255 0 100 255 0 100 255 0 100 255 0 100 255 0 100 255 0 100 255 0 100 255 0 100 255 0 100 255 0 100 255 0 100 255 0 100 255 0 100 255 0 100 255 0 100 255 0 100 255 0 100 255 0 100 255 0 100 255 0 100 255 0 100 255 0 100 255 0 100 255 0 100 255 0 100 255 0 100 255 0 100 255 0 100 255 0 100 255 0 100 255 0 100 255 0 100 255 0 100 255 0 100 255 0 100 255 0 100 255 0 100 255 0 100 255 0 100 255 0 100 255 0 100 255 0 100 255 0 100 255 0 100 255 0 100 255 0 100 255 0 100 255 0 100 255 0 100 255 0 100 255 0 100 255 0 100 255 0 100 255 0 100 255 0 100 255 0 100 255 20 20 30 20 20 30 20 20 30 20 20 30 20 20 30 20 20 30 20 20 30 20 20 30 20 20 30 20 20 30 20 20 30 0 255 0 20 20 30 20 20 30 20 20 30 20 20 30 20 20 30 20 20 30 20 20 30 20 20 30 20 20 30 20 20 30 20 20 30 20 20 30 255 0 0 20 20 30 20 20 30 20 20 30 20 20 30 20 20 30 20 20 30 20 20 30 20 20 30 20 20 30 20 20 30 20 20 30 20 20 30 20 20 30 20 20 30 20 20 30 20 20 30 20 20 30 20 20 30 20 20 30 20 20 30 20 20 30 20 20 30 20 20 30 20 20 30 20 20 30 20 20 30 20 20 30 20 20 30 20 20 30 20 20 30 20 20 30 20 20 30 20 20 30 20 20 30 20 20 30 20 20 30 20 20 30 20 20 30 20 20 30 20 20 30 20 20 30 20 20 30 20 20 30 20 20 30 20 20 30 20 20 30 20 20 30 20 20 30 20 20 30 20 20 30 20 20 30 20 20 30 20 20 30 20 20 30 20 20 30 20 20 30 20 20 30 20 20 30 20 20 30 20 20 30 20 20 30 20 20 30 20 20 30 20 20 30 20 20 30 20 20 30 20 20 30 20 20 30 20 20 30 20 20 30 20 20 30 20 20 30 20 20 30 20 20 30 20 20 30 20 20 30 20 20 30 20 20 30 20 20 30 20 20 30 20 20 30 20 20 30 20 20 30 20 20 30 20 20 30 20 20 30 20 20 30 20 20 30 20 20 30 20 20 30 20 20 30 20 20 30 20 20 30 20 20 30 20 20 30 20 20 30 20 20 30 20 20 30 20 20 30 20 20 30 20 20 30 20 20 30 20 20 30 20 20 30 20 20 30 20 20 30 20 20 30 20 20 30 20 20 30 20 20 30 20 20 30 20 20 30 20 20 30 20 20 30 20 20 30 20 20 30 20 20 30 20 20 30 20 20 30 20 20 30 20 20 30 
20 20 30 20 20 30 20 20 30 20 20 30 20 20 30 20 20 30 20 20 30 20 20 30 20 20 30 20 20 30 20 20 30 20 20 30 20 20 30 20 20 30 20 20 30 20 20 30 20 20 30 20 20 30 20 20 30 20 20 30 20 20 30 20 20 30 20 20 30 20 20 30 20 20 30 20 20 30 20 20 30 20 20 30 20 20 30 20 20 30 20 20 30 20 20 30 20 20 30 20 20 30 20 20 30 20 20 30 20 20 30 20 20 30 20 20 30 20 20 30 0 100 255 0 100 255 0 100 255 0 100 255 0 100 255 0 100 255 0 100 255 0 100 255 0 100 255 0 100 255 0 100 255 0 100 255 0 100 255 0 100 255 0 100 255 0 100 255 0 100 255 0 100 255 0 100 255 0 100 255 0 100 255 0 100 255 0 100 255 0 100 255 0 100 255 0 100 255 0 100 255 0 100 255 0 100 255 0 100 255 0 100 255 0 100 255 0 100 255 0 100 255 0 100 255 0 100 255 0 100 255 0 100 255 0 100 255 0 100 255 0 100 255 0 100 255 0 100 255 0 100 255 0 100 255 0 100 255 0 100 255 0 100 255 0 100 255 0 100 255 0 100 255 0 100 255 0 100 255 0 100 255 0 100 255 0 100 255 0 100 255 0 100 255 0 100 255 0 100 255 0 100 255 0 100 255 0 100 255 0 100 255 0 100 255 0 100 255 0 100 255 0 100 255 0 100 255 0 100 255 20 20 30 20 20 30 20 20 30 20 20 30 20 20 30 20 20 30 20 20 30 20 20 30 20 20 30 20 20 30 0 255 0 20 20 30 20 20 30 20 20 30 20 20 30 20 20 30 20 20 30 20 20 30 20 20 30 20 20 30 20 20 30 20 20 30 20 20 30 20 20 30 20 20 30 255 0 0 20 20 30 20 20 30 20 20 30 20 20 30 20 20 30 20 20 30 20 20 30 20 20 30 20 20 30 20 20 30 20 20 30 20 20 30 20 20 30 20 20 30 20 20 30 20 20 30 20 20 30 20 20 30 20 20 30 20 20 30 20 20 30 20 20 30 20 20 30 20 20 30 20 20 30 20 20 30 20 20 30 20 20 30 20 20 30 20 20 30 20 20 30 20 20 30 20 20 30 20 20 30 20 20 30 20 20 30 20 20 30 20 20 30 20 20 30 20 20 30 20 20 30 20 20 30 20 20 30 20 20 30 20 20 30 20 20 30 20 20 30 20 20 30 20 20 30 20 20 30 20 20 30 20 20 30 20 20 30 20 20 30 20 20 30 20 20 30 20 20 30 20 20 30 20 20 30 20 20 30 20 20 30 20 20 30 20 20 30 20 20 30 20 20 30 20 20 30 20 20 30 20 20 30 20 20 30 20 20 30 20 20 30 20 20 30 20 20 30 20 20 30 20 20 30 20 20 30 20 20 30 20 20 30 20 20 30 20 20 30 20 20 30 20 20 30 20 20 30 20 20 30 20 20 30 20 20 30 20 20 30 20 20 30 20 20 30 20 20 30 20 20 30 20 20 30 20 20 30 20 20 30 20 20 30 20 20 30 20 20 30 20 20 30 20 20 30 20 20 30 20 20 30 20 20 30 20 20 30 20 20 30 20 20 30 20 20 30 20 20 30 20 20 30 20 20 30 20 20 30 20 20 30 20 20 30 20 20 30 20 20 30 20 20 30 20 20 30 20 20 30 20 20 30 20 20 30 20 20 30 
20 20 30 20 20 30 20 20 30 20 20 30 20 20 30 20 20 30 20 20 30 20 20 30 20 20 30 20 20 30 20 20 30 20 20 30 20 20 30 20 20 30 20 20 30 20 20 30 20 20 30 20 20 30 20 20 30 20 20 30 20 20 30 20 20 30 20 20 30 20 20 30 20 20 30 20 20 30 20 20 30 20 20 30 20 20 30 20 20 30 20 20 30 20 20 30 20 20 30 20 20 30 20 20 30 20 20 30 20 20 30 20 20 30 20 20 30 20 20 30 0 100 255 0 100 255 0 100 255 0 100 255 0 100 255 0 100 255 0 100 255 0 100 255 0 100 255 0 100 255 0 100 255 0 100 255 0 100 255 0 100 255 0 100 255 0 100 255 0 100 255 0 100 255 0 100 255 0 100 255 0 100 255 0 100 255 0 100 255 0 100 255 0 100 255 0 100 255 0 100 255 0 100 255 0 100 255 0 100 255 0 100 255 0 100 255 0 100 255 0 100 255 0 100 255 0 100 255 0 100 255 0 100 255 0 100 255 0 100 255 0 100 255 0 100 255 0 100 255 0 100 255 0 100 255 0 100 255 0 100 255 0 100 255 0 100 255 0 100 255 0 100 255 0 100 255 0 100 255 0 100 255 0 100 255 0 100 255 0 100 255 0 100 255 0 100 255 0 100 255 0 100 255 0 100 255 0 100 255 0 100 255 0 100 255 0 100 255 0 100 255 0 100 255 0 100 255 0 100 255 20 20 30 20 20 30 20 20 30 20 20 30 20 20 30 20 20 30 20 20 30 20 20 30 20 20 30 0 255 0 20 20 30 20 20 30 20 20 30 20 20 30 20 20 30 20 20 30 20 20 30 20 20 30 20 20 30 20 20 30 20 20 30 20 20 30 20 20 30 20 20 30 20 20 30 20 20 30 255 0 0 20 20 30 20 20 30 20 20 30 20 20 30 20 20 30 20 20 30 20 20 30 20 20 30 20 20 30 20 20 30 20 20 30 20 20 30 20 20 30 20 20 30 20 20 30 20 20 30 20 20 30 20 20 30 20 20 30 20 20 30 20 20 30 20 20 30 20 20 30 20 20 30 20 20 30 20 20 30 20 20 30 20 20 30 20 20 30 20 20 30 20 20 30 20 20 30 20 20 30 20 20 30 20 20 30 20 20 30 20 20 30 20 20 30 20 20 30 20 20 30 20 20 30 20 20 30 20 20 30 20 20 30 20 20 30 20 20 30 20 20 30 20 20 30 20 20 30 20 20 30 20 20 30 20 20 30 20 20 30 20 20 30 20 20 30 20 20 30 20 20 30 20 20 30 20 20 30 20 20 30 20 20 30 20 20 30 20 20 30 20 20 30 20 20 30 20 20 30 20 20 30 20 20 30 20 20 30 20 20 30 20 20 30 20 20 30 20 20 30 20 20 30 20 20 30 20 20 30 20 20 30 20 20 30 20 20 30 20 20 30 20 20 30 20 20 30 20 20 30 20 20 30 20 20 30 20 20 30 20 20 30 20 20 30 20 20 30 20 20 30 20 20 30 20 20 30 20 20 30 20 20 30 20 20 30 20 20 30 20 20 30 20 20 30 20 20 30 20 20 30 20 20 30 20 20 30 20 20 30 20 20 30 20 20 30 20 20 30 20 20 30 20 20 30 20 20 30 20 20 30 20 20 30 20 20 30 20 20 30 20 20 30 20 20 30 20 20 30 20 20 30 20 20 30 20 20 30 
20 20 30 20 20 30 20 20 30 20 20 30 20 20 30 20 20 30 20 20 30 20 20 30 20 20 30 20 20 30 20 20 30 20 20 30 20 20 30 20 20 30 20 20 30 20 20 30 20 20 30 20 20 30 20 20 30 20 20 30 20 20 30 20 20 30 20 20 30 20 20 30 20 20 30 20 20 30 20 20 30 20 20 30 20 20 30 20 20 30 20 20 30 20 20 30 20 20 30 20 20 30 20 20 30 20 20 30 20 20 30 20 20 30 20 20 30 20 20 30 0 100 255 0 100 255 0 100 255 0 100 255 0 100 255 0 100 255 0 100 255 0 100 255 0 100 255 0 100 255 0 100 255 0 100 255 0 100 255 0 100 255 0 100 255 0 100 255 0 100 255 0 100 255 0 100 255 0 100 255 0 100 255 0 100 255 0 100 255 0 100 255 0 100 255 0 100 255 0 100 255 0 100 255 0 100 255 0 100 255 0 100 255 0 100 255 0 100 255 0 100 255 0 100 255 0 100 255 0 100 255 0 100 255 0 100 255 0 100 255 0 100 255 0 100 255 0 100 255 0 100 255 0 100 255 0 100 255 0 100 255 0 100 255 0 100 255 0 100 255 0 100 255 0 100 255 0 100 255 0 100 255 0 100 255 0 100 255 0 100 255 0 100 255 0 100 255 0 100 255 0 100 255 0 100 255 0 100 255 0 100 255 0 100 255 0 100 255 0 100 255 0 100 255 0 100 255 0 100 255 20 20 30 20 20 30 20 20 30 20 20 30 20 20 30 20 20 30 20 20 30 20 20 30 0 255 0 20 20 30 20 20 30 20 20 30 20 20 30 20 20 30 20 20 30 20 20 30 20 20 30 20 20 30 20 20 30 20 20 30 20 20 30 20 20 30 20 20 30 20 20 30 20 20 30 20 20 30 20 20 30 255 0 0 20 20 30 20 20 30 20 20 30 20 20 30 20 20 30 20 20 30 20 20 30 20 20 30 20 20 30 20 20 30 20 20 30 20 20 30 20 20 30 20 20 30 20 20 30 20 20 30 20 20 30 20 20 30 20 20 30 20 20 30 20 20 30 20 20 30 20 20 30 20 20 30 20 20 30 20 20 30 20 20 30 20 20 30 20 20 30 20 20 30 20 20 30 20 20 30 20 20 30 20 20 30 20 20 30 20 20 30 20 20 30 20 20 30 20 20 30 20 20 30 20 20 30 20 20 30 20 20 30 20 20 30 20 20 30 20 20 30 20 20 30 20 20 30 20 20 30 20 20 30 20 20 30 20 20 30 20 20 30 20 20 30 20 20 30 20 20 30 20 20 30 20 20 30 20 20 30 20 20 30 20 20 30 20 20 30 20 20 30 20 20 30 20 20 30 20 20 30 20 20 30 20 20 30 20 20 30 20 20 30 20 20 30 20 20 30 20 20 30 20 20 30 20 20 30 20 20 30 20 20 30 20 20 30 20 20 30 20 20 30 20 20 30 20 20 30 20 20 30 20 20 30 20 20 30 20 20 30 20 20 30 20 20 30 20 20 30 20 20 30 20 20 30 20 20 30 20 20 30 20 20 30 20 20 30 20 20 30 20 20 30 20 20 30 20 20 30 20 20 30 20 20 30 20 20 30 20 20 30 20 20 30 20 20 30 20 20 30 20 20 30 20 20 30 20 20 30 20 20 30 20 20 30 20 20 30 20 20 30 20 20 30 20 20 30 20 20 30 20 20 30 20 20 30 
20 20 30 20 20 30 20 20 30 20 20 30 20 20 30 20 20 30 20 20 30 20 20 30 20 20 30 20 20 30 20 20 30 20 20 30 20 20 30 20 20 30 20 20 30 20 20 30 20 20 30 20 20 30 20 20 30 20 20 30 20 20 30 20 20 30 20 20 30 20 20 30 20 20 30 20 20 30 20 20 30 20 20 30 20 20 30 20 20 30 20 20 30 20 20 30 20 20 30 20 20 30 20 20 30 20 20 30 20 20 30 20 20 30 20 20 30 20 20 30 0 100 255 0 100 255 0 100 255 0 100 255 0 100 255 0 100 255 0 100 255 0 100 255 0 100 255 0 100 255 0 100 255 0 100 255 0 100 255 0 100 255 0 100 255 0 100 255 0 100 255 0 100 255 0 100 255 0 100 255 0 100 255 0 100 255 0 100 255 0 100 255 0 100 255 0 100 255 0 100 255 0 100 255 0 100 255 0 100 255 0 100 255 0 100 255 0 100 255 0 100 255 0 100 255 0 100 255 0 100 255 0 100 255 0 100 255 0 100 255 0 100 255 0 100 255 0 100 255 0 100 255 0 100 255 0 100 255 0 100 255 0 100 255 0 100 255 0 100 255 0 100 255 0 100 255 0 100 255 0 100 255 0 100 255 0 100 255 0 100 255 0 100 255 0 100 255 0 100 255 0 100 255 0 100 255 0 100 255 0 100 255 0 100 255 0 100 255 0 100 255 0 100 255 0 100 255 0 100 255 20 20 30 20 20 30 20 20 30 20 20 30 20 20 30 20 20 30 20 20 30 0 255 0 20 20 30 20 20 30 20 20 30 20 20 30 20 20 30 20 20 30 20 20 30 20 20 30 20 20 30 20 20 30 20 20 30 20 20 30 20 20 30 20 20 30 20 20 30 20 20 30 20 20 30 20 20 30 20 20 30 20 20 30 255 0 0 20 20 30 20 20 30 20 20 30 20 20 30 20 20 30 20 20 30 20 20 30 20 20 30 20 20 30 20 20 30 20 20 30 20 20 30 20 20 30 20 20 30 20 20 30 20 20 30 20 20 30 20 20 30 20 20 30 20 20 30 20 20 30 20 20 30 20 20 30 20 20 30 20 20 30 20 20 30 20 20 30 20 20 30 20 20 30 20 20 30 20 20 30 20 20 30 20 20 30 20 20 30 20 20 30 20 20 30 20 20 30 20 20 30 20 20 30 20 20 30 20 20 30 20 20 30 20 20 30 20 20 30 20 20 30 20 20 30 20 20 30 20 20 30 20 20 30 20 20 30 20 20 30 20 20 30 20 20 30 20 20 30 20 20 30 20 20 30 20 20 30 20 20 30 20 20 30 20 20 30 20 20 30 20 20 30 20 20 30 20 20 30 20 20 30 20 20 30 20 20 30 20 20 30 20 20 30 20 20 30 20 20 30 20 20 30 20 20 30 20 20 30 20 20 30 20 20 30 20 20 30 20 20 30 20 20 30 20 20 30 20 20 30 20 20 30 20 20 30 20 20 30 20 20 30 20 20 30 20 20 30 20 20 30 20 20 30 20 20 30 20 20 30 20 20 30 20 20 30 20 20 30 20 20 30 20 20 30 20 20 30 20 20 30 20 20 30 20 20 30 20 20 30 20 20 30 20 20 30 20 20 30 20 20 30 20 20 30 20 20 30 20 20 30 20 20 30 20 20 30 20 20 30 20 20 30 20 20 30 20 20 30 20 20 30 20 20 30 20 20 30 
20 20 30 20 20 30 20 20 30 20 20 30 20 20 30 20 20 30 20 20 30 20 20 30 20 20 30 20 20 30 20 20 30 20 20 30 20 20 30 20 20 30 20 20 30 20 20 30 20 20 30 20 20 30 20 20 30 20 20 30 20 20 30 20 20 30 20 20 30 20 20 30 20 20 30 20 20 30 20 20 30 20 20 30 20 20 30 20 20 30 20 20 30 20 20 30 20 20 30 20 20 30 20 20 30 20 20 30 20 20 30 20 20 30 20 20 30 20 20 30 0 100 255 0 100 255 0 100 255 0 100 255 0 100 255 0 100 255 0 100 255 0 100 255 0 100 255 0 100 255 0 100 255 0 100 255 0 100 255 0 100 255 0 100 255 0 100 255 0 100 255 0 100 255 0 100 255 0 100 255 0 100 255 0 100 255 0 100 255 0 100 255 0 100 255 0 100 255 0 100 255 0 100 255 0 100 255 0 100 255 0 100 255 0 100 255 0 100 255 0 100 255 0 100 255 0 100 255 0 100 255 0 100 255 0 100 255 0 100 255 0 100 255 0 100 255 0 100 255 0 100 255 0 100 255 0 100 255 0 100 255 0 100 255 0 100 255 0 100 255 0 100 255 0 100 255 0 100 255 0 100 255 0 100 255 0 100 255 0 100 255 0 100 255 0 100 255 0 100 255 0 100 255 0 100 255 0 100 255 0 100 255 0 100 255 0 100 255 0 100 255 0 100 255 0 100 255 0 100 255 20 20 30 20 20 30 20 20 30 20 20 30 20 20 30 20 20 30 0 255 0 20 20 30 20 20 30 20 20 30 20 20 30 20 20 30 20 20 30 20 20 30 20 20 30 20 20 30 20 20 30 20 20 30 20 20 30 20 20 30 20 20 30 20 20 30 20 20 30 20 20 30 20 20 30 20 20 30 20 20 30 20 20 30 20 20 30 255 0 0 20 20 30 20 20 30 20 20 30 20 20 30 20 20 30 20 20 30 20 20 30 20 20 30 20 20 30 20 20 30 20 20 30 20 20 30 20 20 30 20 20 30 20 20 30 20 20 30 20 20 30 20 20 30 20 20 30 20 20 30 20 20 30 20 20 30 20 20 30 20 20 30 20 20 30 20 20 30 20 20 30 20 20 30 20 20 30 20 20 30 20 20 30 20 20 30 20 20 30 20 20 30 20 20 30 20 20 30 20 20 30 20 20 30 20 20 30 20 20 30 20 20 30 20 20 30 20 20 30 20 20 30 20 20 30 20 20 30 20 20 30 20 20 30 20 20 30 20 20 30 20 20 30 20 20 30 20 20 30 20 20 30 20 20 30 20 20 30 20 20 30 20 20 30 20 20 30 20 20 30 20 20 30 20 20 30 20 20 30 20 20 30 20 20 30 20 20 30 20 20 30 20 20 30 20 20 30 20 20 30 20 20 30 20 20 30 20 20 30 20 20 30 20 20 30 20 20 30 20 20 30 20 20 30 20 20 30 20 20 30 20 20 30 20 20 30 20 20 30 20 20 30 20 20 30 20 20 30 20 20 30 20 20 30 20 20 30 20 20 30 20 20 30 20 20 30 20 20 30 20 20 30 20 20 30 20 20 30 20 20 30 20 20 30 20 20 30 20 20 30 20 20 30 20 20 30 20 20 30 20 20 30 20 20 30 20 20 30 20 20 30 20 20 30 20 20 30 20 20 30 20 20 30 20 20 30 20 20 30 20 20 30 20 20 30 20 20 30 
20 20 30 20 20 30 20 20 30 20 20 30 20 20 30 20 20 30 20 20 30 20 20 30 20 20 30 20 20 30 20 20 30 20 20 30 20 20 30 20 20 30 20 20 30 20 20 30 20 20 30 20 20 30 20 20 30 20 20 30 20 20 30 20 20 30 20 20 30 20 20 30 20 20 30 20 20 30 20 20 30 20 20 30 20 20 30 20 20 30 20 20 30 20 20 30 20 20 30 20 20 30 20 20 30 20 20 30 20 20 30 20 20 30 20 20 30 20 20 30 0 100 255 0 100 255 0 100 255 0 100 255 0 100 255 0 100 255 0 100 255 0 100 255 0 100 255 0 100 255 0 100 255 0 100 255 0 100 255 0 100 255 0 100 255 0 100 255 0 100 255 0 100 255 0 100 255 0 100 255 0 100 255 0 100 255 0 100 255 0 100 255 0 100 255 0 100 255 0 100 255 0 100 255 0 100 255 0 100 255 0 100 255 0 100 255 0 100 255 0 100 255 0 100 255 0 100 255 0 100 255 0 100 255 0 100 255 0 100 255 0 100 255 0 100 255 0 100 255 0 100 255 0 100 255 0 100 255 0 100 255 0 100 255 0 100 255 0 100 255 0 100 255 0 100 255 0 100 255 0 100 255 0 100 255 0 100 255 0 100 255 0 100 255 0 100 255 0 100 255 0 100 255 0 100 255 0 100 255 0 100 255 0 100 255 0 100 255 0 100 255 0 100 255 0 100 255 0 100 255 20 20 30 20 20 30 20 20 30 20 20 30 20 20 30 0 255 0 20 20 30 20 20 30 20 20 30 20 20 30 20 20 30 20 20 30 20 20 30 20 20 30 20 20 30 20 20 30 20 20 30 20 20 30 20 20 30 20 20 30 20 20 30 20 20 30 20 20 30 20 20 30 20 20 30 20 20 30 20 20 30 20 20 30 20 20 30 20 20 30 255 0 0 20 20 30 20 20 30 20 20 30 20 20 30 20 20 30 20 20 30 20 20 30 20 20 30 20 20 30 20 20 30 20 20 30 20 20 30 20 20 30 20 20 30 20 20 30 20 20 30 20 20 30 20 20 30 20 20 30 20 20 30 20 20 30 20 20 30 20 20 30 20 20 30 20 20 30 20 20 30 20 20 30 20 20 30 20 20 30 20 20 30 20 20 30 20 20 30 20 20 30 20 20 30 20 20 30 20 20 30 20 20 30 20 20 30 20 20 30 20 20 30 20 20 30 20 20 30 20 20 30 20 20 30 20 20 30 20 20 30 20 20 30 20 20 30 20 20 30 20 20 30 20 20 30 20 20 30 20 20 30 20 20 30 20 20 30 20 20 30 20 20 30 20 20 30 20 20 30 20 20 30 20 20 30 20 20 30 20 20 30 20 20 30 20 20 30 20 20 30 20 20 30 20 20 30 20 20 30 20 20 30 20 20 30 20 20 30 20 20 30 20 20 30 20 20 30 20 20 30 20 20 30 20 20 30 20 20 30 20 20 30 20 20 30 20 20 30 20 20 30 20 20 30 20 20 30 20 20 30 20 20 30 20 20 30 20 20 30 20 20 30 20 20 30 20 20 30 20 20 30 20 20 30 20 20 30 20 20 30 20 20 30 20 20 30 20 20 30 20 20 30 20 20 30 20 20 30 20 20 30 20 20 30 20 20 30 20 20 30 20 20 30 20 20 30 20 20 30 20 20 30 20 20 30 20 20 30 20 20 30 20 20 30 20 20 30 
20 20 30 20 20 30 20 20 30 20 20 30 20 20 30 20 20 30 20 20 30 20 20 30 20 20 30 20 20 30 20 20 30 20 20 30 20 20 30 20 20 30 20 20 30 20 20 30 20 20 30 20 20 30 20 20 30 20 20 30 20 20 30 20 20 30 20 20 30 20 20 30 20 20 30 20 20 30 20 20 30 20 20 30 20 20 30 20 20 30 20 20 30 20 20 30 20 20 30 20 20 30 20 20 30 20 20 30 20 20 30 20 20 30 20 20 30 20 20 30 0 100 255 0 100 255 0 100 255 0 100 255 0 100 255 0 100 255 0 100 255 0 100 255 0 100 255 0 100 255 0 100 255 0 100 255 0 100 255 0 100 255 0 100 255 0 100 255 0 100 255 0 100 255 0 100 255 0 100 255 0 100 255 0 100 255 0 100 255 0 100 255 0 100 255 0 100 255 0 100 255 0 100 255 0 100 255 0 100 255 0 100 255 0 100 255 0 100 255 0 100 255 0 100 255 0 100 255 0 100 255 0 100 255 0 100 255 0 100 255 0 100 255 0 100 255 0 100 255 0 100 255 0 100 255 0 100 255 0 100 255 0 100 255 0 100 255 0 100 255 0 100 255 0 100 255 0 100 255 0 100 255 0 100 255 0 100 255 0 100 255 0 100 255 0 100 255 0 100 255 0 100 255 0 100 255 0 100 255 0 100 255 0 100 255 0 100 255 0 100 255 0 100 255 0 100 255 0 100 255 20 20 30 20 20 30 20 20 30 20 20 30 0 255 0 20 20 30 20 20 30 20 20 30 20 20 30 20 20 30 20 20 30 20 20 30 20 20 30 20 20 30 20 20 30 20 20 30 20 20 30 20 20 30 20 20 30 20 20 30 20 20 30 20 20 30 20 20 30 20 20 30 20 20 30 20 20 30 20 20 30 20 20 30 20 20 30 20 20 30 20 20 30 255 0 0 20 20 30 20 20 30 20 20 30 20 20 30 20 20 30 20 20 30 20 20 30 20 20 30 20 20 30 20 20 30 20 20 30 20 20 30 20 20 30 20 20 30 20 20 30 20 20 30 20 20 30 20 20 30 20 20 30 20 20 30 20 20 30 20 20 30 20 20 30 20 20 30 20 20 30 20 20 30 20 20 30 20 20 30 20 20 30 20 20 30 20 20 30 20 20 30 20 20 30 20 20 30 20 20 30 20 20 30 20 20 30 20 20 30 20 20 30 20 20 30 20 20 30 20 20 30 20 20 30 20 20 30 20 20 30 20 20 30 20 20 30 20 20 30 20 20 30 20 20 30 20 20 30 20 20 30 20 20 30 20 20 30 20 20 30 20 20 30 20 20 30 20 20 30 20 20 30 20 20 30 20 20 30 20 20 30 20 20 30 20 20 30 20 20 30 20 20 30 20 20 30 20 20 30 20 20 30 20 20 30 20 20 30 20 20 30 20 20 30 20 20 30 20 20 30 20 20 30 20 20 30 20 20 30 20 20 30 20 20 30 20 20 30 20 20 30 20 20 30 20 20 30 20 20 30 20 20 30 20 20 30 20 20 30 20 20 30 20 20 30 20 20 30 20 20 30 20 20 30 20 20 30 20 20 30 20 20 30 20 20 30 20 20 30 20 20 30 20 20 30 20 20 30 20 20 30 20 20 30 20 20 30 20 20 30 20 20 30 20 20 30 20 20 30 20 20 30 20 20 30 20 20 30 20 20 30 20 20 30 20 20 30 
20 20 30 20 20 30 20 20 30 20 20 30 20 20 30 20 20 30 20 20 30 20 20 30 20 20 30 20 20 30 20 20 30 20 20 30 20 20 30 20 20 30 20 20 30 20 20 30 20 20 30 20 20 30 20 20 30 20 20 30 20 20 30 20 20 30 20 20 30 20 20 30 20 20 30 20 20 30 20 20 30 20 20 30 20 20 30 20 20 30 20 20 30 20 20 30 20 20 30 20 20 30 20 20 30 20 20 30 20 20 30 20 20 30 20 20 30 20 20 30 0 100 255 0 100 255 0 100 255 0 100 255 0 100 255 0 100 255 0 100 255 0 100 255 0 100 255 0 100 255 0 100 255 0 100 255 0 100 255 0 100 255 0 100 255 0 100 255 0 100 255 0 100 255 0 100 255 0 100 255 0 100 255 0 100 255 0 100 255 0 100 255 0 100 255 0 100 255 0 100 255 0 100 255 0 100 255 0 100 255 0 100 255 0 100 255 0 100 255 0 100 255 0 100 255 0 100 255 0 100 255 0 100 255 0 100 255 0 100 255 0 100 255 0 100 255 0 100 255 0 100 255 0 100 255 0 100 255 0 100 255 0 100 255 0 100 255 0 100 255 0 100 255 0 100 255 0 100 255 0 100 255 0 100 255 0 100 255 0 100 255 0 100 255 0 100 255 0 100 255 0 100 255 0 100 255 0 100 255 0 100 255 0 100 255 0 100 255 0 100 255 0 100 255 0 100 255 0 100 255 20 20 30 20 20 30 20 20 30 0 255 0 20 20 30 20 20 30 20 20 30 20 20 30 20 20 30 20 20 30 20 20 30 20 20 30 20 20 30 20 20 30 20 20 30 20 20 30 20 20 30 20 20 30 20 20 30 20 20 30 20 20 30 20 20 30 20 20 30 20 20 30 20 20 30 20 20 30 20 20 30 20 20 30 20 20 30 20 20 30 20 20 30 20 20 30 255 0 0 20 20 30 20 20 30 20 20 30 20 20 30 20 20 30 20 20 30 20 20 30 20 20 30 20 20 30 20 20 30 20 20 30 20 20 30 20 20 30 20 20 30 20 20 30 20 20 30 20 20 30 20 20 30 20 20 30 20 20 30 20 20 30 20 20 30 20 20 30 20 20 30 20 20 30 20 20 30 20 20 30 20 20 30 20 20 30 20 20 30 20 20 30 20 20 30 20 20 30 20 20 30 20 20 30 20 20 30 20 20 30 20 20 30 20 20 30 20 20 30 20 20 30 20 20 30 20 20 30 20 20 30 20 20 30 20 20 30 20 20 30 20 20 30 20 20 30 20 20 30 20 20 30 20 20 30 20 20 30 20 20 30 20 20 30 20 20 30 20 20 30 20 20 30 20 20 30 20 20 30 20 20 30 20 20 30 20 20 30 20 20 30 20 20 30 20 20 30 20 20 30 20 20 30 20 20 30 20 20 30 20 20 30 20 20 30 20 20 30 20 20 30 20 20 30 20 20 30 20 20 30 20 20 30 20 20 30 20 20 30 20 20 30 20 20 30 20 20 30 20 20 30 20 20 30 20 20 30 20 20 30 20 20 30 20 20 30 20 20 30 20 20 30 20 20 30 20 20 30 20 20 30 20 20 30 20 20 30 20 20 30 20 20 30 20 20 30 20 20 30 20 20 30 20 20 30 20 20 30 20 20 30 20 20 30 20 20 30 20 20 30 20 20 30 20 20 30 20 20 30 20 20 30 20 20 30 20 20 30 
20 20 30 20 20 30 20 20 30 20 20 30 20 20 30 20 20 30 20 20 30 20 20 30 20 20 30 20 20 30 20 20 30 20 20 30 20 20 30 20 20 30 20 20 30 20 20 30 20 20 30 20 20 30 20 20 30 20 20 30 20 20 30 20 20 30 20 20 30 20 20 30 20 20 30 20 20 30 20 20 30 20 20 30 20 20 30 20 20 30 20 20 30 20 20 30 20 20 30 20 20 30 20 20 30 20 20 30 20 20 30 20 20 30 20 20 30 20 20 30 0 100 255 0 100 255 0 100 255 0 100 255 0 100 255 0 100 255 0 100 255 0 100 255 0 100 255 0 100 255 0 100 255 0 100 255 0 100 255 0 100 255 0 100 255 0 100 255 0 100 255 0 100 255 0 100 255 0 100 255 0 100 255 0 100 255 0 100 255 0 100 255 0 100 255 0 100 255 0 100 255 0 100 255 0 100 255 0 100 255 0 100 255 0 100 255 0 100 255 0 100 255 0 100 255 0 100 255 0 100 255 0 100 255 0 100 255 0 100 255 0 100 255 0 100 255 0 100 255 0 100 255 0 100 255 0 100 255 0 100 255 0 100 255 0 100 255 0 100 255 0 100 255 0 100 255 0 100 255 0 100 255 0 100 255 0 100 255 0 100 255 0 100 255 0 100 255 0 100 255 0 100 255 0 100 255 0 100 255 0 100 255 0 100 255 0 100 255 0 100 255 0 100 255 0 100 255 0 100 255 20 20 30 20 20 30 0 255 0 20 20 30 20 20 30 20 20 30 20 20 30 20 20 30 20 20 30 20 20 30 20 20 30 20 20 30 20 20 30 20 20 30 20 20 30 20 20 30 20 20 30 20 20 30 20 20 30 20 20 30 20 20 30 20 20 30 20 20 30 20 20 30 20 20 30 20 20 30 20 20 30 20 20 30 20 20 30 20 20 30 20 20 30 20 20 30 20 20 30 255 0 0 20 20 30 20 20 30 20 20 30 20 20 30 20 20 30 20 20 30 20 20 30 20 20 30 20 20 30 20 20 30 20 20 30 20 20 30 20 20 30 20 20 30 20 20 30 20 20 30 20 20 30 20 20 30 20 20 30 20 20 30 20 20 30 20 20 30 20 20 30 20 20 30 20 20 30 20 20 30 20 20 30 20 20 30 20 20 30 20 20 30 20 20 30 20 20 30 20 20 30 20 20 30 20 20 30 20 20 30 20 20 30 20 20 30 20 20 30 20 20 30 20 20 30 20 20 30 20 20 30 20 20 30 20 20 30 20 20 30 20 20 30 20 20 30 20 20 30 20 20 30 20 20 30 20 20 30 20 20 30 20 20 30 20 20 30 20 20 30 20 20 30 20 20 30 20 20 30 20 20 30 20 20 30 20 20 30 20 20 30 20 20 30 20 20 30 20 20 30 20 20 30 20 20 30 20 20 30 20 20 30 20 20 30 20 20 30 20 20 30 20 20 30 20 20 30 20 20 30 20 20 30 20 20 30 20 20 30 20 20 30 20 20 30 20 20 30 20 20 30 20 20 30 20 20 30 20 20 30 20 20 30 20 20 30 20 20 30 20 20 30 20 20 30 20 20 30 20 20 30 20 20 30 20 20 30 20 20 30 20 20 30 20 20 30 20 20 30 20 20 30 20 20 30 20 20 30 20 20 30 20 20 30 20 20 30 20 20 30 20 20 30 20 20 30 20 20 30 20 20 30 20 20 30 20 20 30 
20 20 30 20 20 30 20 20 30 20 20 30 20 20 30 20 20 30 20 20 30 20 20 30 20 20 30 20 20 30 20 20 30 20 20 30 20 20 30 20 20 30 20 20 30 20 20 30 20 20 30 20 20 30 20 20 30 20 20 30 20 20 30 20 20 30 20 20 30 20 20 30 20 20 30 20 20 30 20 20 30 20 20 30 20 20 30 20 20 30 20 20 30 20 20 30 20 20 30 20 20 30 20 20 30 20 20 30 20 20 30 20 20 30 20 20 30 20 20 30 0 100 255 0 100 255 0 100 255 0 100 255 0 100 255 0 100 255 0 100 255 0 100 255 0 100 255 0 100 255 0 100 255 0 100 255 0 100 255 0 100 255 0 100 255 0 100 255 0 100 255 0 100 255 0 100 255 0 100 255 0 100 255 0 100 255 0 100 255 0 100 255 0 100 255 0 100 255 0 100 255 0 100 255 0 100 255 0 100 255 0 100 255 0 100 255 0 100 255 0 100 255 0 100 255 0 100 255 0 100 255 0 100 255 0 100 255 0 100 255 0 100 255 0 100 255 0 100 255 0 100 255 0 100 255 0 100 255 0 100 255 0 100 255 0 100 255 0 100 255 0 100 255 0 100 255 0 100 255 0 100 255 0 100 255 0 100 255 0 100 255 0 100 255 0 100 255 0 100 255 0 100 255 0 100 255 0 100 255 0 100 255 0 100 255 0 100 255 0 100 255 0 100 255 0 100 255 0 100 255 20 20 30 0 255 0 20 20 30 20 20 30 20 20 30 20 20 30 20 20 30 20 20 30 20 20 30 20 20 30 20 20 30 20 20 30 20 20 30 20 20 30 20 20 30 20 20 30 20 20 30 20 20 30 20 20 30 20 20 30 20 20 30 20 20 30 20 20 30 20 20 30 20 20 30 20 20 30 20 20 30 20 20 30 20 20 30 20 20 30 20 20 30 20 20 30 20 20 30 20 20 30 255 0 0 20 20 30 20 20 30 20 20 30 20 20 30 20 20 30 20 20 30 20 20 30 20 20 30 20 20 30 20 20 30 20 20 30 20 20 30 20 20 30 20 20 30 20 20 30 20 20 30 20 20 30 20 20 30 20 20 30 20 20 30 20 20 30 20 20 30 20 20 30 20 20 30 20 20 30 20 20 30 20 20 30 20 20 30 20 20 30 20 20 30 20 20 30 20 20 30 20 20 30 20 20 30 20 20 30 20 20 30 20 20 30 20 20 30 20 20 30 20 20 30 20 20 30 20 20 30 20 20 30 20 20 30 20 20 30 20 20 30 20 20 30 20 20 30 20 20 30 20 20 30 20 20 30 20 20 30 20 20 30 20 20 30 20 20 30 20 20 30 20 20 30 20 20 30 20 20 30 20 20 30 20 20 30 20 20 30 20 20 30 20 20 30 20 20 30 20 20 30 20 20 30 20 20 30 20 20 30 20 20 30 20 20 30 20 20 30 20 20 30 20 20 30 20 20 30 20 20 30 20 20 30 20 20 30 20 20 30 20 20 30 20 20 30 20 20 30 20 20 30 20 20 30 20 20 30 20 20 30 20 20 30 20 20 30 20 20 30 20 20 30 20 20 30 20 20 30 20 20 30 20 20 30 20 20 30 20 20 30 20 20 30 20 20 30 20 20 30 20 20 30 20 20 30 20 20 30 20 20 30 20 20 30 20 20 30 20 20 30 20 20 30 20 20 30 20 20 30 20 20 30 20 20 30 
20 20 30 20 20 30 20 20 30 20 20 30 20 20 30 20 20 30 20 20 30 20 20 30 20 20 30 20 20 30 20 20 30 20 20 30 20 20 30 20 20 30 20 20 30 20 20 30 20 20 30 20 20 30 20 20 30 20 20 30 20 20 30 20 20 30 20 20 30 20 20 30 20 20 30 20 20 30 20 20 30 20 20 30 20 20 30 20 20 30 20 20 30 20 20 30 20 20 30 20 20 30 20 20 30 20 20 30 20 20 30 20 20 30 20 20 30 20 20 30 0 100 255 0 100 255 0 100 255 0 100 255 0 100 255 0 100 255 0 100 255 0 100 255 0 100 255 0 100 255 0 100 255 0 100 255 0 100 255 0 100 255 0 100 255 0 100 255 0 100 255 0 100 255 0 100 255 0 100 255 0 100 255 0 100 255 0 100 255 0 100 255 0 100 255 0 100 255 0 100 255 0 100 255 0 100 255 0 100 255 0 100 255 0 100 255 0 100 255 0 100 255 0 100 255 0 100 255 0 100 255 0 100 255 0 100 255 0 100 255 0 100 255 0 100 255 0 100 255 0 100 255 0 100 255 0 100 255 0 100 255 0 100 255 0 100 255 0 100 255 0 100 255 0 100 255 0 100 255 0 100 255 0 100 255 0 100 255 0 100 255 0 100 255 0 100 255 0 100 255 0 100 255 0 100 255 0 100 255 0 100 255 0 100 255 0 100 255 0 100 255 0 100 255 0 100 255 0 100 255 0 255 0 20 20 30 20 20 30 20 20 30 20 20 30 20 20 30 20 20 30 20 20 30 20 20 30 20 20 30 20 20 30 20 20 30 20 20 30 20 20 30 20 20 30 20 20 30 20 20 30 20 20 30 20 20 30 20 20 30 20 20 30 20 20 30 20 20 30 20 20 30 20 20 30 20 20 30 20 20 30 20 20 30 20 20 30 20 20 30 20 20 30 20 20 30 20 20 30 20 20 30 20 20 30 255 0 0 20 20 30 20 20 30 20 20 30 20 20 30 20 20 30 20 20 30 20 20 30 20 20 30 20 20 30 20 20 30 20 20 30 20 20 30 20 20 30 20 20 30 20 20 30 20 20 30 20 20 30 20 20 30 20 20 30 20 20 30 20 20 30 20 20 30 20 20 30 20 20 30 20 20 30 20 20 30 20 20 30 20 20 30 20 20 30 20 20 30 20 20 30 20 20 30 20 20 30 20 20 30 20 20 30 20 20 30 20 20 30 20 20 30 20 20 30 20 20 30 20 20 30 20 20 30 20 20 30 20 20 30 20 20 30 20 20 30 20 20 30 20 20 30 20 20 30 20 20 30 20 20 30 20 20 30 20 20 30 20 20 30 20 20 30 20 20 30 20 20 30 20 20 30 20 20 30 20 20 30 20 20 30 20 20 30 20 20 30 20 20 30 20 20 30 20 20 30 20 20 30 20 20 30 20 20 30 20 20 30 20 20 30 20 20 30 20 20 30 20 20 30 20 20 30 20 20 30 20 20 30 20 20 30 20 20 30 20 20 30 20 20 30 20 20 30 20 20 30 20 20 30 20 20 30 20 20 30 20 20 30 20 20 30 20 20 30 20 20 30 20 20 30 20 20 30 20 20 30 20 20 30 20 20 30 20 20 30 20 20 30 20 20 30 20 20 30 20 20 30 20 20 30 20 20 30 20 20 30 20 20 30 20 20 30 20 20 30 20 20 30 20 20 30 20 20 30 20 20 30 
20 20 30 20 20 30 20 20 30 20 20 30 20 20 30 20 20 30 20 20 30 20 20 30 20 20 30 20 20 30 20 20 30 20 20 30 20 20 30 20 20 30 20 20 30 20 20 30 20 20 30 20 20 30 20 20 30 20 20 30 20 20 30 20 20 30 20 20 30 20 20 30 20 20 30 20 20 30 20 20 30 20 20 30 20 20 30 20 20 30 20 20 30 20 20 30 20 20 30 20 20 30 20 20 30 20 20 30 20 20 30 20 20 30 20 20 30 20 20 30 0 100 255 0 100 255 0 100 255 0 100 255 0 100 255 0 100 255 0 100 255 0 100 255 0 100 255 0 100 255 0 100 255 0 100 255 0 100 255 0 100 255 0 100 255 0 100 255 0 100 255 0 100 255 0 100 255 0 100 255 0 100 255 0 100 255 0 100 255 0 100 255 0 100 255 0 100 255 0 100 255 0 100 255 0 100 255 0 100 255 0 100 255 0 100 255 0 100 255 0 100 255 0 100 255 0 100 255 0 100 255 0 100 255 0 100 255 0 100 255 0 100 255 0 100 255 0 100 255 0 100 255 0 100 255 0 100 255 0 100 255 0 100 255 0 100 255 0 100 255 0 100 255 0 100 255 0 100 255 0 100 255 0 100 255 0 100 255 0 100 255 0 100 255 0 100 255 0 100 255 0 100 255 0 100 255 0 100 255 0 100 255 0 100 255 0 100 255 0 100 255 0 100 255 0 100 255 0 100 255 20 20 30 20 20 30 20 20 30 20 20 30 20 20 30 20 20 30 20 20 30 20 20 30 20 20 30 20 20 30 20 20 30 20 20 30 20 20 30 20 20 30 20 20 30 20 20 30 20 20 30 20 20 30 20 20 30 20 20 30 20 20 30 20 20 30 20 20 30 20 20 30 20 20 30 20 20 30 20 20 30 20 20 30 20 20 30 20 20 30 20 20 30 20 20 30 20 20 30 20 20 30 20 20 30 20 20 30 255 0 0 20 20 30 20 20 30 20 20 30 20 20 30 20 20 30 20 20 30 20 20 30 20 20 30 20 20 30 20 20 30 20 20 30 20 20 30 20 20 30 20 20 30 20 20 30 20 20 30 20 20 30 20 20 30 20 20 30 20 20 30 20 20 30 20 20 30 20 20 30 20 20 30 20 20 30 20 20 30 20 20 30 20 20 30 20 20 30 20 20 30 20 20 30 20 20 30 20 20 30 20 20 30 20 20 30 20 20 30 20 20 30 20 20 30 20 20 30 20 20 30 20 20 30 20 20 30 20 20 30 20 20 30 20 20 30 20 20 30 20 20 30 20 20 30 20 20 30 20 20 30 20 20 30 20 20 30 20 20 30 20 20 30 20 20 30 20 20 30 20 20 30 20 20 30 20 20 30 20 20 30 20 20 30 20 20 30 20 20 30 20 20 30 20 20 30 20 20 30 20 20 30 20 20 30 20 20 30 20 20 30 20 20 30 20 20 30 20 20 30 20 20 30 20 20 30 20 20 30 20 20 30 20 20 30 20 20 30 20 20 30 20 20 30 20 20 30 20 20 30 20 20 30 20 20 30 20 20 30 20 20 30 20 20 30 20 20 30 20 20 30 20 20 30 20 20 30 20 20 30 20 20 30 20 20 30 20 20 30 20 20 30 20 20 30 20 20 30 20 20 30 20 20 30 20 20 30 20 20 30 20 20 30 20 20 30 20 20 30 20 20 30 20 20 30 20 20 30 
20 20 30 20 20 30 20 20 30 20 20 30 20 20 30 20 20 30 20 20 30 20 20 30 20 20 30 20 20 30 20 20 30 20 20 30 20 20 30 20 20 30 20 20 30 20 20 30 20 20 30 20 20 30 20 20 30 20 20 30 20 20 30 20 20 30 20 20 30 20 20 30 20 20 30 20 20 30 20 20 30 20 20 30 20 20 30 20 20 30 20 20 30 20 20 30 20 20 30 20 20 30 20 20 30 20 20 30 20 20 30 20 20 30 20 20 30 20 20 30 0 100 255 0 100 255 0 100 255 0 100 255 0 100 255 0 100 255 0 100 255 0 100 255 0 100 255 0 100 255 0 100 255 0 100 255 0 100 255 0 100 255 0 100 255 0 100 255 0 100 255 0 100 255 0 100 255 0 100 255 0 100 255 0 100 255 0 100 255 0 100 255 0 100 255 0 100 255 0 100 255 0 100 255 0 100 255 0 100 255 0 100 255 0 100 255 0 100 255 0 100 255 0 100 255 0 100 255 0 100 255 0 100 255 0 100 255 0 100 255 0 100 255 0 100 255 0 100 255 0 100 255 0 100 255 0 100 255 0 100 255 0 100 255 0 100 255 0 100 255 0 100 255 0 100 255 0 100 255 0 100 255 0 100 255 0 100 255 0 100 255 0 100 255 0 100 255 0 100 255 0 100 255 0 100 255 0 100 255 0 100 255 0 100 255 0 100 255 0 100 255 0 100 255 0 100 255 0 100 255 20 20 30 20 20 30 20 20 30 20 20 30 20 20 30 20 20 30 20 20 30 20 20 30 20 20 30 20 20 30 20 20 30 20 20 30 20 20 30 20 20 30 20 20 30 20 20 30 20 20 30 20 20 30 20 20 30 20 20 30 20 20 30 20 20 30 20 20 30 20 20 30 20 20 30 20 20 30 20 20 30 20 20 30 20 20 30 20 20 30 20 20 30 20 20 30 20 20 30 20 20 30 20 20 30 20 20 30 20 20 30 255 0 0 20 20 30 20 20 30 20 20 30 20 20 30 20 20 30 20 20 30 20 20 30 20 20 30 20 20 30 20 20 30 20 20 30 20 20 30 20 20 30 20 20 30 20 20 30 20 20 30 20 20 30 20 20 30 20 20 30 20 20 30 20 20 30 20 20 30 20 20 30 20 20 30 20 20 30 20 20 30 20 20 30 20 20 30 20 20 30 20 20 30 20 20 30 20 20 30 20 20 30 20 20 30 20 20 30 20 20 30 20 20 30 20 20 30 20 20 30 20 20 30 20 20 30 20 20 30 20 20 30 20 20 30 20 20 30 20 20 30 20 20 30 20 20 30 20 20 30 20 20 30 20 20 30 20 20 30 20 20 30 20 20 30 20 20 30 20 20 30 20 20 30 20 20 30 20 20 30 20 20 30 20 20 30 20 20 30 20 20 30 20 20 30 20 20 30 20 20 30 20 20 30 20 20 30 20 20 30 20 20 30 20 20 30 20 20 30 20 20 30 20 20 30 20 20 30 20 20 30 20 20 30 20 20 30 20 20 30 20 20 30 20 20 30 20 20 30 20 20 30 20 20 30 20 20 30 20 20 30 20 20 30 20 20 30 20 20 30 20 20 30 20 20 30 20 20 30 20 20 30 20 20 30 20 20 30 20 20 30 20 20 30 20 20 30 20 20 30 20 20 30 20 20 30 20 20 30 20 20 30 20 20 30 20 20 30 20 20 30 20 20 30 20 20 30 
20 20 30 20 20 30 20 20 30 20 20 30 20 20 30 20 20 30 20 20 30 20 20 30 20 20 30 20 20 30 20 20 30 20 20 30 20 20 30 20 20 30 20 20 30 20 20 30 20 20 30 20 20 30 20 20 30 20 20 30 20 20 30 20 20 30 20 20 30 20 20 30 20 20 30 20 20 30 20 20 30 20 20 30 20 20 30 20 20 30 20 20 30 20 20 30 20 20 30 20 20 30 20 20 30 20 20 30 20 20 30 20 20 30 20 20 30 20 20 30 0 100 255 0 100 255 0 100 255 0 100 255 0 100 255 0 100 255 0 100 255 0 100 255 0 100 255 0 100 255 0 100 255 0 100 255 0 100 255 0 100 255 0 100 255 0 100 255 0 100 255 0 100 255 0 100 255 0 100 255 0 100 255 0 100 255 0 100 255 0 100 255 0 100 255 0 100 255 0 100 255 0 100 255 0 100 255 0 100 255 0 100 255 0 100 255 0 100 255 0 100 255 0 100 255 0 100 255 0 100 255 0 100 255 0 100 255 0 100 255 0 100 255 0 100 255 0 100 255 0 100 255 0 100 255 0 100 255 0 100 255 0 100 255 0 100 255 0 100 255 0 100 255 0 100 255 0 100 255 0 100 255 0 100 255 0 100 255 0 100 255 0 100 255 0 100 255 0 100 255 0 100 255 0 100 255 0 100 255 0 100 255 0 100 255 0 100 255 0 100 255 0 100 255 0 100 255 0 100 255 20 20 30 20 20 30 20 20 30 20 20 30 20 20 30 20 20 30 20 20 30 20 20 30 20 20 30 20 20 30 20 20 30 20 20 30 20 20 30 20 20 30 20 20 30 20 20 30 20 20 30 20 20 30 20 20 30 20 20 30 20 20 30 20 20 30 20 20 30 20 20 30 20 20 30 20 20 30 20 20 30 20 20 30 20 20 30 20 20 30 20 20 30 20 20 30 20 20 30 20 20 30 20 20 30 20 20 30 20 20 30 20 20 30 255 0 0 20 20 30 20 20 30 20 20 30 20 20 30 20 20 30 20 20 30 20 20 30 20 20 30 20 20 30 20 20 30 20 20 30 20 20 30 20 20 30 20 20 30 20 20 30 20 20 30 20 20 30 20 20 30 20 20 30 20 20 30 20 20 30 20 20 30 20 20 30 20 20 30 20 20 30 20 20 30 20 20 30 20 20 30 20 20 30 20 20 30 20 20 30 20 20 30 20 20 30 20 20 30 20 20 30 20 20 30 20 20 30 20 20 30 20 20 30 20 20 30 20 20 30 20 20 30 20 20 30 20 20 30 20 20 30 20 20 30 20 20 30 20 20 30 20 20 30 20 20 30 20 20 30 20 20 30 20 20 30 20 20 30 20 20 30 20 20 30 20 20 30 20 20 30 20 20 30 20 20 30 20 20 30 20 20 30 20 20 30 20 20 30 20 20 30 20 20 30 20 20 30 20 20 30 20 20 30 20 20 30 20 20 30 20 20 30 20 20 30 20 20 30 20 20 30 20 20 30 20 20 30 20 20 30 20 20 30 20 20 30 20 20 30 20 20 30 20 20 30 20 20 30 20 20 30 20 20 30 20 20 30 20 20 30 20 20 30 20 20 30 20 20 30 20 20 30 20 20 30 20 20 30 20 20 30 20 20 30 20 20 30 20 20 30 20 20 30 20 20 30 20 20 30 20 20 30 20 20 30 20 20 30 20 20 30 20 20 30 20 20 30 
20 20 30 20 20 30 20 20 30 20 20 30 20 20 30 20 20 30 20 20 30 20 20 30 20 20 30 20 20 30 20 20 30 20 20 30 20 20 30 20 20 30 20 20 30 20 20 30 20 20 30 20 20 30 20 20 30 20 20 30 20 20 30 20 20 30 20 20 30 20 20 30 20 20 30 20 20 30 20 20 30 20 20 30 20 20 30 20 20 30 20 20 30 20 20 30 20 20 30 20 20 30 20 20 30 20 20 30 20 20 30 20 20 30 20 20 30 20 20 30 0 100 255 0 100 255 0 100 255 0 100 255 0 100 255 0 100 255 0 100 255 0 100 255 0 100 255 0 100 255 0 100 255 0 100 255 0 100 255 0 100 255 0 100 255 0 100 255 0 100 255 0 100 255 0 100 255 0 100 255 0 100 255 0 100 255 0 100 255 0 100 255 0 100 255 0 100 255 0 100 255 0 100 255 0 100 255 0 100 255 0 100 255 0 100 255 0 100 255 0 100 255 0 100 255 0 100 255 0 100 255 0 100 255 0 100 255 0 100 255 0 100 255 0 100 255 0 100 255 0 100 255 0 100 255 0 100 255 0 100 255 0 100 255 0 100 255 0 100 255 0 100 255 0 100 255 0 100 255 0 100 255 0 100 255 0 100 255 0 100 255 0 100 255 0 100 255 0 100 255 0 100 255 0 100 255 0 100 255 0 100 255 0 100 255 0 100 255 0 100 255 0 100 255 0 100 255 0 100 255 20 20 30 20 20 30 20 20 30 20 20 30 20 20 30 20 20 30 20 20 30 20 20 30 20 20 30 20 20 30 20 20 30 20 20 30 20 20 30 20 20 30 20 20 30 20 20 30 20 20 30 20 20 30 20 20 30 20 20 30 20 20 30 20 20 30 20 20 30 20 20 30 20 20 30 20 20 30 20 20 30 20 20 30 20 20 30 20 20 30 20 20 30 20 20 30 20 20 30 20 20 30 20 20 30 20 20 30 20 20 30 20 20 30 20 20 30 255 0 0 20 20 30 20 20 30 20 20 30 20 20 30 20 20 30 20 20 30 20 20 30 20 20 30 20 20 30 20 20 30 20 20 30 20 20 30 20 20 30 20 20 30 20 20 30 20 20 30 20 20 30 20 20 30 20 20 30 20 20 30 20 20 30 20 20 30 20 20 30 20 20 30 20 20 30 20 20 30 20 20 30 20 20 30 20 20 30 20 20 30 20 20 30 20 20 30 20 20 30 20 20 30 20 20 30 20 20 30 20 20 30 20 20 30 20 20 30 20 20 30 20 20 30 20 20 30 20 20 30 20 20 30 20 20 30 20 20 30 20 20 30 20 20 30 20 20 30 20 20 30 20 20 30 20 20 30 20 20 30 20 20 30 20 20 30 20 20 30 20 20 30 20 20 30 20 20 30 20 20 30 20 20 30 20 20 30 20 20 30 20 20 30 20 20 30 20 20 30 20 20 30 20 20 30 20 20 30 20 20 30 20 20 30 20 20 30 20 20 30 20 20 30 20 20 30 20 20 30 20 20 30 20 20 30 20 20 30 20 20 30 20 20 30 20 20 30 20 20 30 20 20 30 20 20 30 20 20 30 20 20 30 20 20 30 20 20 30 20 20 30 20 20 30 20 20 30 20 20 30 20 20 30 20 20 30 20 20 30 20 20 30 20 20 30 20 20 30 20 20 30 20 20 30 20 20 30 20 20 30 20 20 30 20 20 30 20 20 30 
20 20 30 20 20 30 20 20 30 20 20 30 20 20 30 20 20 30 20 20 30 20 20 30 20 20 30 20 20 30 20 20 30 20 20 30 20 20 30 20 20 30 20 20 30 20 20 30 20 20 30 20 20 30 20 20 30 20 20 30 20 20 30 20 20 30 20 20 30 20 20 30 20 20 30 20 20 30 20 20 30 20 20 30 20 20 30 20 20 30 20 20 30 20 20 30 20 20 30 20 20 30 20 20 30 20 20 30 20 20 30 20 20 30 20 20 30 20 20 30 0 100 255 0 100 255 0 100 255 0 100 255 0 100 255 0 100 255 0 100 255 0 100 255 0 100 255 0 100 255 0 100 255 0 100 255 0 100 255 0 100 255 0 100 255 0 100 255 0 100 255 0 100 255 0 100 255 0 100 255 0 100 255 0 100 255 0 100 255 0 100 255 0 100 255 0 100 255 0 100 255 0 100 255 0 100 255 0 100 255 0 100 255 0 100 255 0 100 255 0 100 255 0 100 255 0 100 255 0 100 255 0 100 255 0 100 255 0 100 255 0 100 255 0 100 255 0 100 255 0 100 255 0 100 255 0 100 255 0 100 255 0 100 255 0 100 255 0 100 255 0 100 255 0 100 255 0 100 255 0 100 255 0 100 255 0 100 255 0 100 255 0 100 255 0 100 255 0 100 255 0 100 255 0 100 255 0 100 255 0 100 255 0 100 255 0 100 255 0 100 255 0 100 255 0 100 255 0 100 255 20 20 30 20 20 30 20 20 30 20 20 30 20 20 30 20 20 30 20 20 30 20 20 30 20 20 30 20 20 30 20 20 30 20 20 30 20 20 30 20 20 30 20 20 30 20 20 30 20 20 30 20 20 30 20 20 30 20 20 30 20 20 30 20 20 30 20 20 30 20 20 30 20 20 30 20 20 30 20 20 30 20 20 30 20 20 30 20 20 30 20 20 30 20 20 30 20 20 30 20 20 30 20 20 30 20 20 30 20 20 30 20 20 30 20 20 30 20 20 30 255 100 100 255 100 100 255 100 100 255 100 100 255 100 100 255 100 100 255 100 100 255 100 100 255 100 100 255 100 100 255 100 100 255 100 100 255 100 100 255 100 100 255 100 100 255 100 100 255 100 100 255 100 100 255 100 100 255 100 100 255 100 100 255 100 100 255 100 100 255 100 100 255 100 100 255 100 100 255 100 100 255 100 100 255 100 100 255 100 100 255 100 100 255 100 100 255 100 100 255 100 100 255 100 100 255 100 100 255 100 100 255 100 100 255 100 100 255 100 100 255 100 100 255 100 100 255 100 100 255 100 100 255 100 100 255 100 100 255 100 100 255 100 100 255 100 100 255 100 100 255 100 100 255 100 100 255 100 100 255 100 100 255 100 100 255 100 100 255 100 100 255 100 100 255 100 100 255 100 100 20 20 30 20 20 30 20 20 30 20 20 30 20 20 30 20 20 30 20 20 30 20 20 30 20 20 30 20 20 30 20 20 30 20 20 30 20 20 30 20 20 30 20 20 30 20 20 30 20 20 30 20 20 30 20 20 30 20 20 30 20 20 30 20 20 30 20 20 30 20 20 30 20 20 30 20 20 30 20 20 30 20 20 30 20 20 30 20 20 30 20 20 30 20 20 30 20 20 30 20 20 30 20 20 30 20 20 30 20 20 30 20 20 30 20 20 30 20 20 30 20 20 30 20 20 30 20 20 30 20 20 30 20 20 30 20 20 30 
20 20 30 20 20 30 20 20 30 20 20 30 20 20 30 20 20 30 20 20 30 20 20 30 20 20 30 20 20 30 20 20 30 20 20 30 20 20 30 20 20 30 20 20 30 20 20 30 20 20 30 20 20 30 20 20 30 20 20 30 20 20 30 20 20 30 20 20 30 20 20 30 20 20 30 20 20 30 20 20 30 20 20 30 20 20 30 20 20 30 20 20 30 20 20 30 20 20 30 20 20 30 20 20 30 20 20 30 20 20 30 20 20 30 20 20 30 20 20 30 0 100 255 0 100 255 0 100 255 0 100 255 0 100 255 0 100 255 0 100 255 0 100 255 0 100 255 0 100 255 0 100 255 0 100 255 0 100 255 0 100 255 0 100 255 0 100 255 0 100 255 0 100 255 0 100 255 0 100 255 0 100 255 0 100 255 0 100 255 0 100 255 0 100 255 0 100 255 0 100 255 0 100 255 0 100 255 0 100 255 0 100 255 0 100 255 0 100 255 0 100 255 0 100 255 0 100 255 0 100 255 0 100 255 0 100 255 0 100 255 0 100 255 0 100 255 0 100 255 0 100 255 0 100 255 0 100 255 0 100 255 0 100 255 0 100 255 0 100 255 0 100 255 0 100 255 0 100 255 0 100 255 0 100 255 0 100 255 0 100 255 0 100 255 0 100 255 0 100 255 0 100 255 0 100 255 0 100 255 0 100 255 0 100 255 0 100 255 0 100 255 0 100 255 0 100 255 0 100 255 20 20 30 20 20 30 20 20 30 20 20 30 20 20 30 20 20 30 20 20 30 20 20 30 20 20 30 20 20 30 20 20 30 20 20 30 20 20 30 20 20 30 20 20 30 20 20 30 20 20 30 20 20 30 20 20 30 20 20 30 20 20 30 20 20 30 20 20 30 20 20 30 20 20 30 20 20 30 20 20 30 20 20 30 20 20 30 20 20 30 20 20 30 20 20 30 20 20 30 20 20 30 20 20 30 20 20 30 20 20 30 20 20 30 20 20 30 20 20 30 255 100 100 255 100 100 255 100 100 255 100 100 255 100 100 255 100 100 255 100 100 255 100 100 255 100 100 255 100 100 255 100 100 255 100 100 255 100 100 255 100 100 255 100 100 255 100 100 255 100 100 255 100 100 255 100 100 255 100 100 255 100 100 255 100 100 255 100 100 255 100 100 255 100 100 255 100 100 255 100 100 255 100 100 255 100 100 255 100 100 255 100 100 255 100 100 255 100 100 255 100 100 255 100 100 255 100 100 255 100 100 255 100 100 255 100 100 255 100 100 255 100 100 255 100 100 255 100 100 255 100 100 255 100 100 255 100 100 255 100 100 255 100 100 255 100 100 255 100 100 255 100 100 255 100 100 255 100 100 255 100 100 255 100 100 255 100 100 255 100 100 255 100 100 255 100 100 255 100 100 20 20 30 20 20 30 20 20 30 20 20 30 20 20 30 20 20 30 20 20 30 20 20 30 20 20 30 20 20 30 20 20 30 20 20 30 20 20 30 20 20 30 20 20 30 20 20 30 20 20 30 20 20 30 20 20 30 20 20 30 20 20 30 20 20 30 20 20 30 20 20 30 20 20 30 20 20 30 20 20 30 20 20 30 20 20 30 20 20 30 20 20 30 20 20 30 20 20 30 20 20 30 20 20 30 20 20 30 20 20 30 20 20 30 20 20 30 20 20 30 20 20 30 20 20 30 20 20 30 20 20 30 20 20 30 20 20 30 
20 20 30 20 20 30 20 20 30 20 20 30 20 20 30 20 20 30 20 20 30 20 20 30 20 20 30 20 20 30 20 20 30 20 20 30 20 20 30 20 20 30 20 20 30 20 20 30 20 20 30 20 20 30 20 20 30 20 20 30 20 20 30 20 20 30 20 20 30 20 20 30 20 20 30 20 20 30 20 20 30 20 20 30 20 20 30 20 20 30 20 20 30 20 20 30 20 20 30 20 20 30 20 20 30 20 20 30 20 20 30 20 20 30 20 20 30 20 20 30 0 100 255 0 100 255 0 100 255 0 100 255 0 100 255 0 100 255 0 100 255 0 100 255 0 100 255 0 100 255 0 100 255 0 100 255 0 100 255 0 100 255 0 100 255 0 100 255 0 100 255 0 100 255 0 100 255 0 100 255 0 100 255 0 100 255 0 100 255 0 100 255 0 100 255 0 100 255 0 100 255 0 100 255 0 100 255 0 100 255 0 100 255 0 100 255 0 100 255 0 100 255 0 100 255 0 100 255 0 100 255 0 100 255 0 100 255 0 100 255 0 100 255 0 100 255 0 100 255 0 100 255 0 100 255 0 100 255 0 100 255 0 100 255 0 100 255 0 100 255 0 100 255 0 100 255 0 100 255 0 100 255 0 100 255 0 100 255 0 100 255 0 100 255 0 100 255 0 100 255 0 100 255 0 100 255 0 100 255 0 100 255 0 100 255 0 100 255 0 100 255 0 100 255 0 100 255 0 100 255 20 20 30 20 20 30 20 20 30 20 20 30 20 20 30 20 20 30 20 20 30 20 20 30 20 20 30 20 20 30 20 20 30 20 20 30 20 20 30 20 20 30 20 20 30 20 20 30 20 20 30 20 20 30 20 20 30 20 20 30 20 20 30 20 20 30 20 20 30 20 20 30 20 20 30 20 20 30 20 20 30 20 20 30 20 20 30 20 20 30 20 20 30 20 20 30 20 20 30 20 20 30 20 20 30 20 20 30 20 20 30 20 20 30 20 20 30 20 20 30 255 100 100 255 100 100 255 100 100 255 100 100 255 100 100 255 100 100 255 100 100 255 100 100 255 100 100 255 100 100 255 100 100 255 100 100 255 100 100 255 100 100 255 100 100 255 100 100 255 100 100 255 100 100 255 100 100 255 100 100 255 100 100 255 100 100 255 100 100 255 100 100 255 100 100 255 100 100 255 100 100 255 100 100 255 100 100 255 100 100 255 100 100 255 100 100 255 100 100 255 100 100 255 100 100 255 100 100 255 100 100 255 100 100 255 100 100 255 100 100 255 100 100 255 100 100 255 100 100 255 100 100 255 100 100 255 100 100 255 100 100 255 100 100 255 100 100 255 100 100 255 100 100 255 100 100 255 100 100 255 100 100 255 100 100 255 100 100 255 100 100 255 100 100 255 100 100 255 100 100 20 20 30 20 20 30 20 20 30 20 20 30 20 20 30 20 20 30 20 20 30 20 20 30 20 20 30 20 20 30 20 20 30 20 20 30 20 20 30 20 20 30 20 20 30 20 20 30 20 20 30 20 20 30 20 20 30 20 20 30 20 20 30 20 20 30 20 20 30 20 20 30 20 20 30 20 20 30 20 20 30 20 20 30 20 20 30 20 20 30 20 20 30 20 20 30 20 20 30 20 20 30 20 20 30 20 20 30 20 20 30 20 20 30 20 20 30 20 20 30 20 20 30 20 20 30 20 20 30 20 20 30 20 20 30 20 20 30 
20 20 30 20 20 30 20 20 30 20 20 30 20 20 30 20 20 30 20 20 30 20 20 30 20 20 30 20 20 30 20 20 30 20 20 30 20 20 30 20 20 30 20 20 30 20 20 30 20 20 30 20 20 30 20 20 30 20 20 30 20 20 30 20 20 30 20 20 30 20 20 30 20 20 30 20 20 30 20 20 30 20 20 30 20 20 30 20 20 30 20 20 30 20 20 30 20 20 30 20 20 30 20 20 30 20 20 30 20 20 30 20 20 30 20 20 30 20 20 30 0 100 255 0 100 255 0 100 255 0 100 255 0 100 255 0 100 255 0 100 255 0 100 255 0 100 255 0 100 255 0 100 255 0 100 255 0 100 255 0 100 255 0 100 255 0 100 255 0 100 255 0 100 255 0 100 255 0 100 255 0 100 255 0 100 255 0 100 255 0 100 255 0 100 255 0 100 255 0 100 255 0 100 255 0 100 255 0 100 255 0 100 255 0 100 255 0 100 255 0 100 255 0 100 255 0 100 255 0 100 255 0 100 255 0 100 255 0 100 255 0 100 255 0 100 255 0 100 255 0 100 255 0 100 255 0 100 255 0 100 255 0 100 255 0 100 255 0 100 255 0 100 255 0 100 255 0 100 255 0 100 255 0 100 255 0 100 255 0 100 255 0 100 255 0 100 255 0 100 255 0 100 255 0 100 255 0 100 255 0 100 255 0 100 255 0 100 255 0 100 255 0 100 255 0 100 255 0 100 255 20 20 30 20 20 30 20 20 30 20 20 30 20 20 30 20 20 30 20 20 30 20 20 30 20 20 30 20 20 30 20 20 30 20 20 30 20 20 30 20 20 30 20 20 30 20 20 30 20 20 30 20 20 30 20 20 30 20 20 30 20 20 30 20 20 30 20 20 30 20 20 30 20 20 30 20 20 30 20 20 30 20 20 30 20 20 30 20 20 30 20 20 30 20 20 30 20 20 30 20 20 30 20 20 30 20 20 30 20 20 30 20 20 30 20 20 30 20 20 30 255 100 100 255 100 100 255 100 100 255 100 100 255 100 100 255 100 100 255 100 100 255 100 100 255 100 100 255 100 100 255 100 100 255 100 100 255 100 100 255 100 100 255 100 100 255 100 100 255 100 100 255 100 100 255 100 100 255 100 100 255 100 100 255 100 100 255 100 100 255 100 100 255 100 100 255 100 100 255 100 100 255 100 100 255 100 100 255 100 100 255 100 100 255 100 100 255 100 100 255 100 100 255 100 100 255 100 100 255 100 100 255 100 100 255 100 100 255 100 100 255 100 100 255 100 100 255 100 100 255 100 100 255 100 100 255 100 100 255 100 100 255 100 100 255 100 100 255 100 100 255 100 100 255 100 100 255 100 100 255 100 100 255 100 100 255 100 100 255 100 100 255 100 100 255 100 100 255 100 100 20 20 30 20 20 30 20 20 30 20 20 30 20 20 30 20 20 30 20 20 30 20 20 30 20 20 30 20 20 30 20 20 30 20 20 30 20 20 30 20 20 30 20 20 30 20 20 30 20 20 30 20 20 30 20 20 30 20 20 30 20 20 30 20 20 30 20 20 30 20 20 30 20 20 30 20 20 30 20 20 30 20 20 30 20 20 30 20 20 30 20 20 30 20 20 30 20 20 30 20 20 30 20 20 30 20 20 30 20 20 30 20 20 30 20 20 30 20 20 30 20 20 30 20 20 30 20 20 30 20 20 30 20 20 30 20 20 30 
20 20 30 20 20 30 20 20 30 20 20 30 20 20 30 20 20 30 20 20 30 20 20 30 20 20 30 20 20 30 20 20 30 20 20 30 20 20 30 20 20 30 20 20 30 20 20 30 20 20 30 20 20 30 20 20 30 20 20 30 20 20 30 20 20 30 20 20 30 20 20 30 20 20 30 20 20 30 20 20 30 20 20 30 20 20 30 20 20 30 20 20 30 20 20 30 20 20 30 20 20 30 20 20 30 20 20 30 20 20 30 20 20 30 20 20 30 20 20 30 0 100 255 0 100 255 0 100 255 0 100 255 0 100 255 0 100 255 0 100 255 0 100 255 0 100 255 0 100 255 0 100 255 0 100 255 0 100 255 0 100 255 0 100 255 0 100 255 0 100 255 0 100 255 0 100 255 0 100 255 0 100 255 0 100 255 0 100 255 0 100 255 0 100 255 0 100 255 0 100 255 0 100 255 0 100 255 0 100 255 0 100 255 0 100 255 0 100 255 0 100 255 0 100 255 0 100 255 0 100 255 0 100 255 0 100 255 0 100 255 0 100 255 0 100 255 0 100 255 0 100 255 0 100 255 0 100 255 0 100 255 0 100 255 0 100 255 0 100 255 0 100 255 0 100 255 0 100 255 0 100 255 0 100 255 0 100 255 0 100 255 0 100 255 0 100 255 0 100 255 0 100 255 0 100 255 0 100 255 0 100 255 0 100 255 0 100 255 0 100 255 0 100 255 0 100 255 0 100 255 20 20 30 20 20 30 20 20 30 20 20 30 20 20 30 20 20 30 20 20 30 20 20 30 20 20 30 20 20 30 20 20 30 20 20 30 20 20 30 20 20 30 20 20 30 20 20 30 20 20 30 20 20 30 20 20 30 20 20 30 20 20 30 20 20 30 20 20 30 20 20 30 20 20 30 20 20 30 20 20 30 20 20 30 20 20 30 20 20 30 20 20 30 20 20 30 20 20 30 20 20 30 20 20 30 20 20 30 20 20 30 20 20 30 20 20 30 20 20 30 255 100 100 255 100 100 255 100 100 255 100 100 255 100 100 255 100 100 255 100 100 255 100 100 255 100 100 255 100 100 255 100 100 255 100 100 255 100 100 255 100 100 255 100 100 255 100 100 255 100 100 255 100 100 255 100 100 255 100 100 255 100 100 255 100 100 255 100 100 255 100 100 255 100 100 255 100 100 255 100 100 255 100 100 255 100 100 255 100 100 255 100 100 255 100 100 255 100 100 255 100 100 255 100 100 255 100 100 255 100 100 255 100 100 255 100 100 255 100 100 255 100 100 255 100 100 255 100 100 255 100 100 255 100 100 255 100 100 255 100 100 255 100 100 255 100 100 255 100 100 255 100 100 255 100 100 255 100 100 255 100 100 255 100 100 255 100 100 255 100 100 255 100 100 255 100 100 255 100 100 20 20 30 20 20 30 20 20 30 20 20 30 20 20 30 20 20 30 20 20 30 20 20 30 20 20 30 20 20 30 20 20 30 20 20 30 20 20 30 20 20 30 20 20 30 20 20 30 20 20 30 20 20 30 20 20 30 20 20 30 20 20 30 20 20 30 20 20 30 20 20 30 20 20 30 20 20 30 20 20 30 20 20 30 20 20 30 20 20 30 20 20 30 20 20 30 20 20 30 20 20 30 20 20 30 20 20 30 20 20 30 20 20 30 20 20 30 20 20 30 20 20 30 20 20 30 20 20 30 20 20 30 20 20 30 20 20 30 
20 20 30 20 20 30 20 20 30 20 20 30 20 20 30 20 20 30 20 20 30 20 20 30 20 20 30 20 20 30 20 20 30 20 20 30 20 20 30 20 20 30 20 20 30 20 20 30 20 20 30 20 20 30 20 20 30 20 20 30 20 20 30 20 20 30 20 20 30 20 20 30 20 20 30 20 20 30 20 20 30 20 20 30 20 20 30 20 20 30 20 20 30 20 20 30 20 20 30 20 20 30 20 20 30 20 20 30 20 20 30 20 20 30 20 20 30 20 20 30 0 100 255 0 100 255 0 100 255 0 100 255 0 100 255 0 100 255 0 100 255 0 100 255 0 100 255 0 100 255 0 100 255 0 100 255 0 100 255 0 100 255 0 100 255 0 100 255 0 100 255 0 100 255 0 100 255 0 100 255 0 100 255 0 100 255 0 100 255 0 100 255 0 100 255 0 100 255 0 100 255 0 100 255 0 100 255 0 100 255 0 100 255 0 100 255 0 100 255 0 100 255 0 100 255 0 100 255 0 100 255 0 100 255 0 100 255 0 100 255 0 100 255 0 100 255 0 100 255 0 100 255 0 100 255 0 100 255 0 100 255 0 100 255 0 100 255 0 100 255 0 100 255 0 100 255 0 100 255 0 100 255 0 100 255 0 100 255 0 100 255 0 100 255 0 100 255 0 100 255 0 100 255 0 100 255 0 100 255 0 100 255 0 100 255 0 100 255 0 100 255 0 100 255 0 100 255 0 100 255 20 20 30 20 20 30 20 20 30 20 20 30 20 20 30 20 20 30 20 20 30 20 20 30 20 20 30 20 20 30 20 20 30 20 20 30 20 20 30 20 20 30 20 20 30 20 20 30 20 20 30 20 20 30 20 20 30 20 20 30 20 20 30 20 20 30 20 20 30 20 20 30 20 20 30 20 20 30 20 20 30 20 20 30 20 20 30 20 20 30 20 20 30 20 20 30 20 20 30 20 20 30 20 20 30 20 20 30 20 20 30 20 20 30 20 20 30 20 20 30 255 100 100 255 100 100 255 100 100 255 100 100 255 100 100 255 100 100 255 100 100 255 100 100 255 100 100 255 100 100 255 100 100 255 100 100 255 100 100 255 100 100 255 100 100 255 100 100 255 100 100 255 100 100 255 100 100 255 100 100 255 100 100 255 100 100 255 100 100 255 100 100 255 100 100 255 100 100 255 100 100 255 100 100 255 100 100 255 100 100 255 100 100 255 100 100 255 100 100 255 100 100 255 100 100 255 100 100 255 100 100 255 100 100 255 100 100 255 100 100 255 100 100 255 100 100 255 100 100 255 100 100 255 100 100 255 100 100 255 100 100 255 100 100 255 100 100 255 100 100 255 100 100 255 100 100 255 100 100 255 100 100 255 100 100 255 100 100 255 100 100 255 100 100 255 100 100 255 100 100 20 20 30 20 20 30 20 20 30 20 20 30 20 20 30 20 20 30 20 20 30 20 20 30 20 20 30 20 20 30 20 20 30 20 20 30 20 20 30 20 20 30 20 20 30 20 20 30 20 20 30 20 20 30 20 20 30 20 20 30 20 20 30 20 20 30 20 20 30 20 20 30 20 20 30 20 20 30 20 20 30 20 20 30 20 20 30 20 20 30 20 20 30 20 20 30 20 20 30 20 20 30 20 20 30 20 20 30 20 20 30 20 20 30 20 20 30 20 20 30 20 20 30 20 20 30 20 20 30 20 20 30 20 20 30 20 20 30 
20 20 30 20 20 30 20 20 30 20 20 30 20 20 30 20 20 30 20 20 30 20 20 30 20 20 30 20 20 30 20 20 30 20 20 30 20 20 30 20 20 30 20 20 30 20 20 30 20 20 30 20 20 30 20 20 30 20 20 30 20 20 30 20 20 30 20 20 30 20 20 30 20 20 30 20 20 30 20 20 30 20 20 30 20 20 30 20 20 30 20 20 30 20 20 30 20 20 30 20 20 30 20 20 30 20 20 30 20 20 30 20 20 30 20 20 30 20 20 30 0 100 255 0 100 255 0 100 255 0 100 255 0 100 255 0 100 255 0 100 255 0 100 255 0 100 255 0 100 255 0 100 255 0 100 255 0 100 255 0 100 255 0 100 255 0 100 255 0 100 255 0 100 255 0 100 255 0 100 255 0 100 255 0 100 255 0 100 255 0 100 255 0 100 255 0 100 255 0 100 255 0 100 255 0 100 255 0 100 255 0 100 255 0 100 255 0 100 255 0 100 255 0 100 255 0 100 255 0 100 255 0 100 255 0 100 255 0 100 255 0 100 255 0 100 255 0 100 255 0 100 255 0 100 255 0 100 255 0 100 255 0 100 255 0 100 255 0 100 255 0 100 255 0 100 255 0 100 255 0 100 255 0 100 255 0 100 255 0 100 255 0 100 255 0 100 255 0 100 255 0 100 255 0 100 255 0 100 255 0 100 255 0 100 255 0 100 255 0 100 255 0 100 255 0 100 255 0 100 255 20 20 30 20 20 30 20 20 30 20 20 30 20 20 30 20 20 30 20 20 30 20 20 30 20 20 30 20 20 30 20 20 30 20 20 30 20 20 30 20 20 30 20 20 30 20 20 30 20 20 30 20 20 30 20 20 30 20 20 30 20 20 30 20 20 30 20 20 30 20 20 30 20 20 30 20 20 30 20 20 30 20 20 30 20 20 30 20 20 30 20 20 30 20 20 30 20 20 30 20 20 30 20 20 30 20 20 30 20 20 30 20 20 30 20 20 30 20 20 30 255 100 100 255 100 100 255 100 100 255 100 100 255 100 100 255 100 100 255 100 100 255 100 100 255 100 100 255 100 100 255 100 100 255 100 100 255 100 100 255 100 100 255 100 100 255 100 100 255 100 100 255 100 100 255 100 100 255 100 100 255 100 100 255 100 100 255 100 100 255 100 100 255 100 100 255 100 100 255 100 100 255 100 100 255 100 100 255 100 100 255 100 100 255 100 100 255 100 100 255 100 100 255 100 100 255 100 100 255 100 100 255 100 100 255 100 100 255 100 100 255 100 100 255 100 100 255 100 100 255 100 100 255 100 100 255 100 100 255 100 100 255 100 100 255 100 100 255 100 100 255 100 100 255 100 100 255 100 100 255 100 100 255 100 100 255 100 100 255 100 100 255 100 100 255 100 100 255 100 100 20 20 30 20 20 30 20 20 30 20 20 30 20 20 30 20 20 30 20 20 30 20 20 30 20 20 30 20 20 30 20 20 30 20 20 30 20 20 30 20 20 30 20 20 30 20 20 30 20 20 30 20 20 30 20 20 30 20 20 30 20 20 30 20 20 30 20 20 30 20 20 30 20 20 30 20 20 30 20 20 30 20 20 30 20 20 30 20 20 30 20 20 30 20 20 30 20 20 30 20 20 30 20 20 30 20 20 30 20 20 30 20 20 30 20 20 30 20 20 30 20 20 30 20 20 30 20 20 30 20 20 30 20 20 30 20 20 30 
20 20 30 20 20 30 20 20 30 20 20 30 20 20 30 20 20 30 20 20 30 20 20 30 20 20 30 20 20 30 20 20 30 20 20 30 20 20 30 20 20 30 20 20 30 20 20 30 20 20 30 20 20 30 20 20 30 20 20 30 20 20 30 20 20 30 20 20 30 20 20 30 20 20 30 20 20 30 20 20 30 20 20 30 20 20 30 20 20 30 20 20 30 20 20 30 20 20 30 20 20 30 20 20 30 20 20 30 20 20 30 20 20 30 20 20 30 20 20 30 0 100 255 0 100 255 0 100 255 0 100 255 0 100 255 0 100 255 0 100 255 0 100 255 0 100 255 0 100 255 0 100 255 0 100 255 0 100 255 0 100 255 0 100 255 0 100 255 0 100 255 0 100 255 0 100 255 0 100 255 0 100 255 0 100 255 0 100 255 0 100 255 0 100 255 0 100 255 0 100 255 0 100 255 0 100 255 0 100 255 0 100 255 0 100 255 0 100 255 0 100 255 0 100 255 0 100 255 0 100 255 0 100 255 0 100 255 0 100 255 0 100 255 0 100 255 0 100 255 0 100 255 0 100 255 0 100 255 0 100 255 0 100 255 0 100 255 0 100 255 0 100 255 0 100 255 0 100 255 0 100 255 0 100 255 0 100 255 0 100 255 0 100 255 0 100 255 0 100 255 0 100 255 0 100 255 0 100 255 0 100 255 0 100 255 0 100 255 0 100 255 0 100 255 0 100 255 0 100 255 20 20 30 20 20 30 20 20 30 20 20 30 20 20 30 20 20 30 20 20 30 20 20 30 20 20 30 20 20 30 20 20 30 20 20 30 20 20 30 20 20 30 20 20 30 20 20 30 20 20 30 20 20 30 20 20 30 20 20 30 20 20 30 20 20 30 20 20 30 20 20 30 20 20 30 20 20 30 20 20 30 20 20 30 20 20 30 20 20 30 20 20 30 20 20 30 20 20 30 20 20 30 20 20 30 20 20 30 20 20 30 20 20 30 20 20 30 20 20 30 255 100 100 255 100 100 255 100 100 255 100 100 255 100 100 255 100 100 255 100 100 255 100 100 255 100 100 255 100 100 255 100 100 255 100 100 255 100 100 255 100 100 255 100 100 255 100 100 255 100 100 255 100 100 255 100 100 255 100 100 255 100 100 255 100 100 255 100 100 255 100 100 255 100 100 255 100 100 255 100 100 255 100 100 255 100 100 255 100 100 255 100 100 255 100 100 255 100 100 255 100 100 255 100 100 255 100 100 255 100 100 255 100 100 255 100 100 255 100 100 255 100 100 255 100 100 255 100 100 255 100 100 255 100 100 255 100 100 255 100 100 255 100 100 255 100 100 255 100 100 255 100 100 255 100 100 255 100 100 255 100 100 255 100 100 255 100 100 255 100 100 255 100 100 255 100 100 255 100 100 20 20 30 20 20 30 20 20 30 20 20 30 20 20 30 20 20 30 20 20 30 20 20 30 20 20 30 20 20 30 20 20 30 20 20 30 20 20 30 20 20 30 20 20 30 20 20 30 20 20 30 20 20 30 20 20 30 20 20 30 20 20 30 20 20 30 20 20 30 20 20 30 20 20 30 20 20 30 20 20 30 20 20 30 20 20 30 20 20 30 20 20 30 20 20 30 20 20 30 20 20 30 20 20 30 20 20 30 20 20 30 20 20 30 20 20 30 20 20 30 20 20 30 20 20 30 20 20 30 20 20 30 20 20 30 20 20 30 
20 20 30 20 20 30 20 20 30 20 20 30 20 20 30 20 20 30 20 20 30 20 20 30 20 20 30 20 20 30 20 20 30 20 20 30 20 20 30 20 20 30 20 20 30 20 20 30 20 20 30 20 20 30 20 20 30 20 20 30 20 20 30 20 20 30 20 20 30 20 20 30 20 20 30 20 20 30 20 20 30 20 20 30 20 20 30 20 20 30 20 20 30 20 20 30 20 20 30 20 20 30 20 20 30 20 20 30 20 20 30 20 20 30 20 20 30 20 20 30 0 100 255 0 100 255 0 100 255 0 100 255 0 100 255 0 100 255 0 100 255 0 100 255 0 100 255 0 100 255 0 100 255 0 100 255 0 100 255 0 100 255 0 100 255 0 100 255 0 100 255 0 100 255 0 100 255 0 100 255 0 100 255 0 100 255 0 100 255 0 100 255 0 100 255 0 100 255 0 100 255 0 100 255 0 100 255 0 100 255 0 100 255 0 100 255 0 100 255 0 100 255 0 100 255 0 100 255 0 100 255 0 100 255 0 100 255 0 100 255 0 100 255 0 100 255 0 100 255 0 100 255 0 100 255 0 100 255 0 100 255 0 100 255 0 100 255 0 100 255 0 100 255 0 100 255 0 100 255 0 100 255 0 100 255 0 100 255 0 100 255 0 100 255 0 100 255 0 100 255 0 100 255 0 100 255 0 100 255 0 100 255 0 100 255 0 100 255 0 100 255 0 100 255 0 100 255 0 100 255 20 20 30 20 20 30 20 20 30 20 20 30 20 20 30 20 20 30 20 20 30 20 20 30 20 20 30 20 20 30 20 20 30 20 20 30 20 20 30 20 20 30 20 20 30 20 20 30 20 20 30 20 20 30 20 20 30 20 20 30 20 20 30 20 20 30 20 20 30 20 20 30 20 20 30 20 20 30 20 20 30 20 20 30 20 20 30 20 20 30 20 20 30 20 20 30 20 20 30 20 20 30 20 20 30 20 20 30 20 20 30 20 20 30 20 20 30 20 20 30 255 100 100 255 100 100 255 100 100 255 100 100 255 100 100 255 100 100 255 100 100 255 100 100 255 100 100 255 100 100 255 100 100 255 100 100 255 100 100 255 100 100 255 100 100 255 100 100 255 100 100 255 100 100 255 100 100 255 100 100 255 100 100 255 100 100 255 100 100 255 100 100 255 100 100 255 100 100 255 100 100 255 100 100 255 100 100 255 100 100 255 100 100 255 100 100 255 100 100 255 100 100 255 100 100 255 100 100 255 100 100 255 100 100 255 100 100 255 100 100 255 100 100 255 100 100 255 100 100 255 100 100 255 100 100 255 100 100 255 100 100 255 100 100 255 100 100 255 100 100 255 100 100 255 100 100 255 100 100 255 100 100 255 100 100 255 100 100 255 100 100 255 100 100 255 100 100 255 100 100 20 20 30 20 20 30 20 20 30 20 20 30 20 20 30 20 20 30 20 20 30 20 20 30 20 20 30 20 20 30 20 20 30 20 20 30 20 20 30 20 20 30 20 20 30 20 20 30 20 20 30 20 20 30 20 20 30 20 20 30 20 20 30 20 20 30 20 20 30 20 20 30 20 20 30 20 20 30 20 20 30 20 20 30 20 20 30 20 20 30 20 20 30 20 20 30 20 20 30 20 20 30 20 20 30 20 20 30 20 20 30 20 20 30 20 20 30 20 20 30 20 20 30 20 20 30 20 20 30 20 20 30 20 20 30 20 20 30 
20 20 30 20 20 30 20 20 30 20 20 30 20 20 30 20 20 30 20 20 30 20 20 30 20 20 30 20 20 30 20 20 30 20 20 30 20 20 30 20 20 30 20 20 30 20 20 30 20 20 30 20 20 30 20 20 30 20 20 30 20 20 30 20 20 30 20 20 30 20 20 30 20 20 30 20 20 30 20 20 30 20 20 30 20 20 30 20 20 30 20 20 30 20 20 30 20 20 30 20 20 30 20 20 30 20 20 30 20 20 30 20 20 30 20 20 30 20 20 30 0 100 255 0 100 255 0 100 255 0 100 255 0 100 255 0 100 255 0 100 255 0 100 255 0 100 255 0 100 255 0 100 255 0 100 255 0 100 255 0 100 255 0 100 255 0 100 255 0 100 255 0 100 255 0 100 255 0 100 255 0 100 255 0 100 255 0 100 255 0 100 255 0 100 255 0 100 255 0 100 255 0 100 255 0 100 255 0 100 255 0 100 255 0 100 255 0 100 255 0 100 255 0 100 255 0 100 255 0 100 255 0 100 255 0 100 255 0 100 255 0 100 255 0 100 255 0 100 255 0 100 255 0 100 255 0 100 255 0 100 255 0 100 255 0 100 255 0 100 255 0 100 255 0 100 255 0 100 255 0 100 255 0 100 255 0 100 255 0 100 255 0 100 255 0 100 255 0 100 255 0 100 255 0 100 255 0 100 255 0 100 255 0 100 255 0 100 255 0 100 255 0 100 255 0 100 255 0 100 255 20 20 30 20 20 30 20 20 30 20 20 30 20 20 30 20 20 30 20 20 30 20 20 30 20 20 30 20 20 30 20 20 30 20 20 30 20 20 30 20 20 30 20 20 30 20 20 30 20 20 30 20 20 30 20 20 30 20 20 30 20 20 30 20 20 30 20 20 30 20 20 30 20 20 30 20 20 30 20 20 30 20 20 30 20 20 30 20 20 30 20 20 30 20 20 30 20 20 30 20 20 30 20 20 30 20 20 30 20 20 30 20 20 30 20 20 30 20 20 30 255 100 100 255 100 100 255 100 100 255 100 100 255 100 100 255 100 100 255 100 100 255 100 100 255 100 100 255 100 100 255 100 100 255 100 100 255 100 100 255 100 100 255 100 100 255 100 100 255 100 100 255 100 100 255 100 100 255 100 100 255 100 100 255 100 100 255 100 100 255 100 100 255 100 100 255 100 100 255 100 100 255 100 100 255 100 100 255 100 100 255 100 100 255 100 100 255 100 100 255 100 100 255 100 100 255 100 100 255 100 100 255 100 100 255 100 100 255 100 100 255 100 100 255 100 100 255 100 100 255 100 100 255 100 100 255 100 100 255 100 100 255 100 100 255 100 100 255 100 100 255 100 100 255 100 100 255 100 100 255 100 100 255 100 100 255 100 100 255 100 100 255 100 100 255 100 100 255 100 100 20 20 30 20 20 30 20 20 30 20 20 30 20 20 30 20 20 30 20 20 30 20 20 30 20 20 30 20 20 30 20 20 30 20 20 30 20 20 30 20 20 30 20 20 30 20 20 30 20 20 30 20 20 30 20 20 30 20 20 30 20 20 30 20 20 30 20 20 30 20 20 30 20 20 30 20 20 30 20 20 30 20 20 30 20 20 30 20 20 30 20 20 30 20 20 30 20 20 30 20 20 30 20 20 30 20 20 30 20 20 30 20 20 30 20 20 30 20 20 30 20 20 30 20 20 30 20 20 30 20 20 30 20 20 30 20 20 30 
20 20 30 20 20 30 20 20 30 20 20 30 20 20 30 20 20 30 20 20 30 20 20 30 20 20 30 20 20 30 20 20 30 20 20 30 20 20 30 20 20 30 20 20 30 20 20 30 20 20 30 20 20 30 20 20 30 20 20 30 20 20 30 20 20 30 20 20 30 20 20 30 20 20 30 20 20 30 20 20 30 20 20 30 20 20 30 20 20 30 20 20 30 20 20 30 20 20 30 20 20 30 20 20 30 20 20 30 20 20 30 20 20 30 20 20 30 20 20 30 0 100 255 0 100 255 0 100 255 0 100 255 0 100 255 0 100 255 0 100 255 0 100 255 0 100 255 0 100 255 0 100 255 0 100 255 0 100 255 0 100 255 0 100 255 0 100 255 0 100 255 0 100 255 0 100 255 0 100 255 0 100 255 0 100 255 0 100 255 0 100 255 0 100 255 0 100 255 0 100 255 0 100 255 0 100 255 0 100 255 0 100 255 0 100 255 0 100 255 0 100 255 0 100 255 0 100 255 0 100 255 0 100 255 0 100 255 0 100 255 0 100 255 0 100 255 0 100 255 0 100 255 0 100 255 0 100 255 0 100 255 0 100 255 0 100 255 0 100 255 0 100 255 0 100 255 0 100 255 0 100 255 0 100 255 0 100 255 0 100 255 0 100 255 0 100 255 0 100 255 0 100 255 0 100 255 0 100 255 0 100 255 0 100 255 0 100 255 0 100 255 0 100 255 0 100 255 0 100 255 20 20 30 20 20 30 20 20 30 20 20 30 20 20 30 20 20 30 20 20 30 20 20 30 20 20 30 20 20 30 20 20 30 20 20 30 20 20 30 20 20 30 20 20 30 20 20 30 20 20 30 20 20 30 20 20 30 20 20 30 20 20 30 20 20 30 20 20 30 20 20 30 20 20 30 20 20 30 20 20 30 20 20 30 20 20 30 20 20 30 20 20 30 20 20 30 20 20 30 20 20 30 20 20 30 20 20 30 20 20 30 20 20 30 20 20 30 20 20 30 255 100 100 255 100 100 255 100 100 255 100 100 255 100 100 255 100 100 255 100 100 255 100 100 255 100 100 255 100 100 255 100 100 255 100 100 255 100 100 255 100 100 255 100 100 255 100 100 255 100 100 255 100 100 255 100 100 255 100 100 255 100 100 255 100 100 255 100 100 255 100 100 255 100 100 255 100 100 255 100 100 255 100 100 255 100 100 255 100 100 255 100 100 255 100 100 255 100 100 255 100 100 255 100 100 255 100 100 255 100 100 255 100 100 255 100 100 255 100 100 255 100 100 255 100 100 255 100 100 255 100 100 255 100 100 255 100 100 255 100 100 255 100 100 255 100 100 255 100 100 255 100 100 255 100 100 255 100 100 255 100 100 255 100 100 255 100 100 255 100 100 255 100 100 255 100 100 255 100 100 20 20 30 20 20 30 20 20 30 20 20 30 20 20 30 20 20 30 20 20 30 20 20 30 20 20 30 20 20 30 20 20 30 20 20 30 20 20 30 20 20 30 20 20 30 20 20 30 20 20 30 20 20 30 20 20 30 20 20 30 20 20 30 20 20 30 20 20 30 20 20 30 20 20 30 20 20 30 20 20 30 20 20 30 20 20 30 20 20 30 20 20 30 20 20 30 20 20 30 20 20 30 20 20 30 20 20 30 20 20 30 20 20 30 20 20 30 20 20 30 20 20 30 20 20 30 20 20 30 20 20 30 20 20 30 20 20 30 
20 20 30 20 20 30 20 20 30 20 20 30 20 20 30 20 20 30 20 20 30 20 20 30 20 20 30 20 20 30 20 20 30 20 20 30 20 20 30 20 20 30 20 20 30 20 20 30 20 20 30 20 20 30 20 20 30 20 20 30 20 20 30 20 20 30 20 20 30 20 20 30 20 20 30 20 20 30 20 20 30 20 20 30 20 20 30 20 20 30 20 20 30 20 20 30 20 20 30 20 20 30 20 20 30 20 20 30 20 20 30 20 20 30 20 20 30 20 20 30 0 100 255 0 100 255 0 100 255 0 100 255 0 100 255 0 100 255 0 100 255 0 100 255 0 100 255 0 100 255 0 100 255 0 100 255 0 100 255 0 100 255 0 100 255 0 100 255 0 100 255 0 100 255 0 100 255 0 100 255 0 100 255 0 100 255 0 100 255 0 100 255 0 100 255 0 100 255 0 100 255 0 100 255 0 100 255 0 100 255 0 100 255 0 100 255 0 100 255 0 100 255 0 100 255 0 100 255 0 100 255 0 100 255 0 100 255 0 100 255 0 100 255 0 100 255 0 100 255 0 100 255 0 100 255 0 100 255 0 100 255 0 100 255 0 100 255 0 100 255 0 100 255 0 100 255 0 100 255 0 100 255 0 100 255 0 100 255 0 100 255 0 100 255 0 100 255 0 100 255 0 100 255 0 100 255 0 100 255 0 100 255 0 100 255 0 100 255 0 100 255 0 100 255 0 100 255 0 100 255 20 20 30 20 20 30 20 20 30 20 20 30 20 20 30 20 20 30 20 20 30 20 20 30 20 20 30 20 20 30 20 20 30 20 20 30 20 20 30 20 20 30 20 20 30 20 20 30 20 20 30 20 20 30 20 20 30 20 20 30 20 20 30 20 20 30 20 20 30 20 20 30 20 20 30 20 20 30 20 20 30 20 20 30 20 20 30 20 20 30 20 20 30 20 20 30 20 20 30 20 20 30 20 20 30 20 20 30 20 20 30 20 20 30 20 20 30 20 20 30 255 100 100 255 100 100 255 100 100 255 100 100 255 100 100 255 100 100 255 100 100 255 100 100 255 100 100 255 100 100 255 100 100 255 100 100 255 100 100 255 100 100 255 100 100 255 100 100 255 100 100 255 100 100 255 100 100 255 100 100 255 100 100 255 100 100 255 100 100 255 100 100 255 100 100 255 100 100 255 100 100 255 100 100 255 100 100 255 100 100 255 100 100 255 100 100 255 100 100 255 100 100 255 100 100 255 100 100 255 100 100 255 100 100 255 100 100 255 100 100 255 100 100 255 100 100 255 100 100 255 100 100 255 100 100 255 100 100 255 100 100 255 100 100 255 100 100 255 100 100 255 100 100 255 100 100 255 100 100 255 100 100 255 100 100 255 100 100 255 100 100 255 100 100 255 100 100 255 100 100 20 20 30 20 20 30 20 20 30 20 20 30 20 20 30 20 20 30 20 20 30 20 20 30 20 20 30 20 20 30 20 20 30 20 20 30 20 20 30 20 20 30 20 20 30 20 20 30 20 20 30 20 20 30 20 20 30 20 20 30 20 20 30 20 20 30 20 20 30 20 20 30 20 20 30 20 20 30 20 20 30 20 20 30 20 20 30 20 20 30 20 20 30 20 20 30 20 20 30 20 20 30 20 20 30 20 20 30 20 20 30 20 20 30 20 20 30 20 20 30 20 20 30 20 20 30 20 20 30 20 20 30 20 20 30 20 20 30 
20 20 30 20 20 30 20 20 30 20 20 30 20 20 30 20 20 30 20 20 30 20 20 30 20 20 30 20 20 30 20 20 30 20 20 30 20 20 30 20 20 30 20 20 30 20 20 30 20 20 30 20 20 30 20 20 30 20 20 30 20 20 30 20 20 30 20 20 30 20 20 30 20 20 30 20 20 30 20 20 30 20 20 30 20 20 30 20 20 30 20 20 30 20 20 30 20 20 30 20 20 30 20 20 30 20 20 30 20 20 30 20 20 30 20 20 30 20 20 30 0 100 255 0 100 255 0 100 255 0 100 255 0 100 255 0 100 255 0 100 255 0 100 255 0 100 255 0 100 255 0 100 255 0 100 255 0 100 255 0 100 255 0 100 255 0 100 255 0 100 255 0 100 255 0 100 255 0 100 255 0 100 255 0 100 255 0 100 255 0 100 255 0 100 255 0 100 255 0 100 255 0 100 255 0 100 255 0 100 255 0 100 255 0 100 255 0 100 255 0 100 255 0 100 255 0 100 255 0 100 255 0 100 255 0 100 255 0 100 255 0 100 255 0 100 255 0 100 255 0 100 255 0 100 255 0 100 255 0 100 255 0 100 255 0 100 255 0 100 255 0 100 255 0 100 255 0 100 255 0 100 255 0 100 255 0 100 255 0 100 255 0 100 255 0 100 255 0 100 255 0 100 255 0 100 255 0 100 255 0 100 255 0 100 255 0 100 255 0 100 255 0 100 255 0 100 255 0 100 255 20 20 30 20 20 30 20 20 30 20 20 30 20 20 30 20 20 30 20 20 30 20 20 30 20 20 30 20 20 30 20 20 30 20 20 30 20 20 30 20 20 30 20 20 30 20 20 30 20 20 30 20 20 30 20 20 30 20 20 30 20 20 30 20 20 30 20 20 30 20 20 30 20 20 30 20 20 30 20 20 30 20 20 30 20 20 30 20 20 30 20 20 30 20 20 30 20 20 30 20 20 30 20 20 30 20 20 30 20 20 30 20 20 30 20 20 30 20 20 30 255 100 100 255 100 100 255 100 100 255 100 100 255 100 100 255 100 100 255 100 100 255 100 100 255 100 100 255 100 100 255 100 100 255 100 100 255 100 100 255 100 100 255 100 100 255 100 100 255 100 100 255 100 100 255 100 100 255 100 100 255 100 100 255 100 100 255 100 100 255 100 100 255 100 100 255 100 100 255 100 100 255 100 100 255 100 100 255 100 100 255 100 100 255 100 100 255 100 100 255 100 100 255 100 100 255 100 100 255 100 100 255 100 100 255 100 100 255 100 100 255 100 100 255 100 100 255 100 100 255 100 100 255 100 100 255 100 100 255 100 100 255 100 100 255 100 100 255 100 100 255 100 100 255 100 100 255 100 100 255 100 100 255 100 100 255 100 100 255 100 100 255 100 100 255 100 100 255 100 100 20 20 30 20 20 30 20 20 30 20 20 30 20 20 30 20 20 30 20 20 30 20 20 30 20 20 30 20 20 30 20 20 30 20 20 30 20 20 30 20 20 30 20 20 30 20 20 30 20 20 30 20 20 30 20 20 30 20 20 30 20 20 30 20 20 30 20 20 30 20 20 30 20 20 30 20 20 30 20 20 30 20 20 30 20 20 30 20 20 30 20 20 30 20 20 30 20 20 30 20 20 30 20 20 30 20 20 30 20 20 30 20 20 30 20 20 30 20 20 30 20 20 30 20 20 30 20 20 30 20 20 30 20 20 30 20 20 30 
20 20 30 20 20 30 20 20 30 20 20 30 20 20 30 20 20 30 20 20 30 20 20 30 20 20 30 20 20 30 20 20 30 20 20 30 20 20 30 20 20 30 20 20 30 20 20 30 20 20 30 20 20 30 20 20 30 20 20 30 20 20 30 20 20 30 20 20 30 20 20 30 20 20 30 20 20 30 20 20 30 20 20 30 20 20 30 20 20 30 20 20 30 20 20 30 20 20 30 20 20 30 20 20 30 20 20 30 20 20 30 20 20 30 20 20 30 20 20 30 0 100 255 0 100 255 0 100 255 0 100 255 0 100 255 0 100 255 0 100 255 0 100 255 0 100 255 0 100 255 0 100 255 0 100 255 0 100 255 0 100 255 0 100 255 0 100 255 0 100 255 0 100 255 0 100 255 0 100 255 0 100 255 0 100 255 0 100 255 0 100 255 0 100 255 0 100 255 0 100 255 0 100 255 0 100 255 0 100 255 0 100 255 0 100 255 0 100 255 0 100 255 0 100 255 0 100 255 0 100 255 0 100 255 0 100 255 0 100 255 0 100 255 0 100 255 0 100 255 0 100 255 0 100 255 0 100 255 0 100 255 0 100 255 0 100 255 0 100 255 0 100 255 0 100 255 0 100 255 0 100 255 0 100 255 0 100 255 0 100 255 0 100 255 0 100 255 0 100 255 0 100 255 0 100 255 0 100 255 0 100 255 0 100 255 0 100 255 0 100 255 0 100 255 0 100 255 0 100 255 20 20 30 20 20 30 20 20 30 20 20 30 20 20 30 20 20 30 20 20 30 20 20 30 20 20 30 20 20 30 20 20 30 20 20 30 20 20 30 20 20 30 20 20 30 20 20 30 20 20 30 20 20 30 20 20 30 20 20 30 20 20 30 20 20 30 20 20 30 20 20 30 20 20 30 20 20 30 20 20 30 20 20 30 20 20 30 20 20 30 20 20 30 20 20 30 20 20 30 20 20 30 20 20 30 20 20 30 20 20 30 20 20 30 20 20 30 20 20 30 255 100 100 255 100 100 255 100 100 255 100 100 255 100 100 255 100 100 255 100 100 255 100 100 255 100 100 255 100 100 255 100 100 255 100 100 255 100 100 255 100 100 255 100 100 255 100 100 255 100 100 255 100 100 255 100 100 255 100 100 255 100 100 255 100 100 255 100 100 255 100 100 255 100 100 255 100 100 255 100 100 255 100 100 255 100 100 255 100 100 255 100 100 255 100 100 255 100 100 255 100 100 255 100 100 255 100 100 255 100 100 255 100 100 255 100 100 255 100 100 255 100 100 255 100 100 255 100 100 255 100 100 255 100 100 255 100 100 255 100 100 255 100 100 255 100 100 255 100 100 255 100 100 255 100 100 255 100 100 255 100 100 255 100 100 255 100 100 255 100 100 255 100 100 255 100 100 255 100 100 20 20 30 20 20 30 20 20 30 20 20 30 20 20 30 20 20 30 20 20 30 20 20 30 20 20 30 20 20 30 20 20 30 20 20 30 20 20 30 20 20 30 20 20 30 20 20 30 20 20 30 20 20 30 20 20 30 20 20 30 20 20 30 20 20 30 20 20 30 20 20 30 20 20 30 20 20 30 20 20 30 20 20 30 20 20 30 20 20 30 20 20 30 20 20 30 20 20 30 20 20 30 20 20 30 20 20 30 20 20 30 20 20 30 20 20 30 20 20 30 20 20 30 20 20 30 20 20 30 20 20 30 20 20 30 20 20 30 
20 20 30 20 20 30 20 20 30 20 20 30 20 20 30 20 20 30 20 20 30 20 20 30 20 20 30 20 20 30 20 20 30 20 20 30 20 20 30 20 20 30 20 20 30 20 20 30 20 20 30 20 20 30 20 20 30 20 20 30 20 20 30 20 20 30 20 20 30 20 20 30 20 20 30 20 20 30 20 20 30 20 20 30 20 20 30 20 20 30 20 20 30 20 20 30 20 20 30 20 20 30 20 20 30 20 20 30 20 20 30 20 20 30 20 20 30 20 20 30 0 100 255 0 100 255 0 100 255 0 100 255 0 100 255 0 100 255 0 100 255 0 100 255 0 100 255 0 100 255 0 100 255 0 100 255 0 100 255 0 100 255 0 100 255 0 100 255 0 100 255 0 100 255 0 100 255 0 100 255 0 100 255 0 100 255 0 100 255 0 100 255 0 100 255 0 100 255 0 100 255 0 100 255 0 100 255 0 100 255 0 100 255 0 100 255 0 100 255 0 100 255 0 100 255 0 100 255 0 100 255 0 100 255 0 100 255 0 100 255 0 100 255 0 100 255 0 100 255 0 100 255 0 100 255 0 100 255 0 100 255 0 100 255 0 100 255 0 100 255 0 100 255 0 100 255 0 100 255 0 100 255 0 100 255 0 100 255 0 100 255 0 100 255 0 100 255 0 100 255 0 100 255 0 100 255 0 100 255 0 100 255 0 100 255 0 100 255 0 100 255 0 100 255 0 100 255 0 100 255 20 20 30 20 20 30 20 20 30 20 20 30 20 20 30 20 20 30 20 20 30 20 20 30 20 20 30 20 20 30 20 20 30 20 20 30 20 20 30 20 20 30 20 20 30 20 20 30 20 20 30 20 20 30 20 20 30 20 20 30 20 20 30 20 20 30 20 20 30 20 20 30 20 20 30 20 20 30 20 20 30 20 20 30 20 20 30 20 20 30 20 20 30 20 20 30 20 20 30 20 20 30 20 20 30 20 20 30 20 20 30 20 20 30 20 20 30 20 20 30 255 100 100 255 100 100 255 100 100 255 100 100 255 100 100 255 100 100 255 100 100 255 100 100 255 100 100 255 100 100 255 100 100 255 100 100 255 100 100 255 100 100 255 100 100 255 100 100 255 100 100 255 100 100 255 100 100 255 100 100 255 100 100 255 100 100 255 100 100 255 100 100 255 100 100 255 100 100 255 100 100 255 100 100 255 100 100 255 100 100 255 100 100 255 100 100 255 100 100 255 100 100 255 100 100 255 100 100 255 100 100 255 100 100 255 100 100 255 100 100 255 100 100 255 100 100 255 100 100 255 100 100 255 100 100 255 100 100 255 100 100 255 100 100 255 100 100 255 100 100 255 100 100 255 100 100 255 100 100 255 100 100 255 100 100 255 100 100 255 100 100 255 100 100 255 100 100 255 100 100 20 20 30 20 20 30 20 20 30 20 20 30 20 20 30 20 20 30 20 20 30 20 20 30 20 20 30 20 20 30 20 20 30 20 20 30 20 20 30 20 20 30 20 20 30 20 20 30 20 20 30 20 20 30 20 20 30 20 20 30 20 20 30 20 20 30 20 20 30 20 20 30 20 20 30 20 20 30 20 20 30 20 20 30 20 20 30 20 20 30 20 20 30 20 20 30 20 20 30 20 20 30 20 20 30 20 20 30 20 20 30 20 20 30 20 20 30 20 20 30 20 20 30 20 20 30 20 20 30 20 20 30 20 20 30 20 20 30 
20 20 30 20 20 30 20 20 30 20 20 30 20 20 30 20 20 30 20 20 30 20 20 30 20 20 30 20 20 30 20 20 30 20 20 30 20 20 30 20 20 30 20 20 30 20 20 30 20 20 30 20 20 30 20 20 30 20 20 30 20 20 30 20 20 30 20 20 30 20 20 30 20 20 30 20 20 30 20 20 30 20 20 30 20 20 30 20 20 30 20 20 30 20 20 30 20 20 30 20 20 30 20 20 30 20 20 30 20 20 30 20 20 30 20 20 30 20 20 30 0 100 255 0 100 255 0 100 255 0 100 255 0 100 255 0 100 255 0 100 255 0 100 255 0 100 255 0 100 255 0 100 255 0 100 255 0 100 255 0 100 255 0 100 255 0 100 255 0 100 255 0 100 255 0 100 255 0 100 255 0 100 255 0 100 255 0 100 255 0 100 255 0 100 255 0 100 255 0 100 255 0 100 255 0 100 255 0 100 255 0 100 255 0 100 255 0 100 255 0 100 255 0 100 255 0 100 255 0 100 255 0 100 255 0 100 255 0 100 255 0 100 255 0 100 255 0 100 255 0 100 255 0 100 255 0 100 255 0 100 255 0 100 255 0 100 255 0 100 255 0 100 255 0 100 255 0 100 255 0 100 255 0 100 255 0 100 255 0 100 255 0 100 255 0 100 255 0 100 255 0 100 255 0 100 255 0 100 255 0 100 255 0 100 255 0 100 255 0 100 255 0 100 255 0 100 255 0 100 255 20 20 30 20 20 30 20 20 30 20 20 30 20 20 30 20 20 30 20 20 30 20 20 30 20 20 30 20 20 30 20 20 30 20 20 30 20 20 30 20 20 30 20 20 30 20 20 30 20 20 30 20 20 30 20 20 30 20 20 30 20 20 30 20 20 30 20 20 30 20 20 30 20 20 30 20 20 30 20 20 30 20 20 30 20 20 30 20 20 30 20 20 30 20 20 30 20 20 30 20 20 30 20 20 30 20 20 30 20 20 30 20 20 30 20 20 30 20 20 30 255 100 100 255 100 100 255 100 100 255 100 100 255 100 100 255 100 100 255 100 100 255 100 100 255 100 100 255 100 100 255 100 100 255 100 100 255 100 100 255 100 100 255 100 100 255 100 100 255 100 100 255 100 100 255 100 100 255 100 100 255 100 100 255 100 100 255 100 100 255 100 100 255 100 100 255 100 100 255 100 100 255 100 100 255 100 100 255 100 100 255 100 100 255 100 100 255 100 100 255 100 100 255 100 100 255 100 100 255 100 100 255 100 100 255 100 100 255 100 100 255 100 100 255 100 100 255 100 100 255 100 100 255 100 100 255 100 100 255 100 100 255 100 100 255 100 100 255 100 100 255 100 100 255 100 100 255 100 100 255 100 100 255 100 100 255 100 100 255 100 100 255 100 100 255 100 100 255 100 100 20 20 30 20 20 30 20 20 30 20 20 30 20 20 30 20 20 30 20 20 30 20 20 30 20 20 30 20 20 30 20 20 30 20 20 30 20 20 30 20 20 30 20 20 30 20 20 30 20 20 30 20 20 30 20 20 30 20 20 30 20 20 30 20 20 30 20 20 30 20 20 30 20 20 30 20 20 30 20 20 30 20 20 30 20 20 30 20 20 30 20 20 30 20 20 30 20 20 30 20 20 30 20 20 30 20 20 30 20 20 30 20 20 30 20 20 30 20 20 30 20 20 30 20 20 30 20 20 30 20 20 30 20 20 30 20 20 30 
20 20 30 20 20 30 20 20 30 20 20 30 20 20 30 20 20 30 20 20 30 20 20 30 20 20 30 20 20 30 20 20 30 20 20 30 20 20 30 20 20 30 20 20 30 20 20 30 20 20 30 20 20 30 20 20 30 20 20 30 20 20 30 20 20 30 20 20 30 20 20 30 20 20 30 20 20 30 20 20 30 20 20 30 20 20 30 20 20 30 20 20 30 20 20 30 20 20 30 20 20 30 20 20 30 20 20 30 20 20 30 20 20 30 20 20 30 20 20 30 0 100 255 0 100 255 0 100 255 0 100 255 0 100 255 0 100 255 0 100 255 0 100 255 0 100 255 0 100 255 0 100 255 0 100 255 0 100 255 0 100 255 0 100 255 0 100 255 0 100 255 0 100 255 0 100 255 0 100 255 0 100 255 0 100 255 0 100 255 0 100 255 0 100 255 0 100 255 0 100 255 0 100 255 0 100 255 0 100 255 0 100 255 0 100 255 0 100 255 0 100 255 0 100 255 0 100 255 0 100 255 0 100 255 0 100 255 0 100 255 0 100 255 0 100 255 0 100 255 0 100 255 0 100 255 0 100 255 0 100 255 0 100 255 0 100 255 0 100 255 0 100 255 0 100 255 0 100 255 0 100 255 0 100 255 0 100 255 0 100 255 0 100 255 0 100 255 0 100 255 0 100 255 0 100 255 0 100 255 0 100 255 0 100 255 0 100 255 0 100 255 0 100 255 0 100 255 0 100 255 20 20 30 20 20 30 20 20 30 20 20 30 20 20 30 20 20 30 20 20 30 20 20 30 20 20 30 20 20 30 20 20 30 20 20 30 20 20 30 20 20 30 20 20 30 20 20 30 20 20 30 20 20 30 20 20 30 20 20 30 20 20 30 20 20 30 20 20 30 20 20 30 20 20 30 20 20 30 20 20 30 20 20 30 20 20 30 20 20 30 20 20 30 20 20 30 20 20 30 20 20 30 20 20 30 20 20 30 20 20 30 20 20 30 20 20 30 20 20 30 255 100 100 255 100 100 255 100 100 255 100 100 255 100 100 255 100 100 255 100 100 255 100 100 255 100 100 255 100 100 255 100 100 255 100 100 255 100 100 255 100 100 255 100 100 255 100 100 255 100 100 255 100 100 255 100 100 255 100 100 255 100 100 255 100 100 255 100 100 255 100 100 255 100 100 255 100 100 255 100 100 255 100 100 255 100 100 255 100 100 255 100 100 255 100 100 255 100 100 255 100 100 255 100 100 255 100 100 255 100 100 255 100 100 255 100 100 255 100 100 255 100 100 255 100 100 255 100 100 255 100 100 255 100 100 255 100 100 255 100 100 255 100 100 255 100 100 255 100 100 255 100 100 255 100 100 255 100 100 255 100 100 255 100 100 255 100 100 255 100 100 255 100 100 255 100 100 255 100 100 20 20 30 20 20 30 20 20 30 20 20 30 20 20 30 20 20 30 20 20 30 20 20 30 20 20 30 20 20 30 20 20 30 20 20 30 20 20 30 20 20 30 20 20 30 20 20 30 20 20 30 20 20 30 20 20 30 20 20 30 20 20 30 20 20 30 20 20 30 20 20 30 20 20 30 20 20 30 20 20 30 20 20 30 20 20 30 20 20 30 20 20 30 20 20 30 20 20 30 20 20 30 20 20 30 20 20 30 20 20 30 20 20 30 20 20 30 20 20 30 20 20 30 20 20 30 20 20 30 20 20 30 20 20 30 20 20 30 
20 20 30 20 20 30 20 20 30 20 20 30 20 20 30 20 20 30 20 20 30 20 20 30 20 20 30 20 20 30 20 20 30 20 20 30 20 20 30 20 20 30 20 20 30 20 20 30 20 20 30 20 20 30 20 20 30 20 20 30 20 20 30 20 20 30 20 20 30 20 20 30 20 20 30 20 20 30 20 20 30 20 20 30 20 20 30 20 20 30 20 20 30 20 20 30 20 20 30 20 20 30 20 20 30 20 20 30 20 20 30 20 20 30 20 20 30 20 20 30 0 100 255 0 100 255 0 100 255 0 100 255 0 100 255 0 100 255 0 100 255 0 100 255 0 100 255 0 100 255 0 100 255 0 100 255 0 100 255 0 100 255 0 100 255 0 100 255 0 100 255 0 100 255 0 100 255 0 100 255 0 100 255 0 100 255 0 100 255 0 100 255 0 100 255 0 100 255 0 100 255 0 100 255 0 100 255 0 100 255 0 100 255 0 100 255 0 100 255 0 100 255 0 100 255 0 100 255 0 100 255 0 100 255 0 100 255 0 100 255 0 100 255 0 100 255 0 100 255 0 100 255 0 100 255 0 100 255 0 100 255 0 100 255 0 100 255 0 100 255 0 100 255 0 100 255 0 100 255 0 100 255 0 100 255 0 100 255 0 100 255 0 100 255 0 100 255 0 100 255 0 100 255 0 100 255 0 100 255 0 100 255 0 100 255 0 100 255 0 100 255 0 100 255 0 100 255 0 100 255 20 20 30 20 20 30 20 20 30 20 20 30 20 20 30 20 20 30 20 20 30 20 20 30 20 20 30 20 20 30 20 20 30 20 20 30 20 20 30 20 20 30 20 20 30 20 20 30 20 20 30 20 20 30 20 20 30 20 20 30 20 20 30 20 20 30 20 20 30 20 20 30 20 20 30 20 20 30 20 20 30 20 20 30 20 20 30 20 20 30 20 20 30 20 20 30 20 20 30 20 20 30 20 20 30 20 20 30 20 20 30 20 20 30 20 20 30 20 20 30 255 100 100 255 100 100 255 100 100 255 100 100 255 100 100 255 100 100 255 100 100 255 100 100 255 100 100 255 100 100 255 100 100 255 100 100 255 100 100 255 100 100 255 100 100 255 100 100 255 100 100 255 100 100 255 100 100 255 100 100 255 100 100 255 100 100 255 100 100 255 100 100 255 100 100 255 100 100 255 100 100 255 100 100 255 100 100 255 100 100 255 100 100 255 100 100 255 100 100 255 100 100 255 100 100 255 100 100 255 100 100 255 100 100 255 100 100 255 100 100 255 100 100 255 100 100 255 100 100 255 100 100 255 100 100 255 100 100 255 100 100 255 100 100 255 100 100 255 100 100 255 100 100 255 100 100 255 100 100 255 100 100 255 100 100 255 100 100 255 100 100 255 100 100 255 100 100 255 100 100 20 20 30 20 20 30 20 20 30 20 20 30 20 20 30 20 20 30 20 20 30 20 20 30 20 20 30 20 20 30 20 20 30 20 20 30 20 20 30 20 20 30 20 20 30 20 20 30 20 20 30 20 20 30 20 20 30 20 20 30 20 20 30 20 20 30 20 20 30 20 20 30 20 20 30 20 20 30 20 20 30 20 20 30 20 20 30 20 20 30 20 20 30 20 20 30 20 20 30 20 20 30 20 20 30 20 20 30 20 20 30 20 20 30 20 20 30 20 20 30 20 20 30 20 20 30 20 20 30 20 20 30 20 20 30 20 20 30 
20 20 30 20 20 30 20 20 30 20 20 30 20 20 30 20 20 30 20 20 30 20 20 30 20 20 30 20 20 30 20 20 30 20 20 30 20 20 30 20 20 30 20 20 30 20 20 30 20 20 30 20 20 30 20 20 30 20 20 30 20 20 30 20 20 30 20 20 30 20 20 30 20 20 30 20 20 30 20 20 30 20 20 30 20 20 30 20 20 30 20 20 30 20 20 30 20 20 30 20 20 30 20 20 30 20 20 30 20 20 30 20 20 30 20 20 30 20 20 30 0 100 255 0 100 255 0 100 255 0 100 255 0 100 255 0 100 255 0 100 255 0 100 255 0 100 255 0 100 255 0 100 255 0 100 255 0 100 255 0 100 255 0 100 255 0 100 255 0 100 255 0 100 255 0 100 255 0 100 255 0 100 255 0 100 255 0 100 255 0 100 255 0 100 255 0 100 255 0 100 255 0 100 255 0 100 255 0 100 255 0 100 255 0 100 255 0 100 255 0 100 255 0 100 255 0 100 255 0 100 255 0 100 255 0 100 255 0 100 255 0 100 255 0 100 255 0 100 255 0 100 255 0 100 255 0 100 255 0 100 255 0 100 255 0 100 255 0 100 255 0 100 255 0 100 255 0 100 255 0 100 255 0 100 255 0 100 255 0 100 255 0 100 255 0 100 255 0 100 255 0 100 255 0 100 255 0 100 255 0 100 255 0 100 255 0 100 255 0 100 255 0 100 255 0 100 255 0 100 255 20 20 30 20 20 30 20 20 30 20 20 30 20 20 30 20 20 30 20 20 30 20 20 30 20 20 30 20 20 30 20 20 30 20 20 30 20 20 30 20 20 30 20 20 30 20 20 30 20 20 30 20 20 30 20 20 30 20 20 30 20 20 30 20 20 30 20 20 30 20 20 30 20 20 30 20 20 30 20 20 30 20 20 30 20 20 30 20 20 30 20 20 30 20 20 30 20 20 30 20 20 30 20 20 30 20 20 30 20 20 30 20 20 30 20 20 30 20 20 30 255 100 100 255 100 100 255 100 100 255 100 100 255 100 100 255 100 100 255 100 100 255 100 100 255 100 100 255 100 100 255 100 100 255 100 100 255 100 100 255 100 100 255 100 100 255 100 100 255 100 100 255 100 100 255 100 100 255 100 100 255 100 100 255 100 100 255 100 100 255 100 100 255 100 100 255 100 100 255 100 100 255 100 100 255 100 100 255 100 100 255 100 100 255 100 100 255 100 100 255 100 100 255 100 100 255 100 100 255 100 100 255 100 100 255 100 100 255 100 100 255 100 100 255 100 100 255 100 100 255 100 100 255 100 100 255 100 100 255 100 100 255 100 100 255 100 100 255 100 100 255 100 100 255 100 100 255 100 100 255 100 100 255 100 100 255 100 100 255 100 100 255 100 100 255 100 100 255 100 100 20 20 30 20 20 30 20 20 30 20 20 30 20 20 30 20 20 30 20 20 30 20 20 30 20 20 30 20 20 30 20 20 30 20 20 30 20 20 30 20 20 30 20 20 30 20 20 30 20 20 30 20 20 30 20 20 30 20 20 30 20 20 30 20 20 30 20 20 30 20 20 30 20 20 30 20 20 30 20 20 30 20 20 30 20 20 30 20 20 30 20 20 30 20 20 30 20 20 30 20 20 30 20 20 30 20 20 30 20 20 30 20 20 30 20 20 30 20 20 30 20 20 30 20 20 30 20 20 30 20 20 30 20 20 30 20 20 30 
20 20 30 20 20 30 20 20 30 20 20 30 20 20 30 20 20 30 20 20 30 20 20 30 20 20 30 20 20 30 20 20 30 20 20 30 20 20 30 20 20 30 20 20 30 20 20 30 20 20 30 20 20 30 20 20 30 20 20 30 20 20 30 20 20 30 20 20 30 20 20 30 20 20 30 20 20 30 20 20 30 20 20 30 20 20 30 20 20 30 20 20 30 20 20 30 20 20 30 20 20 30 20 20 30 20 20 30 20 20 30 20 20 30 20 20 30 20 20 30 0 100 255 0 100 255 0 100 255 0 100 255 0 100 255 0 100 255 0 100 255 0 100 255 0 100 255 0 100 255 0 100 255 0 100 255 0 100 255 0 100 255 0 100 255 0 100 255 0 100 255 0 100 255 0 100 255 0 100 255 0 100 255 0 100 255 0 100 255 0 100 255 0 100 255 0 100 255 0 100 255 0 100 255 0 100 255 0 100 255 0 100 255 0 100 255 0 100 255 0 100 255 0 100 255 0 100 255 0 100 255 0 100 255 0 100 255 0 100 255 0 100 255 0 100 255 0 100 255 0 100 255 0 100 255 0 100 255 0 100 255 0 100 255 0 100 255 0 100 255 0 100 255 0 100 255 0 100 255 0 100 255 0 100 255 0 100 255 0 100 255 0 100 255 0 100 255 0 100 255 0 100 255 0 100 255 0 100 255 0 100 255 0 100 255 0 100 255 0 100 255 0 100 255 0 100 255 0 100 255 20 20 30 20 20 30 20 20 30 20 20 30 20 20 30 20 20 30 20 20 30 20 20 30 20 20 30 20 20 30 20 20 30 20 20 30 20 20 30 20 20 30 20 20 30 20 20 30 20 20 30 20 20 30 20 20 30 20 20 30 20 20 30 20 20 30 20 20 30 20 20 30 20 20 30 20 20 30 20 20 30 20 20 30 20 20 30 20 20 30 20 20 30 20 20 30 20 20 30 20 20 30 20 20 30 20 20 30 20 20 30 20 20 30 20 20 30 20 20 30 255 100 100 255 100 100 255 100 100 255 100 100 255 100 100 255 100 100 255 100 100 255 100 100 255 100 100 255 100 100 255 100 100 255 100 100 255 100 100 255 100 100 255 100 100 255 100 100 255 100 100 255 100 100 255 100 100 255 100 100 255 100 100 255 100 100 255 100 100 255 100 100 255 100 100 255 100 100 255 100 100 255 100 100 255 100 100 255 100 100 255 100 100 255 100 100 255 100 100 255 100 100 255 100 100 255 100 100 255 100 100 255 100 100 255 100 100 255 100 100 255 100 100 255 100 100 255 100 100 255 100 100 255 100 100 255 100 100 255 100 100 255 100 100 255 100 100 255 100 100 255 100 100 255 100 100 255 100 100 255 100 100 255 100 100 255 100 100 255 100 100 255 100 100 255 100 100 255 100 100 20 20 30 20 20 30 20 20 30 20 20 30 20 20 30 20 20 30 20 20 30 20 20 30 20 20 30 20 20 30 20 20 30 20 20 30 20 20 30 20 20 30 20 20 30 20 20 30 20 20 30 20 20 30 20 20 30 20 20 30 20 20 30 20 20 30 20 20 30 20 20 30 20 20 30 20 20 30 20 20 30 20 20 30 20 20 30 20 20 30 20 20 30 20 20 30 20 20 30 20 20 30 20 20 30 20 20 30 20 20 30 20 20 30 20 20 30 20 20 30 20 20 30 20 20 30 20 20 30 20 20 30 20 20 30 20 20 30 
20 20 30 20 20 30 20 20 30 20 20 30 20 20 30 20 20 30 20 20 30 20 20 30 20 20 30 20 20 30 20 20 30 20 20 30 20 20 30 20 20 30 20 20 30 20 20 30 20 20 30 20 20 30 20 20 30 20 20 30 20 20 30 20 20 30 20 20 30 20 20 30 20 20 30 20 20 30 20 20 30 20 20 30 20 20 30 20 20 30 20 20 30 20 20 30 20 20 30 20 20 30 20 20 30 20 20 30 20 20 30 20 20 30 20 20 30 20 20 30 0 100 255 0 100 255 0 100 255 0 100 255 0 100 255 0 100 255 0 100 255 0 100 255 0 100 255 0 100 255 0 100 255 0 100 255 0 100 255 0 100 255 0 100 255 0 100 255 0 100 255 0 100 255 0 100 255 0 100 255 0 100 255 0 100 255 0 100 255 0 100 255 0 100 255 0 100 255 0 100 255 0 100 255 0 100 255 0 100 255 0 100 255 0 100 255 0 100 255 0 100 255 0 100 255 0 100 255 0 100 255 0 100 255 0 100 255 0 100 255 0 100 255 0 100 255 0 100 255 0 100 255 0 100 255 0 100 255 0 100 255 0 100 255 0 100 255 0 100 255 0 100 255 0 100 255 0 100 255 0 100 255 0 100 255 0 100 255 0 100 255 0 100 255 0 100 255 0 100 255 0 100 255 0 100 255 0 100 255 0 100 255 0 100 255 0 100 255 0 100 255 0 100 255 0 100 255 0 100 255 20 20 30 20 20 30 20 20 30 20 20 30 20 20 30 20 20 30 20 20 30 20 20 30 20 20 30 20 20 30 20 20 30 20 20 30 20 20 30 20 20 30 20 20 30 20 20 30 20 20 30 20 20 30 20 20 30 20 20 30 20 20 30 20 20 30 20 20 30 20 20 30 20 20 30 20 20 30 20 20 30 20 20 30 20 20 30 20 20 30 20 20 30 20 20 30 20 20 30 20 20 30 20 20 30 20 20 30 20 20 30 20 20 30 20 20 30 20 20 30 255 100 100 255 100 100 255 100 100 255 100 100 255 100 100 255 100 100 255 100 100 255 100 100 255 100 100 255 100 100 255 100 100 255 100 100 255 100 100 255 100 100 255 100 100 255 100 100 255 100 100 255 100 100 255 100 100 255 100 100 255 100 100 255 100 100 255 100 100 255 100 100 255 100 100 255 100 100 255 100 100 255 100 100 255 100 100 255 100 100 255 100 100 255 100 100 255 100 100 255 100 100 255 100 100 255 100 100 255 100 100 255 100 100 255 100 100 255 100 100 255 100 100 255 100 100 255 100 100 255 100 100 255 100 100 255 100 100 255 100 100 255 100 100 255 100 100 255 100 100 255 100 100 255 100 100 255 100 100 255 100 100 255 100 100 255 100 100 255 100 100 255 100 100 255 100 100 255 100 100 20 20 30 20 20 30 20 20 30 20 20 30 20 20 30 20 20 30 20 20 30 20 20 30 20 20 30 20 20 30 20 20 30 20 20 30 20 20 30 20 20 30 20 20 30 20 20 30 20 20 30 20 20 30 20 20 30 20 20 30 20 20 30 20 20 30 20 20 30 20 20 30 20 20 30 20 20 30 20 20 30 20 20 30 20 20 30 20 20 30 20 20 30 20 20 30 20 20 30 20 20 30 20 20 30 20 20 30 20 20 30 20 20 30 20 20 30 20 20 30 20 20 30 20 20 30 20 20 30 20 20 30 20 20 30 20 20 30 
20 20 30 20 20 30 20 20 30 20 20 30 20 20 30 20 20 30 20 20 30 20 20 30 20 20 30 20 20 30 20 20 30 20 20 30 20 20 30 20 20 30 20 20 30 20 20 30 20 20 30 20 20 30 20 20 30 20 20 30 20 20 30 20 20 30 20 20 30 20 20 30 20 20 30 20 20 30 20 20 30 20 20 30 20 20 30 20 20 30 20 20 30 20 20 30 20 20 30 20 20 30 20 20 30 20 20 30 20 20 30 20 20 30 20 20 30 20 20 30 0 100 255 0 100 255 0 100 255 0 100 255 0 100 255 0 100 255 0 100 255 0 100 255 0 100 255 0 100 255 0 100 255 0 100 255 0 100 255 0 100 255 0 100 255 0 100 255 0 100 255 0 100 255 0 100 255 0 100 255 0 100 255 0 100 255 0 100 255 0 100 255 0 100 255 0 100 255 0 100 255 0 100 255 0 100 255 0 100 255 0 100 255 0 100 255 0 100 255 0 100 255 0 100 255 0 100 255 0 100 255 0 100 255 0 100 255 0 100 255 0 100 255 0 100 255 0 100 255 0 100 255 0 100 255 0 100 255 0 100 255 0 100 255 0 100 255 0 100 255 0 100 255 0 100 255 0 100 255 0 100 255 0 100 255 0 100 255 0 100 255 0 100 255 0 100 255 0 100 255 0 100 255 0 100 255 0 100 255 0 100 255 0 100 255 0 100 255 0 100 255 0 100 255 0 100 255 0 100 255 20 20 30 20 20 30 20 20 30 20 20 30 20 20 30 20 20 30 20 20 30 20 20 30 20 20 30 20 20 30 20 20 30 20 20 30 20 20 30 20 20 30 20 20 30 20 20 30 20 20 30 20 20 30 20 20 30 20 20 30 20 20 30 20 20 30 20 20 30 20 20 30 20 20 30 20 20 30 20 20 30 20 20 30 20 20 30 20 20 30 20 20 30 20 20 30 20 20 30 20 20 30 20 20 30 20 20 30 20 20 30 20 20 30 20 20 30 20 20 30 255 100 100 255 100 100 255 100 100 255 100 100 255 100 100 255 100 100 255 100 100 255 100 100 255 100 100 255 100 100 255 100 100 255 100 100 255 100 100 255 100 100 255 100 100 255 100 100 255 100 100 255 100 100 255 100 100 255 100 100 255 100 100 255 100 100 255 100 100 255 100 100 255 100 100 255 100 100 255 100 100 255 100 100 255 100 100 255 100 100 255 100 100 255 100 100 255 100 100 255 100 100 255 100 100 255 100 100 255 100 100 255 100 100 255 100 100 255 100 100 255 100 100 255 100 100 255 100 100 255 100 100 255 100 100 255 100 100 255 100 100 255 100 100 255 100 100 255 100 100 255 100 100 255 100 100 255 100 100 255 100 100 255 100 100 255 100 100 255 100 100 255 100 100 255 100 100 255 100 100 20 20 30 20 20 30 20 20 30 20 20 30 20 20 30 20 20 30 20 20 30 20 20 30 20 20 30 20 20 30 20 20 30 20 20 30 20 20 30 20 20 30 20 20 30 20 20 30 20 20 30 20 20 30 20 20 30 20 20 30 20 20 30 20 20 30 20 20 30 20 20 30 20 20 30 20 20 30 20 20 30 20 20 30 20 20 30 20 20 30 20 20 30 20 20 30 20 20 30 20 20 30 20 20 30 20 20 30 20 20 30 20 20 30 20 20 30 20 20 30 20 20 30 20 20 30 20 20 30 20 20 30 20 20 30 20 20 30 
20 20 30 20 20 30 20 20 30 20 20 30 20 20 30 20 20 30 20 20 30 20 20 30 20 20 30 20 20 30 20 20 30 20 20 30 20 20 30 20 20 30 20 20 30 20 20 30 20 20 30 20 20 30 20 20 30 20 20 30 20 20 30 20 20 30 20 20 30 20 20 30 20 20 30 20 20 30 20 20 30 20 20 30 20 20 30 20 20 30 20 20 30 20 20 30 20 20 30 20 20 30 20 20 30 20 20 30 20 20 30 20 20 30 20 20 30 20 20 30 0 100 255 0 100 255 0 100 255 0 100 255 0 100 255 0 100 255 0 100 255 0 100 255 0 100 255 0 100 255 0 100 255 0 100 255 0 100 255 0 100 255 0 100 255 0 100 255 0 100 255 0 100 255 0 100 255 0 100 255 0 100 255 0 100 255 0 100 255 0 100 255 0 100 255 0 100 255 0 100 255 0 100 255 0 100 255 0 100 255 0 100 255 0 100 255 0 100 255 0 100 255 0 100 255 0 100 255 0 100 255 0 100 255 0 100 255 0 100 255 0 100 255 0 100 255 0 100 255 0 100 255 0 100 255 0 100 255 0 100 255 0 100 255 0 100 255 0 100 255 0 100 255 0 100 255 0 100 255 0 100 255 0 100 255 0 100 255 0 100 255 0 100 255 0 100 255 0 100 255 0 100 255 0 100 255 0 100 255 0 100 255 0 100 255 0 100 255 0 100 255 0 100 255 0 100 255 0 100 255 20 20 30 20 20 30 20 20 30 20 20 30 20 20 30 20 20 30 20 20 30 20 20 30 20 20 30 20 20 30 20 20 30 20 20 30 20 20 30 20 20 30 20 20 30 20 20 30 20 20 30 20 20 30 20 20 30 20 20 30 20 20 30 20 20 30 20 20 30 20 20 30 20 20 30 20 20 30 20 20 30 20 20 30 20 20 30 20 20 30 20 20 30 20 20 30 20 20 30 20 20 30 20 20 30 20 20 30 20 20 30 20 20 30 20 20 30 20 20 30 255 100 100 255 100 100 255 100 100 255 100 100 255 100 100 255 100 100 255 100 100 255 100 100 255 100 100 255 100 100 255 100 100 255 100 100 255 100 100 255 100 100 255 100 100 255 100 100 255 100 100 255 100 100 255 100 100 255 100 100 255 100 100 255 100 100 255 100 100 255 100 100 255 100 100 255 100 100 255 100 100 255 100 100 255 100 100 255 100 100 255 100 100 255 100 100 255 100 100 255 100 100 255 100 100 255 100 100 255 100 100 255 100 100 255 100 100 255 100 100 255 100 100 255 100 100 255 100 100 255 100 100 255 100 100 255 100 100 255 100 100 255 100 100 255 100 100 255 100 100 255 100 100 255 100 100 255 100 100 255 100 100 255 100 100 255 100 100 255 100 100 255 100 100 255 100 100 255 100 100 20 20 30 20 20 30 20 20 30 20 20 30 20 20 30 20 20 30 20 20 30 20 20 30 20 20 30 20 20 30 20 20 30 20 20 30 20 20 30 20 20 30 20 20 30 20 20 30 20 20 30 20 20 30 20 20 30 20 20 30 20 20 30 20 20 30 20 20 30 20 20 30 20 20 30 20 20 30 20 20 30 20 20 30 20 20 30 20 20 30 20 20 30 20 20 30 20 20 30 20 20 30 20 20 30 20 20 30 20 20 30 20 20 30 20 20 30 20 20 30 20 20 30 20 20 30 20 20 30 20 20 30 20 20 30 20 20 30 
20 20 30 20 20 30 20 20 30 20 20 30 20 20 30 20 20 30 20 20 30 20 20 30 20 20 30 20 20 30 20 20 30 20 20 30 20 20 30 20 20 30 20 20 30 20 20 30 20 20 30 20 20 30 20 20 30 20 20 30 20 20 30 20 20 30 20 20 30 20 20 30 20 20 30 20 20 30 20 20 30 20 20 30 20 20 30 20 20 30 20 20 30 20 20 30 20 20 30 20 20 30 20 20 30 20 20 30 20 20 30 20 20 30 20 20 30 20 20 30 0 100 255 0 100 255 0 100 255 0 100 255 0 100 255 0 100 255 0 100 255 0 100 255 0 100 255 0 100 255 0 100 255 0 100 255 0 100 255 0 100 255 0 100 255 0 100 255 0 100 255 0 100 255 0 100 255 0 100 255 0 100 255 0 100 255 0 100 255 0 100 255 0 100 255 0 100 255 0 100 255 0 100 255 0 100 255 0 100 255 0 100 255 0 100 255 0 100 255 0 100 255 0 100 255 0 100 255 0 100 255 0 100 255 0 100 255 0 100 255 0 100 255 0 100 255 0 100 255 0 100 255 0 100 255 0 100 255 0 100 255 0 100 255 0 100 255 0 100 255 0 100 255 0 100 255 0 100 255 0 100 255 0 100 255 0 100 255 0 100 255 0 100 255 0 100 255 0 100 255 0 100 255 0 100 255 0 100 255 0 100 255 0 100 255 0 100 255 0 100 255 0 100 255 0 100 255 0 100 255 20 20 30 20 20 30 20 20 30 20 20 30 20 20 30 20 20 30 20 20 30 20 20 30 20 20 30 20 20 30 20 20 30 20 20 30 20 20 30 20 20 30 20 20 30 20 20 30 20 20 30 20 20 30 20 20 30 20 20 30 20 20 30 20 20 30 20 20 30 20 20 30 20 20 30 20 20 30 20 20 30 20 20 30 20 20 30 20 20 30 20 20 30 20 20 30 20 20 30 20 20 30 20 20 30 20 20 30 20 20 30 20 20 30 20 20 30 20 20 30 255 100 100 255 100 100 255 100 100 255 100 100 255 100 100 255 100 100 255 100 100 255 100 100 255 100 100 255 100 100 255 100 100 255 100 100 255 100 100 255 100 100 255 100 100 255 100 100 255 100 100 255 100 100 255 100 100 255 100 100 255 100 100 255 100 100 255 100 100 255 100 100 255 100 100 255 100 100 255 100 100 255 100 100 255 100 100 255 100 100 255 100 100 255 100 100 255 100 100 255 100 100 255 100 100 255 100 100 255 100 100 255 100 100 255 100 100 255 100 100 255 100 100 255 100 100 255 100 100 255 100 100 255 100 100 255 100 100 255 100 100 255 100 100 255 100 100 255 100 100 255 100 100 255 100 100 255 100 100 255 100 100 255 100 100 255 100 100 255 100 100 255 100 100 255 100 100 255 100 100 20 20 30 20 20 30 20 20 30 20 20 30 20 20 30 20 20 30 20 20 30 20 20 30 20 20 30 20 20 30 20 20 30 20 20 30 20 20 30 20 20 30 20 20 30 20 20 30 20 20 30 20 20 30 20 20 30 20 20 30 20 20 30 20 20 30 20 20 30 20 20 30 20 20 30 20 20 30 20 20 30 20 20 30 20 20 30 20 20 30 20 20 30 20 20 30 20 20 30 20 20 30 20 20 30 20 20 30 20 20 30 20 20 30 20 20 30 20 20 30 20 20 30 20 20 30 20 20 30 20 20 30 20 20 30 20 20 30 
20 20 30 20 20 30 20 20 30 20 20 30 20 20 30 20 20 30 20 20 30 20 20 30 20 20 30 20 20 30 20 20 30 20 20 30 20 20 30 20 20 30 20 20 30 20 20 30 20 20 30 20 20 30 20 20 30 20 20 30 20 20 30 20 20 30 20 20 30 20 20 30 20 20 30 20 20 30 20 20 30 20 20 30 20 20 30 20 20 30 20 20 30 20 20 30 20 20 30 20 20 30 20 20 30 20 20 30 20 20 30 20 20 30 20 20 30 20 20 30 0 100 255 0 100 255 0 100 255 0 100 255 0 100 255 0 100 255 0 100 255 0 100 255 0 100 255 0 100 255 0 100 255 0 100 255 0 100 255 0 100 255 0 100 255 0 100 255 0 100 255 0 100 255 0 100 255 0 100 255 0 100 255 0 100 255 0 100 255 0 100 255 0 100 255 0 100 255 0 100 255 0 100 255 0 100 255 0 100 255 0 100 255 0 100 255 0 100 255 0 100 255 0 100 255 0 100 255 0 100 255 0 100 255 0 100 255 0 100 255 0 100 255 0 100 255 0 100 255 0 100 255 0 100 255 0 100 255 0 100 255 0 100 255 0 100 255 0 100 255 0 100 255 0 100 255 0 100 255 0 100 255 0 100 255 0 100 255 0 100 255 0 100 255 0 100 255 0 100 255 0 100 255 0 100 255 0 100 255 0 100 255 0 100 255 0 100 255 0 100 255 0 100 255 0 100 255 0 100 255 20 20 30 20 20 30 20 20 30 20 20 30 20 20 30 20 20 30 20 20 30 20 20 30 20 20 30 20 20 30 20 20 30 20 20 30 20 20 30 20 20 30 20 20 30 20 20 30 20 20 30 20 20 30 20 20 30 20 20 30 20 20 30 20 20 30 20 20 30 20 20 30 20 20 30 20 20 30 20 20 30 20 20 30 20 20 30 20 20 30 20 20 30 20 20 30 20 20 30 20 20 30 20 20 30 20 20 30 20 20 30 20 20 30 20 20 30 20 20 30 255 100 100 255 100 100 255 100 100 255 100 100 255 100 100 255 100 100 255 100 100 255 100 100 255 100 100 255 100 100 255 100 100 255 100 100 255 100 100 255 100 100 255 100 100 255 100 100 255 100 100 255 100 100 255 100 100 255 100 100 255 100 100 255 100 100 255 100 100 255 100 100 255 100 100 255 100 100 255 100 100 255 100 100 255 100 100 255 100 100 255 100 100 255 100 100 255 100 100 255 100 100 255 100 100 255 100 100 255 100 100 255 100 100 255 100 100 255 100 100 255 100 100 255 100 100 255 100 100 255 100 100 255 100 100 255 100 100 255 100 100 255 100 100 255 100 100 255 100 100 255 100 100 255 100 100 255 100 100 255 100 100 255 100 100 255 100 100 255 100 100 255 100 100 255 100 100 255 100 100 20 20 30 20 20 30 20 20 30 20 20 30 20 20 30 20 20 30 20 20 30 20 20 30 20 20 30 20 20 30 20 20 30 20 20 30 20 20 30 20 20 30 20 20 30 20 20 30 20 20 30 20 20 30 20 20 30 20 20 30 20 20 30 20 20 30 20 20 30 20 20 30 20 20 30 20 20 30 20 20 30 20 20 30 20 20 30 20 20 30 20 20 30 20 20 30 20 20 30 20 20 30 20 20 30 20 20 30 20 20 30 20 20 30 20 20 30 20 20 30 20 20 30 20 20 30 20 20 30 20 20 30 20 20 30 20 20 30 
20 20 30 20 20 30 20 20 30 20 20 30 20 20 30 20 20 30 20 20 30 20 20 30 20 20 30 20 20 30 20 20 30 20 20 30 20 20 30 20 20 30 20 20 30 20 20 30 20 20 30 20 20 30 20 20 30 20 20 30 20 20 30 20 20 30 20 20 30 20 20 30 20 20 30 20 20 30 20 20 30 20 20 30 20 20 30 20 20 30 20 20 30 20 20 30 20 20 30 20 20 30 20 20 30 20 20 30 20 20 30 20 20 30 20 20 30 20 20 30 0 100 255 0 100 255 0 100 255 0 100 255 0 100 255 0 100 255 0 100 255 0 100 255 0 100 255 0 100 255 0 100 255 0 100 255 0 100 255 0 100 255 0 100 255 0 100 255 0 100 255 0 100 255 0 100 255 0 100 255 0 100 255 0 100 255 0 100 255 0 100 255 0 100 255 0 100 255 0 100 255 0 100 255 0 100 255 0 100 255 0 100 255 0 100 255 0 100 255 0 100 255 0 100 255 0 100 255 0 100 255 0 100 255 0 100 255 0 100 255 0 100 255 0 100 255 0 100 255 0 100 255 0 100 255 0 100 255 0 100 255 0 100 255 0 100 255 0 100 255 0 100 255 0 100 255 0 100 255 0 100 255 0 100 255 0 100 255 0 100 255 0 100 255 0 100 255 0 100 255 0 100 255 0 100 255 0 100 255 0 100 255 0 100 255 0 100 255 0 100 255 0 100 255 0 100 255 0 100 255 20 20 30 20 20 30 20 20 30 20 20 30 20 20 30 20 20 30 20 20 30 20 20 30 20 20 30 20 20 30 20 20 30 20 20 30 20 20 30 20 20 30 20 20 30 20 20 30 20 20 30 20 20 30 20 20 30 20 20 30 20 20 30 20 20 30 20 20 30 20 20 30 20 20 30 20 20 30 20 20 30 20 20 30 20 20 30 20 20 30 20 20 30 20 20 30 20 20 30 20 20 30 20 20 30 20 20 30 20 20 30 20 20 30 20 20 30 20 20 30 255 100 100 255 100 100 255 100 100 255 100 100 255 100 100 255 100 100 255 100 100 255 100 100 255 100 100 255 100 100 255 100 100 255 100 100 255 100 100 255 100 100 255 100 100 255 100 100 255 100 100 255 100 100 255 100 100 255 100 100 255 100 100 255 100 100 255 100 100 255 100 100 255 100 100 255 100 100 255 100 100 255 100 100 255 100 100 255 100 100 255 100 100 255 100 100 255 100 100 255 100 100 255 100 100 255 100 100 255 100 100 255 100 100 255 100 100 255 100 100 255 100 100 255 100 100 255 100 100 255 100 100 255 100 100 255 100 100 255 100 100 255 100 100 255 100 100 255 100 100 255 100 100 255 100 100 255 100 100 255 100 100 255 100 100 255 100 100 255 100 100 255 100 100 255 100 100 255 100 100 20 20 30 20 20 30 20 20 30 20 20 30 20 20 30 20 20 30 20 20 30 20 20 30 20 20 30 20 20 30 20 20 30 20 20 30 20 20 30 20 20 30 20 20 30 20 20 30 20 20 30 20 20 30 20 20 30 20 20 30 20 20 30 20 20 30 20 20 30 20 20 30 20 20 30 20 20 30 20 20 30 20 20 30 20 20 30 20 20 30 20 20 30 20 20 30 20 20 30 20 20 30 20 20 30 20 20 30 20 20 30 20 20 30 20 20 30 20 20 30 20 20 30 20 20 30 20 20 30 20 20 30 20 20 30 20 20 30 
20 20 30 20 20 30 20 20 30 20 20 30 20 20 30 20 20 30 20 20 30 20 20 30 20 20 30 20 20 30 20 20 30 20 20 30 20 20 30 20 20 30 20 20 30 20 20 30 20 20 30 20 20 30 20 20 30 20 20 30 20 20 30 20 20 30 20 20 30 20 20 30 20 20 30 20 20 30 20 20 30 20 20 30 20 20 30 20 20 30 20 20 30 20 20 30 20 20 30 20 20 30 20 20 30 20 20 30 20 20 30 20 20 30 20 20 30 20 20 30 0 100 255 0 100 255 0 100 255 0 100 255 0 100 255 0 100 255 0 100 255 0 100 255 0 100 255 0 100 255 0 100 255 0 100 255 0 100 255 0 100 255 0 100 255 0 100 255 0 100 255 0 100 255 0 100 255 0 100 255 0 100 255 0 100 255 0 100 255 0 100 255 0 100 255 0 100 255 0 100 255 0 100 255 0 100 255 0 100 255 0 100 255 0 100 255 0 100 255 0 100 255 0 100 255 0 100 255 0 100 255 0 100 255 0 100 255 0 100 255 0 100 255 0 100 255 0 100 255 0 100 255 0 100 255 0 100 255 0 100 255 0 100 255 0 100 255 0 100 255 0 100 255 0 100 255 0 100 255 0 100 255 0 100 255 0 100 255 0 100 255 0 100 255 0 100 255 0 100 255 0 100 255 0 100 255 0 100 255 0 100 255 0 100 255 0 100 255 0 100 255 0 100 255 0 100 255 0 100 255 20 20 30 20 20 30 20 20 30 20 20 30 20 20 30 20 20 30 20 20 30 20 20 30 20 20 30 20 20 30 20 20 30 20 20 30 20 20 30 20 20 30 20 20 30 20 20 30 20 20 30 20 20 30 20 20 30 20 20 30 20 20 30 20 20 30 20 20 30 20 20 30 20 20 30 20 20 30 20 20 30 20 20 30 20 20 30 20 20 30 20 20 30 20 20 30 20 20 30 20 20 30 20 20 30 20 20 30 20 20 30 20 20 30 20 20 30 20 20 30 255 100 100 255 100 100 255 100 100 255 100 100 255 100 100 255 100 100 255 100 100 255 100 100 255 100 100 255 100 100 255 100 100 255 100 100 255 100 100 255 100 100 255 100 100 255 100 100 255 100 100 255 100 100 255 100 100 255 100 100 255 100 100 255 100 100 255 100 100 255 100 100 255 100 100 255 100 100 255 100 100 255 100 100 255 100 100 255 100 100 255 100 100 255 100 100 255 100 100 255 100 100 255 100 100 255 100 100 255 100 100 255 100 100 255 100 100 255 100 100 255 100 100 255 100 100 255 100 100 255 100 100 255 100 100 255 100 100 255 100 100 255 100 100 255 100 100 255 100 100 255 100 100 255 100 100 255 100 100 255 100 100 255 100 100 255 100 100 255 100 100 255 100 100 255 100 100 255 100 100 20 20 30 20 20 30 20 20 30 20 20 30 20 20 30 20 20 30 20 20 30 20 20 30 20 20 30 20 20 30 20 20 30 20 20 30 20 20 30 20 20 30 20 20 30 20 20 30 20 20 30 20 20 30 20 20 30 20 20 30 20 20 30 20 20 30 20 20 30 20 20 30 20 20 30 20 20 30 20 20 30 20 20 30 20 20 30 20 20 30 20 20 30 20 20 30 20 20 30 20 20 30 20 20 30 20 20 30 20 20 30 20 20 30 20 20 30 20 20 30 20 20 30 20 20 30 20 20 30 20 20 30 20 20 30 20 20 30 
20 20 30 20 20 30 20 20 30 20 20 30 20 20 30 20 20 30 20 20 30 20 20 30 20 20 30 20 20 30 20 20 30 20 20 30 20 20 30 20 20 30 20 20 30 20 20 30 20 20 30 20 20 30 20 20 30 20 20 30 20 20 30 20 20 30 20 20 30 20 20 30 20 20 30 20 20 30 20 20 30 20 20 30 20 20 30 20 20 30 20 20 30 20 20 30 20 20 30 20 20 30 20 20 30 20 20 30 20 20 30 20 20 30 20 20 30 20 20 30 0 100 255 0 100 255 0 100 255 0 100 255 0 100 255 0 100 255 0 100 255 0 100 255 0 100 255 0 100 255 0 100 255 0 100 255 0 100 255 0 100 255 0 100 255 0 100 255 0 100 255 0 100 255 0 100 255 0 100 255 0 100 255 0 100 255 0 100 255 0 100 255 0 100 255 0 100 255 0 100 255 0 100 255 0 100 255 0 100 255 0 100 255 0 100 255 0 100 255 0 100 255 0 100 255 0 100 255 0 100 255 0 100 255 0 100 255 0 100 255 0 100 255 0 100 255 0 100 255 0 100 255 0 100 255 0 100 255 0 100 255 0 100 255 0 100 255 0 100 255 0 100 255 0 100 255 0 100 255 0 100 255 0 100 255 0 100 255 0 100 255 0 100 255 0 100 255 0 100 255 0 100 255 0 100 255 0 100 255 0 100 255 0 100 255 0 100 255 0 100 255 0 100 255 0 100 255 0 100 255 20 20 30 20 20 30 20 20 30 20 20 30 20 20 30 20 20 30 20 20 30 20 20 30 20 20 30 20 20 30 20 20 30 20 20 30 20 20 30 20 20 30 20 20 30 20 20 30 20 20 30 20 20 30 20 20 30 20 20 30 20 20 30 20 20 30 20 20 30 20 20 30 20 20 30 20 20 30 20 20 30 20 20 30 20 20 30 20 20 30 20 20 30 20 20 30 20 20 30 20 20 30 20 20 30 20 20 30 20 20 30 20 20 30 20 20 30 20 20 30 255 100 100 255 100 100 255 100 100 255 100 100 255 100 100 255 100 100 255 100 100 255 100 100 255 100 100 255 100 100 255 100 100 255 100 100 255 100 100 255 100 100 255 100 100 255 100 100 255 100 100 255 100 100 255 100 100 255 100 100 255 100 100 255 100 100 255 100 100 255 100 100 255 100 100 255 100 100 255 100 100 255 100 100 255 100 100 255 100 100 255 100 100 255 100 100 255 100 100 255 100 100 255 100 100 255 100 100 255 100 100 255 100 100 255 100 100 255 100 100 255 100 100 255 100 100 255 100 100 255 100 100 255 100 100 255 100 100 255 100 100 255 100 100 255 100 100 255 100 100 255 100 100 255 100 100 255 100 100 255 100 100 255 100 100 255 100 100 255 100 100 255 100 100 255 100 100 255 100 100 20 20 30 20 20 30 20 20 30 20 20 30 20 20 30 20 20 30 20 20 30 20 20 30 20 20 30 20 20 30 20 20 30 20 20 30 20 20 30 20 20 30 20 20 30 20 20 30 20 20 30 20 20 30 20 20 30 20 20 30 20 20 30 20 20 30 20 20 30 20 20 30 20 20 30 20 20 30 20 20 30 20 20 30 20 20 30 20 20 30 20 20 30 20 20 30 20 20 30 20 20 30 20 20 30 20 20 30 20 20 30 20 20 30 20 20 30 20 20 30 20 20 30 20 20 30 20 20 30 20 20 30 20 20 30 20 20 30 
20 20 30 20 20 30 20 20 30 20 20 30 20 20 30 20 20 30 20 20 30 20 20 30 20 20 30 20 20 30 20 20 30 20 20 30 20 20 30 20 20 30 20 20 30 20 20 30 20 20 30 20 20 30 20 20 30 20 20 30 20 20 30 20 20 30 20 20 30 20 20 30 20 20 30 20 20 30 20 20 30 20 20 30 20 20 30 20 20 30 20 20 30 20 20 30 20 20 30 20 20 30 20 20 30 20 20 30 20 20 30 20 20 30 20 20 30 20 20 30 0 100 255 0 100 255 0 100 255 0 100 255 0 100 255 0 100 255 0 100 255 0 100 255 0 100 255 0 100 255 0 100 255 0 100 255 0 100 255 0 100 255 0 100 255 0 100 255 0 100 255 0 100 255 0 100 255 0 100 255 0 100 255 0 100 255 0 100 255 0 100 255 0 100 255 0 100 255 0 100 255 0 100 255 0 100 255 0 100 255 0 100 255 0 100 255 0 100 255 0 100 255 0 100 255 0 100 255 0 100 255 0 100 255 0 100 255 0 100 255 0 100 255 0 100 255 0 100 255 0 100 255 0 100 255 0 100 255 0 100 255 0 100 255 0 100 255 0 100 255 0 100 255 0 100 255 0 100 255 0 100 255 0 100 255 0 100 255 0 100 255 0 100 255 0 100 255 0 100 255 0 100 255 0 100 255 0 100 255 0 100 255 0 100 255 0 100 255 0 100 255 0 100 255 0 100 255 0 100 255 20 20 30 20 20 30 20 20 30 20 20 30 20 20 30 20 20 30 20 20 30 20 20 30 20 20 30 20 20 30 20 20 30 20 20 30 20 20 30 20 20 30 20 20 30 20 20 30 20 20 30 20 20 30 20 20 30 20 20 30 20 20 30 20 20 30 20 20 30 20 20 30 20 20 30 20 20 30 20 20 30 20 20 30 20 20 30 20 20 30 20 20 30 20 20 30 20 20 30 20 20 30 20 20 30 20 20 30 20 20 30 20 20 30 20 20 30 20 20 30 255 100 100 255 100 100 255 100 100 255 100 100 255 100 100 255 100 100 255 100 100 255 100 100 255 100 100 255 100 100 255 100 100 255 100 100 255 100 100 255 100 100 255 100 100 255 100 100 255 100 100 255 100 100 255 100 100 255 100 100 255 100 100 255 100 100 255 100 100 255 100 100 255 100 100 255 100 100 255 100 100 255 100 100 255 100 100 255 100 100 255 100 100 255 100 100 255 100 100 255 100 100 255 100 100 255 100 100 255 100 100 255 100 100 255 100 100 255 100 100 255 100 100 255 100 100 255 100 100 255 100 100 255 100 100 255 100 100 255 100 100 255 100 100 255 100 100 255 100 100 255 100 100 255 100 100 255 100 100 255 100 100 255 100 100 255 100 100 255 100 100 255 100 100 255 100 100 255 100 100 20 20 30 20 20 30 20 20 30 20 20 30 20 20 30 20 20 30 20 20 30 20 20 30 20 20 30 20 20 30 20 20 30 20 20 30 20 20 30 20 20 30 20 20 30 20 20 30 20 20 30 20 20 30 20 20 30 20 20 30 20 20 30 20 20 30 20 20 30 20 20 30 20 20 30 20 20 30 20 20 30 20 20 30 20 20 30 20 20 30 20 20 30 20 20 30 20 20 30 20 20 30 20 20 30 20 20 30 20 20 30 20 20 30 20 20 30 20 20 30 20 20 30 20 20 30 20 20 30 20 20 30 20 20 30 20 20 30 
20 20 30 20 20 30 20 20 30 20 20 30 20 20 30 20 20 30 20 20 30 20 20 30 20 20 30 20 20 30 20 20 30 20 20 30 20 20 30 20 20 30 20 20 30 20 20 30 20 20 30 20 20 30 20 20 30 20 20 30 20 20 30 20 20 30 20 20 30 20 20 30 20 20 30 20 20 30 20 20 30 20 20 30 20 20 30 20 20 30 20 20 30 20 20 30 20 20 30 20 20 30 20 20 30 20 20 30 20 20 30 20 20 30 20 20 30 20 20 30 0 100 255 0 100 255 0 100 255 0 100 255 0 100 255 0 100 255 0 100 255 0 100 255 0 100 255 0 100 255 0 100 255 0 100 255 0 100 255 0 100 255 0 100 255 0 100 255 0 100 255 0 100 255 0 100 255 0 100 255 0 100 255 0 100 255 0 100 255 0 100 255 0 100 255 0 100 255 0 100 255 0 100 255 0 100 255 0 100 255 0 100 255 0 100 255 0 100 255 0 100 255 0 100 255 0 100 255 0 100 255 0 100 255 0 100 255 0 100 255 0 100 255 0 100 255 0 100 255 0 100 255 0 100 255 0 100 255 0 100 255 0 100 255 0 100 255 0 100 255 0 100 255 0 100 255 0 100 255 0 100 255 0 100 255 0 100 255 0 100 255 0 100 255 0 100 255 0 100 255 0 100 255 0 100 255 0 100 255 0 100 255 0 100 255 0 100 255 0 100 255 0 100 255 0 100 255 0 100 255 20 20 30 20 20 30 20 20 30 20 20 30 20 20 30 20 20 30 20 20 30 20 20 30 20 20 30 20 20 30 20 20 30 20 20 30 20 20 30 20 20 30 20 20 30 20 20 30 20 20 30 20 20 30 20 20 30 20 20 30 20 20 30 20 20 30 20 20 30 20 20 30 20 20 30 20 20 30 20 20 30 20 20 30 20 20 30 20 20 30 20 20 30 20 20 30 20 20 30 20 20 30 20 20 30 20 20 30 20 20 30 20 20 30 20 20 30 20 20 30 255 100 100 255 100 100 255 100 100 255 100 100 255 100 100 255 100 100 255 100 100 255 100 100 255 100 100 255 100 100 255 100 100 255 100 100 255 100 100 255 100 100 255 100 100 255 100 100 255 100 100 255 100 100 255 100 100 255 100 100 255 100 100 255 100 100 255 100 100 255 100 100 255 100 100 255 100 100 255 100 100 255 100 100 255 100 100 255 100 100 255 100 100 255 100 100 255 100 100 255 100 100 255 100 100 255 100 100 255 100 100 255 100 100 255 100 100 255 100 100 255 100 100 255 100 100 255 100 100 255 100 100 255 100 100 255 100 100 255 100 100 255 100 100 255 100 100 255 100 100 255 100 100 255 100 100 255 100 100 255 100 100 255 100 100 255 100 100 255 100 100 255 100 100 255 100 100 255 100 100 20 20 30 20 20 30 20 20 30 20 20 30 20 20 30 20 20 30 20 20 30 20 20 30 20 20 30 20 20 30 20 20 30 20 20 30 20 20 30 20 20 30 20 20 30 20 20 30 20 20 30 20 20 30 20 20 30 20 20 30 20 20 30 20 20 30 20 20 30 20 20 30 20 20 30 20 20 30 20 20 30 20 20 30 20 20 30 20 20 30 20 20 30 20 20 30 20 20 30 20 20 30 20 20 30 20 20 30 20 20 30 20 20 30 20 20 30 20 20 30 20 20 30 20 20 30 20 20 30 20 20 30 20 20 30 20 20 30 
20 20 30 20 20 30 20 20 30 20 20 30 20 20 30 20 20 30 20 20 30 20 20 30 20 20 30 20 20 30 20 20 30 20 20 30 20 20 30 20 20 30 20 20 30 20 20 30 20 20 30 20 20 30 20 20 30 20 20 30 20 20 30 20 20 30 20 20 30 20 20 30 20 20 30 20 20 30 20 20 30 20 20 30 20 20 30 20 20 30 20 20 30 20 20 30 20 20 30 20 20 30 20 20 30 20 20 30 20 20 30 20 20 30 20 20 30 20 20 30 0 100 255 0 100 255 0 100 255 0 100 255 0 100 255 0 100 255 0 100 255 0 100 255 0 100 255 0 100 255 0 100 255 0 100 255 0 100 255 0 100 255 0 100 255 0 100 255 0 100 255 0 100 255 0 100 255 0 100 255 0 100 255 0 100 255 0 100 255 0 100 255 0 100 255 0 100 255 0 100 255 0 100 255 0 100 255 0 100 255 0 100 255 0 100 255 0 100 255 0 100 255 0 100 255 0 100 255 0 100 255 0 100 255 0 100 255 0 100 255 0 100 255 0 100 255 0 100 255 0 100 255 0 100 255 0 100 255 0 100 255 0 100 255 0 100 255 0 100 255 0 100 255 0 100 255 0 100 255 0 100 255 0 100 255 0 100 255 0 100 255 0 100 255 0 100 255 0 100 255 0 100 255 0 100 255 0 100 255 0 100 255 0 100 255 0 100 255 0 100 255 0 100 255 0 100 255 0 100 255 20 20 30 20 20 30 20 20 30 20 20 30 20 20 30 20 20 30 20 20 30 20 20 30 20 20 30 20 20 30 20 20 30 20 20 30 20 20 30 20 20 30 20 20 30 20 20 30 20 20 30 20 20 30 20 20 30 20 20 30 20 20 30 20 20 30 20 20 30 20 20 30 20 20 30 20 20 30 20 20 30 20 20 30 20 20 30 20 20 30 20 20 30 20 20 30 20 20 30 20 20 30 20 20 30 20 20 30 20 20 30 20 20 30 20 20 30 20 20 30 255 100 100 255 100 100 255 100 100 255 100 100 255 100 100 255 100 100 255 100 100 255 100 100 255 100 100 255 100 100 255 100 100 255 100 100 255 100 100 255 100 100 255 100 100 255 100 100 255 100 100 255 100 100 255 100 100 255 100 100 255 100 100 255 100 100 255 100 100 255 100 100 255 100 100 255 100 100 255 100 100 255 100 100 255 100 100 255 100 100 255 100 100 255 100 100 255 100 100 255 100 100 255 100 100 255 100 100 255 100 100 255 100 100 255 100 100 255 100 100 255 100 100 255 100 100 255 100 100 255 100 100 255 100 100 255 100 100 255 100 100 255 100 100 255 100 100 255 100 100 255 100 100 255 100 100 255 100 100 255 100 100 255 100 100 255 100 100 255 100 100 255 100 100 255 100 100 255 100 100 20 20 30 20 20 30 20 20 30 20 20 30 20 20 30 20 20 30 20 20 30 20 20 30 20 20 30 20 20 30 20 20 30 20 20 30 20 20 30 20 20 30 20 20 30 20 20 30 20 20 30 20 20 30 20 20 30 20 20 30 20 20 30 20 20 30 20 20 30 20 20 30 20 20 30 20 20 30 20 20 30 20 20 30 20 20 30 20 20 30 20 20 30 20 20 30 20 20 30 20 20 30 20 20 30 20 20 30 20 20 30 20 20 30 20 20 30 20 20 30 20 20 30 20 20 30 20 20 30 20 20 30 20 20 30 20 20 30 
20 20 30 20 20 30 20 20 30 20 20 30 20 20 30 20 20 30 20 20 30 20 20 30 20 20 30 20 20 30 20 20 30 20 20 30 20 20 30 20 20 30 20 20 30 20 20 30 20 20 30 20 20 30 20 20 30 20 20 30 20 20 30 20 20 30 20 20 30 20 20 30 20 20 30 20 20 30 20 20 30 20 20 30 20 20 30 20 20 30 20 20 30 20 20 30 20 20 30 20 20 30 20 20 30 20 20 30 20 20 30 20 20 30 20 20 30 20 20 30 0 100 255 0 100 255 0 100 255 0 100 255 0 100 255 0 100 255 0 100 255 0 100 255 0 100 255 0 100 255 0 100 255 0 100 255 0 100 255 0 100 255 0 100 255 0 100 255 0 100 255 0 100 255 0 100 255 0 100 255 0 100 255 0 100 255 0 100 255 0 100 255 0 100 255 0 100 255 0 100 255 0 100 255 0 100 255 0 100 255 0 100 255 0 100 255 0 100 255 0 100 255 0 100 255 0 100 255 0 100 255 0 100 255 0 100 255 0 100 255 0 100 255 0 100 255 0 100 255 0 100 255 0 100 255 0 100 255 0 100 255 0 100 255 0 100 255 0 100 255 0 100 255 0 100 255 0 100 255 0 100 255 0 100 255 0 100 255 0 100 255 0 100 255 0 100 255 0 100 255 0 100 255 0 100 255 0 100 255 0 100 255 0 100 255 0 100 255 0 100 255 0 100 255 0 100 255 0 100 255 20 20 30 20 20 30 20 20 30 20 20 30 20 20 30 20 20 30 20 20 30 20 20 30 20 20 30 20 20 30 20 20 30 20 20 30 20 20 30 20 20 30 20 20 30 20 20 30 20 20 30 20 20 30 20 20 30 20 20 30 20 20 30 20 20 30 20 20 30 20 20 30 20 20 30 20 20 30 20 20 30 20 20 30 20 20 30 20 20 30 20 20 30 20 20 30 20 20 30 20 20 30 20 20 30 20 20 30 20 20 30 20 20 30 20 20 30 20 20 30 255 100 100 255 100 100 255 100 100 255 100 100 255 100 100 255 100 100 255 100 100 255 100 100 255 100 100 255 100 100 255 100 100 255 100 100 255 100 100 255 100 100 255 100 100 255 100 100 255 100 100 255 100 100 255 100 100 255 100 100 255 100 100 255 100 100 255 100 100 255 100 100 255 100 100 255 100 100 255 100 100 255 100 100 255 100 100 255 100 100 255 100 100 255 100 100 255 100 100 255 100 100 255 100 100 255 100 100 255 100 100 255 100 100 255 100 100 255 100 100 255 100 100 255 100 100 255 100 100 255 100 100 255 100 100 255 100 100 255 100 100 255 100 100 255 100 100 255 100 100 255 100 100 255 100 100 255 100 100 255 100 100 255 100 100 255 100 100 255 100 100 255 100 100 255 100 100 255 100 100 20 20 30 20 20 30 20 20 30 20 20 30 20 20 30 20 20 30 20 20 30 20 20 30 20 20 30 20 20 30 20 20 30 20 20 30 20 20 30 20 20 30 20 20 30 20 20 30 20 20 30 20 20 30 20 20 30 20 20 30 20 20 30 20 20 30 20 20 30 20 20 30 20 20 30 20 20 30 20 20 30 20 20 30 20 20 30 20 20 30 20 20 30 20 20 30 20 20 30 20 20 30 20 20 30 20 20 30 20 20 30 20 20 30 20 20 30 20 20 30 20 20 30 20 20 30 20 20 30 20 20 30 20 20 30 20 20 30 
20 20 30 20 20 30 20 20 30 20 20 30 20 20 30 20 20 30 20 20 30 20 20 30 20 20 30 20 20 30 20 20 30 20 20 30 20 20 30 20 20 30 20 20 30 20 20 30 20 20 30 20 20 30 20 20 30 20 20 30 20 20 30 20 20 30 20 20 30 20 20 30 20 20 30 20 20 30 20 20 30 20 20 30 20 20 30 20 20 30 20 20 30 20 20 30 20 20 30 20 20 30 20 20 30 20 20 30 20 20 30 20 20 30 20 20 30 20 20 30 0 100 255 0 100 255 0 100 255 0 100 255 0 100 255 0 100 255 0 100 255 0 100 255 0 100 255 0 100 255 0 100 255 0 100 255 0 100 255 0 100 255 0 100 255 0 100 255 0 100 255 0 100 255 0 100 255 0 100 255 0 100 255 0 100 255 0 100 255 0 100 255 0 100 255 0 100 255 0 100 255 0 100 255 0 100 255 0 100 255 0 100 255 0 100 255 0 100 255 0 100 255 0 100 255 0 100 255 0 100 255 0 100 255 0 100 255 0 100 255 0 100 255 0 100 255 0 100 255 0 100 255 0 100 255 0 100 255 0 100 255 0 100 255 0 100 255 0 100 255 0 100 255 0 100 255 0 100 255 0 100 255 0 100 255 0 100 255 0 100 255 0 100 255 0 100 255 0 100 255 0 100 255 0 100 255 0 100 255 0 100 255 0 100 255 0 100 255 0 100 255 0 100 255 0 100 255 0 100 255 20 20 30 20 20 30 20 20 30 20 20 30 20 20 30 20 20 30 20 20 30 20 20 30 20 20 30 20 20 30 20 20 30 20 20 30 20 20 30 20 20 30 20 20 30 20 20 30 20 20 30 20 20 30 20 20 30 20 20 30 20 20 30 20 20 30 20 20 30 20 20 30 20 20 30 20 20 30 20 20 30 20 20 30 20 20 30 20 20 30 20 20 30 20 20 30 20 20 30 20 20 30 20 20 30 20 20 30 20 20 30 20 20 30 20 20 30 20 20 30 255 100 100 255 100 100 255 100 100 255 100 100 255 100 100 255 100 100 255 100 100 255 100 100 255 100 100 255 100 100 255 100 100 255 100 100 255 100 100 255 100 100 255 100 100 255 100 100 255 100 100 255 100 100 255 100 100 255 100 100 255 100 100 255 100 100 255 100 100 255 100 100 255 100 100 255 100 100 255 100 100 255 100 100 255 100 100 255 100 100 255 100 100 255 100 100 255 100 100 255 100 100 255 100 100 255 100 100 255 100 100 255 100 100 255 100 100 255 100 100 255 100 100 255 100 100 255 100 100 255 100 100 255 100 100 255 100 100 255 100 100 255 100 100 255 100 100 255 100 100 255 100 100 255 100 100 255 100 100 255 100 100 255 100 100 255 100 100 255 100 100 255 100 100 255 100 100 255 100 100 20 20 30 20 20 30 20 20 30 20 20 30 20 20 30 20 20 30 20 20 30 20 20 30 20 20 30 20 20 30 20 20 30 20 20 30 20 20 30 20 20 30 20 20 30 20 20 30 20 20 30 20 20 30 20 20 30 20 20 30 20 20 30 20 20 30 20 20 30 20 20 30 20 20 30 20 20 30 20 20 30 20 20 30 20 20 30 20 20 30 20 20 30 20 20 30 20 20 30 20 20 30 20 20 30 20 20 30 20 20 30 20 20 30 20 20 30 20 20 30 20 20 30 20 20 30 20 20 30 20 20 30 20 20 30 20 20 30 
20 20 30 20 20 30 20 20 30 20 20 30 20 20 30 20 20 30 20 20 30 20 20 30 20 20 30 20 20 30 20 20 30 20 20 30 20 20 30 20 20 30 20 20 30 20 20 30 20 20 30 20 20 30 20 20 30 20 20 30 20 20 30 20 20 30 20 20 30 20 20 30 20 20 30 20 20 30 20 20 30 20 20 30 20 20 30 20 20 30 20 20 30 20 20 30 20 20 30 20 20 30 20 20 30 20 20 30 20 20 30 20 20 30 20 20 30 20 20 30 0 100 255 0 100 255 0 100 255 0 100 255 0 100 255 0 100 255 0 100 255 0 100 255 0 100 255 0 100 255 0 100 255 0 100 255 0 100 255 0 100 255 0 100 255 0 100 255 0 100 255 0 100 255 0 100 255 0 100 255 0 100 255 0 100 255 0 100 255 0 100 255 0 100 255 0 100 255 0 100 255 0 100 255 0 100 255 0 100 255 0 100 255 0 100 255 0 100 255 0 100 255 0 100 255 0 100 255 0 100 255 0 100 255 0 100 255 0 100 255 0 100 255 0 100 255 0 100 255 0 100 255 0 100 255 0 100 255 0 100 255 0 100 255 0 100 255 0 100 255 0 100 255 0 100 255 0 100 255 0 100 255 0 100 255 0 100 255 0 100 255 0 100 255 0 100 255 0 100 255 0 100 255 0 100 255 0 100 255 0 100 255 0 100 255 0 100 255 0 100 255 0 100 255 0 100 255 0 100 255 20 20 30 20 20 30 20 20 30 20 20 30 20 20 30 20 20 30 20 20 30 20 20 30 20 20 30 20 20 30 20 20 30 20 20 30 20 20 30 20 20 30 20 20 30 20 20 30 20 20 30 20 20 30 20 20 30 20 20 30 20 20 30 20 20 30 20 20 30 20 20 30 20 20 30 20 20 30 20 20 30 20 20 30 20 20 30 20 20 30 20 20 30 20 20 30 20 20 30 20 20 30 20 20 30 20 20 30 20 20 30 20 20 30 20 20 30 20 20 30 255 100 100 255 100 100 255 100 100 255 100 100 255 100 100 255 100 100 255 100 100 255 100 100 255 100 100 255 100 100 255 100 100 255 100 100 255 100 100 255 100 100 255 100 100 255 100 100 255 100 100 255 100 100 255 100 100 255 100 100 255 100 100 255 100 100 255 100 100 255 100 100 255 100 100 255 100 100 255 100 100 255 100 100 255 100 100 255 100 100 255 100 100 255 100 100 255 100 100 255 100 100 255 100 100 255 100 100 255 100 100 255 100 100 255 100 100 255 100 100 255 100 100 255 100 100 255 100 100 255 100 100 255 100 100 255 100 100 255 100 100 255 100 100 255 100 100 255 100 100 255 100 100 255 100 100 255 100 100 255 100 100 255 100 100 255 100 100 255 100 100 255 100 100 255 100 100 255 100 100 20 20 30 20 20 30 20 20 30 20 20 30 20 20 30 20 20 30 20 20 30 20 20 30 20 20 30 20 20 30 20 20 30 20 20 30 20 20 30 20 20 30 20 20 30 20 20 30 20 20 30 20 20 30 20 20 30 20 20 30 20 20 30 20 20 30 20 20 30 20 20 30 20 20 30 20 20 30 20 20 30 20 20 30 20 20 30 20 20 30 20 20 30 20 20 30 20 20 30 20 20 30 20 20 30 20 20 30 20 20 30 20 20 30 20 20 30 20 20 30 20 20 30 20 20 30 20 20 30 20 20 30 20 20 30 20 20 30 
20 20 30 20 20 30 20 20 30 20 20 30 20 20 30 20 20 30 20 20 30 20 20 30 20 20 30 20 20 30 20 20 30 20 20 30 20 20 30 20 20 30 20 20 30 20 20 30 20 20 30 20 20 30 20 20 30 20 20 30 20 20 30 20 20 30 20 20 30 20 20 30 20 20 30 20 20 30 20 20 30 20 20 30 20 20 30 20 20 30 20 20 30 20 20 30 20 20 30 20 20 30 20 20 30 20 20 30 20 20 30 20 20 30 20 20 30 20 20 30 0 100 255 0 100 255 0 100 255 0 100 255 0 100 255 0 100 255 0 100 255 0 100 255 0 100 255 0 100 255 0 100 255 0 100 255 0 100 255 0 100 255 0 100 255 0 100 255 0 100 255 0 100 255 0 100 255 0 100 255 0 100 255 0 100 255 0 100 255 0 100 255 0 100 255 0 100 255 0 100 255 0 100 255 0 100 255 0 100 255 0 100 255 0 100 255 0 100 255 0 100 255 0 100 255 0 100 255 0 100 255 0 100 255 0 100 255 0 100 255 0 100 255 0 100 255 0 100 255 0 100 255 0 100 255 0 100 255 0 100 255 0 100 255 0 100 255 0 100 255 0 100 255 0 100 255 0 100 255 0 100 255 0 100 255 0 100 255 0 100 255 0 100 255 0 100 255 0 100 255 0 100 255 0 100 255 0 100 255 0 100 255 0 100 255 0 100 255 0 100 255 0 100 255 0 100 255 0 100 255 20 20 30 20 20 30 20 20 30 20 20 30 20 20 30 20 20 30 20 20 30 20 20 30 20 20 30 20 20 30 20 20 30 20 20 30 20 20 30 20 20 30 20 20 30 20 20 30 20 20 30 20 20 30 20 20 30 20 20 30 20 20 30 20 20 30 20 20 30 20 20 30 20 20 30 20 20 30 20 20 30 20 20 30 20 20 30 20 20 30 20 20 30 20 20 30 20 20 30 20 20 30 20 20 30 20 20 30 20 20 30 20 20 30 20 20 30 20 20 30 255 100 100 255 100 100 255 100 100 255 100 100 255 100 100 255 100 100 255 100 100 255 100 100 255 100 100 255 100 100 255 100 100 255 100 100 255 100 100 255 100 100 255 100 100 255 100 100 255 100 100 255 100 100 255 100 100 255 100 100 255 100 100 255 100 100 255 100 100 255 100 100 255 100 100 255 100 100 255 100 100 255 100 100 255 100 100 255 100 100 255 100 100 255 100 100 255 100 100 255 100 100 255 100 100 255 100 100 255 100 100 255 100 100 255 100 100 255 100 100 255 100 100 255 100 100 255 100 100 255 100 100 255 100 100 255 100 100 255 100 100 255 100 100 255 100 100 255 100 100 255 100 100 255 100 100 255 100 100 255 100 100 255 100 100 255 100 100 255 100 100 255 100 100 255 100 100 255 100 100 20 20 30 20 20 30 20 20 30 20 20 30 20 20 30 20 20 30 20 20 30 20 20 30 20 20 30 20 20 30 20 20 30 20 20 30 20 20 30 20 20 30 20 20 30 20 20 30 20 20 30 20 20 30 20 20 30 20 20 30 20 20 30 20 20 30 20 20 30 20 20 30 20 20 30 20 20 30 20 20 30 20 20 30 20 20 30 20 20 30 20 20 30 20 20 30 20 20 30 20 20 30 20 20 30 20 20 30 20 20 30 20 20 30 20 20 30 20 20 30 20 20 30 20 20 30 20 20 30 20 20 30 20 20 30 20 20 30 
20 20 30 20 20 30 20 20 30 20 20 30 20 20 30 20 20 30 20 20 30 20 20 30 20 20 30 20 20 30 20 20 30 20 20 30 20 20 30 20 20 30 20 20 30 20 20 30 20 20 30 20 20 30 20 20 30 20 20 30 20 20 30 20 20 30 20 20 30 20 20 30 20 20 30 20 20 30 20 20 30 20 20 30 20 20 30 20 20 30 20 20 30 20 20 30 20 20 30 20 20 30 20 20 30 20 20 30 20 20 30 20 20 30 20 20 30 20 20 30 0 100 255 0 100 255 0 100 255 0 100 255 0 100 255 0 100 255 0 100 255 0 100 255 0 100 255 0 100 255 0 100 255 0 100 255 0 100 255 0 100 255 0 100 255 0 100 255 0 100 255 0 100 255 0 100 255 0 100 255 0 100 255 0 100 255 0 100 255 0 100 255 0 100 255 0 100 255 0 100 255 0 100 255 0 100 255 0 100 255 0 100 255 0 100 255 0 100 255 0 100 255 0 100 255 0 100 255 0 100 255 0 100 255 0 100 255 0 100 255 0 100 255 0 100 255 0 100 255 0 100 255 0 100 255 0 100 255 0 100 255 0 100 255 0 100 255 0 100 255 0 100 255 0 100 255 0 100 255 0 100 255 0 100 255 0 100 255 0 100 255 0 100 255 0 100 255 0 100 255 0 100 255 0 100 255 0 100 255 0 100 255 0 100 255 0 100 255 0 100 255 0 100 255 0 100 255 0 100 255 20 20 30 20 20 30 20 20 30 20 20 30 20 20 30 20 20 30 20 20 30 20 20 30 20 20 30 20 20 30 20 20 30 20 20 30 20 20 30 20 20 30 20 20 30 20 20 30 20 20 30 20 20 30 20 20 30 20 20 30 20 20 30 20 20 30 20 20 30 20 20 30 20 20 30 20 20 30 20 20 30 20 20 30 20 20 30 20 20 30 20 20 30 20 20 30 20 20 30 20 20 30 20 20 30 20 20 30 20 20 30 20 20 30 20 20 30 20 20 30 255 100 100 255 100 100 255 100 100 255 100 100 255 100 100 255 100 100 255 100 100 255 100 100 255 100 100 255 100 100 255 100 100 255 100 100 255 100 100 255 100 100 255 100 100 255 100 100 255 100 100 255 100 100 255 100 100 255 100 100 255 100 100 255 100 100 255 100 100 255 100 100 255 100 100 255 100 100 255 100 100 255 100 100 255 100 100 255 100 100 255 100 100 255 100 100 255 100 100 255 100 100 255 100 100 255 100 100 255 100 100 255 100 100 255 100 100 255 100 100 255 100 100 255 100 100 255 100 100 255 100 100 255 100 100 255 100 100 255 100 100 255 100 100 255 100 100 255 100 100 255 100 100 255 100 100 255 100 100 255 100 100 255 100 100 255 100 100 255 100 100 255 100 100 255 100 100 255 100 100 20 20 30 20 20 30 20 20 30 20 20 30 20 20 30 20 20 30 20 20 30 20 20 30 20 20 30 20 20 30 20 20 30 20 20 30 20 20 30 20 20 30 20 20 30 20 20 30 20 20 30 20 20 30 20 20 30 20 20 30 20 20 30 20 20 30 20 20 30 20 20 30 20 20 30 20 20 30 20 20 30 20 20 30 20 20 30 20 20 30 20 20 30 20 20 30 20 20 30 20 20 30 20 20 30 20 20 30 20 20 30 20 20 30 20 20 30 20 20 30 20 20 30 20 20 30 20 20 30 20 20 30 20 20 30 20 20 30 
20 20 30 20 20 30 20 20 30 20 20 30 20 20 30 20 20 30 20 20 30 20 20 30 20 20 30 20 20 30 20 20 30 20 20 30 20 20 30 20 20 30 20 20 30 20 20 30 20 20 30 20 20 30 20 20 30 20 20 30 20 20 30 20 20 30 20 20 30 20 20 30 20 20 30 20 20 30 20 20 30 20 20 30 20 20 30 20 20 30 20 20 30 20 20 30 20 20 30 20 20 30 20 20 30 20 20 30 20 20 30 20 20 30 20 20 30 20 20 30 0 100 255 0 100 255 0 100 255 0 100 255 0 100 255 0 100 255 0 100 255 0 100 255 0 100 255 0 100 255 0 100 255 0 100 255 0 100 255 0 100 255 0 100 255 0 100 255 0 100 255 0 100 255 0 100 255 0 100 255 0 100 255 0 100 255 0 100 255 0 100 255 0 100 255 0 100 255 0 100 255 0 100 255 0 100 255 0 100 255 0 100 255 0 100 255 0 100 255 0 100 255 0 100 255 0 100 255 0 100 255 0 100 255 0 100 255 0 100 255 0 100 255 0 100 255 0 100 255 0 100 255 0 100 255 0 100 255 0 100 255 0 100 255 0 100 255 0 100 255 0 100 255 0 100 255 0 100 255 0 100 255 0 100 255 0 100 255 0 100 255 0 100 255 0 100 255 0 100 255 0 100 255 0 100 255 0 100 255 0 100 255 0 100 255 0 100 255 0 100 255 0 100 255 0 100 255 0 100 255 20 20 30 20 20 30 20 20 30 20 20 30 20 20 30 20 20 30 20 20 30 20 20 30 20 20 30 20 20 30 20 20 30 20 20 30 20 20 30 20 20 30 20 20 30 20 20 30 20 20 30 20 20 30 20 20 30 20 20 30 20 20 30 20 20 30 20 20 30 20 20 30 20 20 30 20 20 30 20 20 30 20 20 30 20 20 30 20 20 30 20 20 30 20 20 30 20 20 30 20 20 30 20 20 30 20 20 30 20 20 30 20 20 30 20 20 30 20 20 30 255 100 100 255 100 100 255 100 100 255 100 100 255 100 100 255 100 100 255 100 100 255 100 100 255 100 100 255 100 100 255 100 100 255 100 100 255 100 100 255 100 100 255 100 100 255 100 100 255 100 100 255 100 100 255 100 100 255 100 100 255 100 100 255 100 100 255 100 100 255 100 100 255 100 100 255 100 100 255 100 100 255 100 100 255 100 100 255 100 100 255 100 100 255 100 100 255 100 100 255 100 100 255 100 100 255 100 100 255 100 100 255 100 100 255 100 100 255 100 100 255 100 100 255 100 100 255 100 100 255 100 100 255 100 100 255 100 100 255 100 100 255 100 100 255 100 100 255 100 100 255 100 100 255 100 100 255 100 100 255 100 100 255 100 100 255 100 100 255 100 100 255 100 100 255 100 100 255 100 100 20 20 30 20 20 30 20 20 30 20 20 30 20 20 30 20 20 30 20 20 30 20 20 30 20 20 30 20 20 30 20 20 30 20 20 30 20 20 30 20 20 30 20 20 30 20 20 30 20 20 30 20 20 30 20 20 30 20 20 30 20 20 30 20 20 30 20 20 30 20 20 30 20 20 30 20 20 30 20 20 30 20 20 30 20 20 30 20 20 30 20 20 30 20 20 30 20 20 30 20 20 30 20 20 30 20 20 30 20 20 30 20 20 30 20 20 30 20 20 30 20 20 30 20 20 30 20 20 30 20 20 30 20 20 30 20 20 30 
20 20 30 20 20 30 20 20 30 20 20 30 20 20 30 20 20 30 20 20 30 20 20 30 20 20 30 20 20 30 20 20 30 20 20 30 20 20 30 20 20 30 20 20 30 20 20 30 20 20 30 20 20 30 20 20 30 20 20 30 20 20 30 20 20 30 20 20 30 20 20 30 20 20 30 20 20 30 20 20 30 20 20 30 20 20 30 20 20 30 20 20 30 20 20 30 20 20 30 20 20 30 20 20 30 20 20 30 20 20 30 20 20 30 20 20 30 20 20 30 0 100 255 0 100 255 0 100 255 0 100 255 0 100 255 0 100 255 0 100 255 0 100 255 0 100 255 0 100 255 0 100 255 0 100 255 0 100 255 0 100 255 0 100 255 0 100 255 0 100 255 0 100 255 0 100 255 0 100 255 0 100 255 0 100 255 0 100 255 0 100 255 0 100 255 0 100 255 0 100 255 0 100 255 0 100 255 0 100 255 0 100 255 0 100 255 0 100 255 0 100 255 0 100 255 0 100 255 0 100 255 0 100 255 0 100 255 0 100 255 0 100 255 0 100 255 0 100 255 0 100 255 0 100 255 0 100 255 0 100 255 0 100 255 0 100 255 0 100 255 0 100 255 0 100 255 0 100 255 0 100 255 0 100 255 0 100 255 0 100 255 0 100 255 0 100 255 0 100 255 0 100 255 0 100 255 0 100 255 0 100 255 0 100 255 0 100 255 0 100 255 0 100 255 0 100 255 0 100 255 20 20 30 20 20 30 20 20 30 20 20 30 20 20 30 20 20 30 20 20 30 20 20 30 20 20 30 20 20 30 20 20 30 20 20 30 20 20 30 20 20 30 20 20 30 20 20 30 20 20 30 20 20 30 20 20 30 20 20 30 20 20 30 20 20 30 20 20 30 20 20 30 20 20 30 20 20 30 20 20 30 20 20 30 20 20 30 20 20 30 20 20 30 20 20 30 20 20 30 20 20 30 20 20 30 20 20 30 20 20 30 20 20 30 20 20 30 20 20 30 255 100 100 255 100 100 255 100 100 255 100 100 255 100 100 255 100 100 255 100 100 255 100 100 255 100 100 255 100 100 255 100 100 255 100 100 255 100 100 255 100 100 255 100 100 255 100 100 255 100 100 255 100 100 255 100 100 255 100 100 255 100 100 255 100 100 255 100 100 255 100 100 255 100 100 255 100 100 255 100 100 255 100 100 255 100 100 255 100 100 255 100 100 255 100 100 255 100 100 255 100 100 255 100 100 255 100 100 255 100 100 255 100 100 255 100 100 255 100 100 255 100 100 255 100 100 255 100 100 255 100 100 255 100 100 255 100 100 255 100 100 255 100 100 255 100 100 255 100 100 255 100 100 255 100 100 255 100 100 255 100 100 255 100 100 255 100 100 255 100 100 255 100 100 255 100 100 255 100 100 20 20 30 20 20 30 20 20 30 20 20 30 20 20 30 20 20 30 20 20 30 20 20 30 20 20 30 20 20 30 20 20 30 20 20 30 20 20 30 20 20 30 20 20 30 20 20 30 20 20 30 20 20 30 20 20 30 20 20 30 20 20 30 20 20 30 20 20 30 20 20 30 20 20 30 20 20 30 20 20 30 20 20 30 20 20 30 20 20 30 20 20 30 20 20 30 20 20 30 20 20 30 20 20 30 20 20 30 20 20 30 20 20 30 20 20 30 20 20 30 20 20 30 20 20 30 20 20 30 20 20 30 20 20 30 20 20 30 
20 20 30 20 20 30 20 20 30 20 20 30 20 20 30 20 20 30 20 20 30 20 20 30 20 20 30 20 20 30 20 20 30 20 20 30 20 20 30 20 20 30 20 20 30 20 20 30 20 20 30 20 20 30 20 20 30 20 20 30 20 20 30 20 20 30 20 20 30 20 20 30 20 20 30 20 20 30 20 20 30 20 20 30 20 20 30 20 20 30 20 20 30 20 20 30 20 20 30 20 20 30 20 20 30 20 20 30 20 20 30 20 20 30 20 20 30 20 20 30 0 100 255 0 100 255 0 100 255 0 100 255 0 100 255 0 100 255 0 100 255 0 100 255 0 100 255 0 100 255 0 100 255 0 100 255 0 100 255 0 100 255 0 100 255 0 100 255 0 100 255 0 100 255 0 100 255 0 100 255 0 100 255 0 100 255 0 100 255 0 100 255 0 100 255 0 100 255 0 100 255 0 100 255 0 100 255 0 100 255 0 100 255 0 100 255 0 100 255 0 100 255 0 100 255 0 100 255 0 100 255 0 100 255 0 100 255 0 100 255 0 100 255 0 100 255 0 100 255 0 100 255 0 100 255 0 100 255 0 100 255 0 100 255 0 100 255 0 100 255 0 100 255 0 100 255 0 100 255 0 100 255 0 100 255 0 100 255 0 100 255 0 100 255 0 100 255 0 100 255 0 100 255 0 100 255 0 100 255 0 100 255 0 100 255 0 100 255 0 100 255 0 100 255 0 100 255 0 100 255 20 20 30 20 20 30 20 20 30 20 20 30 20 20 30 20 20 30 20 20 30 20 20 30 20 20 30 20 20 30 20 20 30 20 20 30 20 20 30 20 20 30 20 20 30 20 20 30 20 20 30 20 20 30 20 20 30 20 20 30 20 20 30 20 20 30 20 20 30 20 20 30 20 20 30 20 20 30 20 20 30 20 20 30 20 20 30 20 20 30 20 20 30 20 20 30 20 20 30 20 20 30 20 20 30 20 20 30 20 20 30 20 20 30 20 20 30 20 20 30 255 100 100 255 100 100 255 100 100 255 100 100 255 100 100 255 100 100 255 100 100 255 100 100 255 100 100 255 100 100 255 100 100 255 100 100 255 100 100 255 100 100 255 100 100 255 100 100 255 100 100 255 100 100 255 100 100 255 100 100 255 100 100 255 100 100 255 100 100 255 100 100 255 100 100 255 100 100 255 100 100 255 100 100 255 100 100 255 100 100 255 100 100 255 100 100 255 100 100 255 100 100 255 100 100 255 100 100 255 100 100 255 100 100 255 100 100 255 100 100 255 100 100 255 100 100 255 100 100 255 100 100 255 100 100 255 100 100 255 100 100 255 100 100 255 100 100 255 100 100 255 100 100 255 100 100 255 100 100 255 100 100 255 100 100 255 100 100 255 100 100 255 100 100 255 100 100 255 100 100 20 20 30 20 20 30 20 20 30 20 20 30 20 20 30 20 20 30 20 20 30 20 20 30 20 20 30 20 20 30 20 20 30 20 20 30 20 20 30 20 20 30 20 20 30 20 20 30 20 20 30 20 20 30 20 20 30 20 20 30 20 20 30 20 20 30 20 20 30 20 20 30 20 20 30 20 20 30 20 20 30 20 20 30 20 20 30 20 20 30 20 20 30 20 20 30 20 20 30 20 20 30 20 20 30 20 20 30 20 20 30 20 20 30 20 20 30 20 20 30 20 20 30 20 20 30 20 20 30 20 20 30 20 20 30 20 20 30 
20 20 30 20 20 30 20 20 30 20 20 30 20 20 30 20 20 30 20 20 30 20 20 30 20 20 30 20 20 30 20 20 30 20 20 30 20 20 30 20 20 30 20 20 30 20 20 30 20 20 30 20 20 30 20 20 30 20 20 30 20 20 30 20 20 30 20 20 30 20 20 30 20 20 30 20 20 30 20 20 30 20 20 30 20 20 30 20 20 30 20 20 30 20 20 30 20 20 30 20 20 30 20 20 30 20 20 30 20 20 30 20 20 30 20 20 30 20 20 30 0 100 255 0 100 255 0 100 255 0 100 255 0 100 255 0 100 255 0 100 255 0 100 255 0 100 255 0 100 255 0 100 255 0 100 255 0 100 255 0 100 255 0 100 255 0 100 255 0 100 255 0 100 255 0 100 255 0 100 255 0 100 255 0 100 255 0 100 255 0 100 255 0 100 255 0 100 255 0 100 255 0 100 255 0 100 255 0 100 255 0 100 255 0 100 255 0 100 255 0 100 255 0 100 255 0 100 255 0 100 255 0 100 255 0 100 255 0 100 255 0 100 255 0 100 255 0 100 255 0 100 255 0 100 255 0 100 255 0 100 255 0 100 255 0 100 255 0 100 255 0 100 255 0 100 255 0 100 255 0 100 255 0 100 255 0 100 255 0 100 255 0 100 255 0 100 255 0 100 255 0 100 255 0 100 255 0 100 255 0 100 255 0 100 255 0 100 255 0 100 255 0 100 255 0 100 255 0 100 255 20 20 30 20 20 30 20 20 30 20 20 30 20 20 30 20 20 30 20 20 30 20 20 30 20 20 30 20 20 30 20 20 30 20 20 30 20 20 30 20 20 30 20 20 30 20 20 30 20 20 30 20 20 30 20 20 30 20 20 30 20 20 30 20 20 30 20 20 30 20 20 30 20 20 30 20 20 30 20 20 30 20 20 30 20 20 30 20 20 30 20 20 30 20 20 30 20 20 30 20 20 30 20 20 30 20 20 30 20 20 30 20 20 30 20 20 30 20 20 30 255 100 100 255 100 100 255 100 100 255 100 100 255 100 100 255 100 100 255 100 100 255 100 100 255 100 100 255 100 100 255 100 100 255 100 100 255 100 100 255 100 100 255 100 100 255 100 100 255 100 100 255 100 100 255 100 100 255 100 100 255 100 100 255 100 100 255 100 100 255 100 100 255 100 100 255 100 100 255 100 100 255 100 100 255 100 100 255 100 100 255 100 100 255 100 100 255 100 100 255 100 100 255 100 100 255 100 100 255 100 100 255 100 100 255 100 100 255 100 100 255 100 100 255 100 100 255 100 100 255 100 100 255 100 100 255 100 100 255 100 100 255 100 100 255 100 100 255 100 100 255 100 100 255 100 100 255 100 100 255 100 100 255 100 100 255 100 100 255 100 100 255 100 100 255 100 100 255 100 100 20 20 30 20 20 30 20 20 30 20 20 30 20 20 30 20 20 30 20 20 30 20 20 30 20 20 30 20 20 30 20 20 30 20 20 30 20 20 30 20 20 30 20 20 30 20 20 30 20 20 30 20 20 30 20 20 30 20 20 30 20 20 30 20 20 30 20 20 30 20 20 30 20 20 30 20 20 30 20 20 30 20 20 30 20 20 30 20 20 30 20 20 30 20 20 30 20 20 30 20 20 30 20 20 30 20 20 30 20 20 30 20 20 30 20 20 30 20 20 30 20 20 30 20 20 30 20 20 30 20 20 30 20 20 30 20 20 30 
20 20 30 20 20 30 20 20 30 20 20 30 20 20 30 20 20 30 20 20 30 20 20 30 20 20 30 20 20 30 20 20 30 20 20 30 20 20 30 20 20 30 20 20 30 20 20 30 20 20 30 20 20 30 20 20 30 20 20 30 20 20 30 20 20 30 20 20 30 20 20 30 20 20 30 20 20 30 20 20 30 20 20 30 20 20 30 20 20 30 20 20 30 20 20 30 20 20 30 20 20 30 20 20 30 20 20 30 20 20 30 20 20 30 20 20 30 20 20 30 0 100 255 0 100 255 0 100 255 0 100 255 0 100 255 0 100 255 0 100 255 0 100 255 0 100 255 0 100 255 0 100 255 0 100 255 0 100 255 0 100 255 0 100 255 0 100 255 0 100 255 0 100 255 0 100 255 0 100 255 0 100 255 0 100 255 0 100 255 0 100 255 0 100 255 0 100 255 0 100 255 0 100 255 0 100 255 0 100 255 0 100 255 0 100 255 0 100 255 0 100 255 0 100 255 0 100 255 0 100 255 0 100 255 0 100 255 0 100 255 0 100 255 0 100 255 0 100 255 0 100 255 0 100 255 0 100 255 0 100 255 0 100 255 0 100 255 0 100 255 0 100 255 0 100 255 0 100 255 0 100 255 0 100 255 0 100 255 0 100 255 0 100 255 0 100 255 0 100 255 0 100 255 0 100 255 0 100 255 0 100 255 0 100 255 0 100 255 0 100 255 0 100 255 0 100 255 0 100 255 20 20 30 20 20 30 20 20 30 20 20 30 20 20 30 20 20 30 20 20 30 20 20 30 20 20 30 20 20 30 20 20 30 20 20 30 20 20 30 20 20 30 20 20 30 20 20 30 20 20 30 20 20 30 20 20 30 20 20 30 20 20 30 20 20 30 20 20 30 20 20 30 20 20 30 20 20 30 20 20 30 20 20 30 20 20 30 20 20 30 20 20 30 20 20 30 20 20 30 20 20 30 20 20 30 20 20 30 20 20 30 20 20 30 20 20 30 20 20 30 255 100 100 255 100 100 255 100 100 255 100 100 255 100 100 255 100 100 255 100 100 255 100 100 255 100 100 255 100 100 255 100 100 255 100 100 255 100 100 255 100 100 255 100 100 255 100 100 255 100 100 255 100 100 255 100 100 255 100 100 255 100 100 255 100 100 255 100 100 255 100 100 255 100 100 255 100 100 255 100 100 255 100 100 255 100 100 255 100 100 255 100 100 255 100 100 255 100 100 255 100 100 255 100 100 255 100 100 255 100 100 255 100 100 255 100 100 255 100 100 255 100 100 255 100 100 255 100 100 255 100 100 255 100 100 255 100 100 255 100 100 255 100 100 255 100 100 255 100 100 255 100 100 255 100 100 255 100 100 255 100 100 255 100 100 255 100 100 255 100 100 255 100 100 255 100 100 255 100 100 20 20 30 20 20 30 20 20 30 20 20 30 20 20 30 20 20 30 20 20 30 20 20 30 20 20 30 20 20 30 20 20 30 20 20 30 20 20 30 20 20 30 20 20 30 20 20 30 20 20 30 20 20 30 20 20 30 20 20 30 20 20 30 20 20 30 20 20 30 20 20 30 20 20 30 20 20 30 20 20 30 20 20 30 20 20 30 20 20 30 20 20 30 20 20 30 20 20 30 20 20 30 20 20 30 20 20 30 20 20 30 20 20 30 20 20 30 20 20 30 20 20 30 20 20 30 20 20 30 20 20 30 20 20 30 20 20 30 
20 20 30 20 20 30 20 20 30 20 20 30 20 20 30 20 20 30 20 20 30 20 20 30 20 20 30 20 20 30 20 20 30 20 20 30 20 20 30 20 20 30 20 20 30 20 20 30 20 20 30 20 20 30 20 20 30 20 20 30 20 20 30 20 20 30 20 20 30 20 20 30 20 20 30 20 20 30 20 20 30 20 20 30 20 20 30 20 20 30 20 20 30 20 20 30 20 20 30 20 20 30 20 20 30 20 20 30 20 20 30 20 20 30 20 20 30 20 20 30 0 100 255 0 100 255 0 100 255 0 100 255 0 100 255 0 100 255 0 100 255 0 100 255 0 100 255 0 100 255 0 100 255 0 100 255 0 100 255 0 100 255 0 100 255 0 100 255 0 100 255 0 100 255 0 100 255 0 100 255 0 100 255 0 100 255 0 100 255 0 100 255 0 100 255 0 100 255 0 100 255 0 100 255 0 100 255 0 100 255 0 100 255 0 100 255 0 100 255 0 100 255 0 100 255 0 100 255 0 100 255 0 100 255 0 100 255 0 100 255 0 100 255 0 100 255 0 100 255 0 100 255 0 100 255 0 100 255 0 100 255 0 100 255 0 100 255 0 100 255 0 100 255 0 100 255 0 100 255 0 100 255 0 100 255 0 100 255 0 100 255 0 100 255 0 100 255 0 100 255 0 100 255 0 100 255 0 100 255 0 100 255 0 100 255 0 100 255 0 100 255 0 100 255 0 100 255 0 100 255 20 20 30 20 20 30 20 20 30 20 20 30 20 20 30 20 20 30 20 20 30 20 20 30 20 20 30 20 20 30 20 20 30 20 20 30 20 20 30 20 20 30 20 20 30 20 20 30 20 20 30 20 20 30 20 20 30 20 20 30 20 20 30 20 20 30 20 20 30 20 20 30 20 20 30 20 20 30 20 20 30 20 20 30 20 20 30 20 20 30 20 20 30 20 20 30 20 20 30 20 20 30 20 20 30 20 20 30 20 20 30 20 20 30 20 20 30 20 20 30 255 100 100 255 100 100 255 100 100 255 100 100 255 100 100 255 100 100 255 100 100 255 100 100 255 100 100 255 100 100 255 100 100 255 100 100 255 100 100 255 100 100 255 100 100 255 100 100 255 100 100 255 100 100 255 100 100 255 100 100 255 100 100 255 100 100 255 100 100 255 100 100 255 100 100 255 100 100 255 100 100 255 100 100 255 100 100 255 100 100 255 100 100 255 100 100 255 100 100 255 100 100 255 100 100 255 100 100 255 100 100 255 100 100 255 100 100 255 100 100 255 100 100 255 100 100 255 100 100 255 100 100 255 100 100 255 100 100 255 100 100 255 100 100 255 100 100 255 100 100 255 100 100 255 100 100 255 100 100 255 100 100 255 100 100 255 100 100 255 100 100 255 100 100 255 100 100 255 100 100 20 20 30 20 20 30 20 20 30 20 20 30 20 20 30 20 20 30 20 20 30 20 20 30 20 20 30 20 20 30 20 20 30 20 20 30 20 20 30 20 20 30 20 20 30 20 20 30 20 20 30 20 20 30 20 20 30 20 20 30 20 20 30 20 20 30 20 20 30 20 20 30 20 20 30 20 20 30 20 20 30 20 20 30 20 20 30 20 20 30 20 20 30 20 20 30 20 20 30 20 20 30 20 20 30 20 20 30 20 20 30 20 20 30 20 20 30 20 20 30 20 20 30 20 20 30 20 20 30 20 20 30 20 20 30 20 20 30 
20 20 30 20 20 30 20 20 30 20 20 30 20 20 30 20 20 30 20 20 30 20 20 30 20 20 30 20 20 30 20 20 30 20 20 30 20 20 30 20 20 30 20 20 30 20 20 30 20 20 30 20 20 30 20 20 30 20 20 30 20 20 30 20 20 30 20 20 30 20 20 30 20 20 30 20 20 30 20 20 30 20 20 30 20 20 30 20 20 30 20 20 30 20 20 30 20 20 30 20 20 30 20 20 30 20 20 30 20 20 30 20 20 30 20 20 30 20 20 30 0 100 255 0 100 255 0 100 255 0 100 255 0 100 255 0 100 255 0 100 255 0 100 255 0 100 255 0 100 255 0 100 255 0 100 255 0 100 255 0 100 255 0 100 255 0 100 255 0 100 255 0 100 255 0 100 255 0 100 255 0 100 255 0 100 255 0 100 255 0 100 255 0 100 255 0 100 255 0 100 255 0 100 255 0 100 255 0 100 255 0 100 255 0 100 255 0 100 255 0 100 255 0 100 255 0 100 255 0 100 255 0 100 255 0 100 255 0 100 255 0 100 255 0 100 255 0 100 255 0 100 255 0 100 255 0 100 255 0 100 255 0 100 255 0 100 255 0 100 255 0 100 255 0 100 255 0 100 255 0 100 255 0 100 255 0 100 255 0 100 255 0 100 255 0 100 255 0 100 255 0 100 255 0 100 255 0 100 255 0 100 255 0 100 255 0 100 255 0 100 255 0 100 255 0 100 255 0 100 255 20 20 30 20 20 30 20 20 30 20 20 30 20 20 30 20 20 30 20 20 30 20 20 30 20 20 30 20 20 30 20 20 30 20 20 30 20 20 30 20 20 30 20 20 30 20 20 30 20 20 30 20 20 30 20 20 30 20 20 30 20 20 30 20 20 30 20 20 30 20 20 30 20 20 30 20 20 30 20 20 30 20 20 30 20 20 30 20 20 30 20 20 30 20 20 30 20 20 30 20 20 30 20 20 30 20 20 30 20 20 30 20 20 30 20 20 30 20 20 30 255 100 100 255 100 100 255 100 100 255 100 100 255 100 100 255 100 100 255 100 100 255 100 100 255 100 100 255 100 100 255 100 100 255 100 100 255 100 100 255 100 100 255 100 100 255 100 100 255 100 100 255 100 100 255 100 100 255 100 100 255 100 100 255 100 100 255 100 100 255 100 100 255 100 100 255 100 100 255 100 100 255 100 100 255 100 100 255 100 100 255 100 100 255 100 100 255 100 100 255 100 100 255 100 100 255 100 100 255 100 100 255 100 100 255 100 100 255 100 100 255 100 100 255 100 100 255 100 100 255 100 100 255 100 100 255 100 100 255 100 100 255 100 100 255 100 100 255 100 100 255 100 100 255 100 100 255 100 100 255 100 100 255 100 100 255 100 100 255 100 100 255 100 100 255 100 100 255 100 100 20 20 30 20 20 30 20 20 30 20 20 30 20 20 30 20 20 30 20 20 30 20 20 30 20 20 30 20 20 30 20 20 30 20 20 30 20 20 30 20 20 30 20 20 30 20 20 30 20 20 30 20 20 30 20 20 30 20 20 30 20 20 30 20 20 30 20 20 30 20 20 30 20 20 30 20 20 30 20 20 30 20 20 30 20 20 30 20 20 30 20 20 30 20 20 30 20 20 30 20 20 30 20 20 30 20 20 30 20 20 30 20 20 30 20 20 30 20 20 30 20 20 30 20 20 30 20 20 30 20 20 30 20 20 30 20 20 30 
20 20 30 20 20 30 20 20 30 20 20 30 20 20 30 20 20 30 20 20 30 20 20 30 20 20 30 20 20 30 20 20 30 20 20 30 20 20 30 20 20 30 20 20 30 20 20 30 20 20 30 20 20 30 20 20 30 20 20 30 20 20 30 20 20 30 20 20 30 20 20 30 20 20 30 20 20 30 20 20 30 20 20 30 20 20 30 20 20 30 20 20 30 20 20 30 20 20 30 20 20 30 20 20 30 20 20 30 20 20 30 20 20 30 20 20 30 20 20 30 0 100 255 0 100 255 0 100 255 0 100 255 0 100 255 0 100 255 0 100 255 0 100 255 0 100 255 0 100 255 0 100 255 0 100 255 0 100 255 0 100 255 0 100 255 0 100 255 0 100 255 0 100 255 0 100 255 0 100 255 0 100 255 0 100 255 0 100 255 0 100 255 0 100 255 0 100 255 0 100 255 0 100 255 0 100 255 0 100 255 0 100 255 0 100 255 0 100 255 0 100 255 0 100 255 0 100 255 0 100 255 0 100 255 0 100 255 0 100 255 0 100 255 0 100 255 0 100 255 0 100 255 0 100 255 0 100 255 0 100 255 0 100 255 0 100 255 0 100 255 0 100 255 0 100 255 0 100 255 0 100 255 0 100 255 0 100 255 0 100 255 0 100 255 0 100 255 0 100 255 0 100 255 0 100 255 0 100 255 0 100 255 0 100 255 0 100 255 0 100 255 0 100 255 0 100 255 0 100 255 20 20 30 20 20 30 20 20 30 20 20 30 20 20 30 20 20 30 20 20 30 20 20 30 20 20 30 20 20 30 20 20 30 20 20 30 20 20 30 20 20 30 20 20 30 20 20 30 20 20 30 20 20 30 20 20 30 20 20 30 20 20 30 20 20 30 20 20 30 20 20 30 20 20 30 20 20 30 20 20 30 20 20 30 20 20 30 20 20 30 20 20 30 20 20 30 20 20 30 20 20 30 20 20 30 20 20 30 20 20 30 20 20 30 20 20 30 20 20 30 255 100 100 255 100 100 255 100 100 255 100 100 255 100 100 255 100 100 255 100 100 255 100 100 255 100 100 255 100 100 255 100 100 255 100 100 255 100 100 255 100 100 255 100 100 255 100 100 255 100 100 255 100 100 255 100 100 255 100 100 255 100 100 255 100 100 255 100 100 255 100 100 255 100 100 255 100 100 255 100 100 255 100 100 255 100 100 255 100 100 255 100 100 255 100 100 255 100 100 255 100 100 255 100 100 255 100 100 255 100 100 255 100 100 255 100 100 255 100 100 255 100 100 255 100 100 255 100 100 255 100 100 255 100 100 255 100 100 255 100 100 255 100 100 255 100 100 255 100 100 255 100 100 255 100 100 255 100 100 255 100 100 255 100 100 255 100 100 255 100 100 255 100 100 255 100 100 255 100 100 20 20 30 20 20 30 20 20 30 20 20 30 20 20 30 20 20 30 20 20 30 20 20 30 20 20 30 20 20 30 20 20 30 20 20 30 20 20 30 20 20 30 20 20 30 20 20 30 20 20 30 20 20 30 20 20 30 20 20 30 20 20 30 20 20 30 20 20 30 20 20 30 20 20 30 20 20 30 20 20 30 20 20 30 20 20 30 20 20 30 20 20 30 20 20 30 20 20 30 20 20 30 20 20 30 20 20 30 20 20 30 20 20 30 20 20 30 20 20 30 20 20 30 20 20 30 20 20 30 20 20 30 20 20 30 20 20 30 
20 20 30 20 20 30 20 20 30 20 20 30 20 20 30 20 20 30 20 20 30 20 20 30 20 20 30 20 20 30 20 20 30 20 20 30 20 20 30 20 20 30 20 20 30 20 20 30 20 20 30 20 20 30 20 20 30 20 20 30 20 20 30 20 20 30 20 20 30 20 20 30 20 20 30 20 20 30 20 20 30 20 20 30 20 20 30 20 20 30 20 20 30 20 20 30 20 20 30 20 20 30 20 20 30 20 20 30 20 20 30 20 20 30 20 20 30 20 20 30 0 100 255 0 100 255 0 100 255 0 100 255 0 100 255 0 100 255 0 100 255 0 100 255 0 100 255 0 100 255 0 100 255 0 100 255 0 100 255 0 100 255 0 100 255 0 100 255 0 100 255 0 100 255 0 100 255 0 100 255 0 100 255 0 100 255 0 100 255 0 100 255 0 100 255 0 100 255 0 100 255 0 100 255 0 100 255 0 100 255 0 100 255 0 100 255 0 100 255 0 100 255 0 100 255 0 100 255 0 100 255 0 100 255 0 100 255 0 100 255 0 100 255 0 100 255 0 100 255 0 100 255 0 100 255 0 100 255 0 100 255 0 100 255 0 100 255 0 100 255 0 100 255 0 100 255 0 100 255 0 100 255 0 100 255 0 100 255 0 100 255 0 100 255 0 100 255 0 100 255 0 100 255 0 100 255 0 100 255 0 100 255 0 100 255 0 100 255 0 100 255 0 100 255 0 100 255 0 100 255 20 20 30 20 20 30 20 20 30 20 20 30 20 20 30 20 20 30 20 20 30 20 20 30 20 20 30 20 20 30 20 20 30 20 20 30 20 20 30 20 20 30 20 20 30 20 20 30 20 20 30 20 20 30 20 20 30 20 20 30 20 20 30 20 20 30 20 20 30 20 20 30 20 20 30 20 20 30 20 20 30 20 20 30 20 20 30 20 20 30 20 20 30 20 20 30 20 20 30 20 20 30 20 20 30 20 20 30 20 20 30 20 20 30 20 20 30 20 20 30 255 100 100 255 100 100 255 100 100 255 100 100 255 100 100 255 100 100 255 100 100 255 100 100 255 100 100 255 100 100 255 100 100 255 100 100 255 100 100 255 100 100 255 100 100 255 100 100 255 100 100 255 100 100 255 100 100 255 100 100 255 100 100 255 100 100 255 100 100 255 100 100 255 100 100 255 100 100 255 100 100 255 100 100 255 100 100 255 100 100 255 100 100 255 100 100 255 100 100 255 100 100 255 100 100 255 100 100 255 100 100 255 100 100 255 100 100 255 100 100 255 100 100 255 100 100 255 100 100 255 100 100 255 100 100 255 100 100 255 100 100 255 100 100 255 100 100 255 100 100 255 100 100 255 100 100 255 100 100 255 100 100 255 100 100 255 100 100 255 100 100 255 100 100 255 100 100 255 100 100 20 20 30 20 20 30 20 20 30 20 20 30 20 20 30 20 20 30 20 20 30 20 20 30 20 20 30 20 20 30 20 20 30 20 20 30 20 20 30 20 20 30 20 20 30 20 20 30 20 20 30 20 20 30 20 20 30 20 20 30 20 20 30 20 20 30 20 20 30 20 20 30 20 20 30 20 20 30 20 20 30 20 20 30 20 20 30 20 20 30 20 20 30 20 20 30 20 20 30 20 20 30 20 20 30 20 20 30 20 20 30 20 20 30 20 20 30 20 20 30 20 20 30 20 20 30 20 20 30 20 20 30 20 20 30 20 20 30 
20 20 30 20 20 30 20 20 30 20 20 30 20 20 30 20 20 30 20 20 30 20 20 30 20 20 30 20 20 30 20 20 30 20 20 30 20 20 30 20 20 30 20 20 30 20 20 30 20 20 30 20 20 30 20 20 30 20 20 30 20 20 30 20 20 30 20 20 30 20 20 30 20 20 30 20 20 30 20 20 30 20 20 30 20 20 30 20 20 30 20 20 30 20 20 30 20 20 30 20 20 30 20 20 30 20 20 30 20 20 30 20 20 30 20 20 30 20 20 30 0 100 255 0 100 255 0 100 255 0 100 255 0 100 255 0 100 255 0 100 255 0 100 255 0 100 255 0 100 255 0 100 255 0 100 255 0 100 255 0 100 255 0 100 255 0 100 255 0 100 255 0 100 255 0 100 255 0 100 255 0 100 255 0 100 255 0 100 255 0 100 255 0 100 255 0 100 255 0 100 255 0 100 255 0 100 255 0 100 255 0 100 255 0 100 255 0 100 255 0 100 255 0 100 255 0 100 255 0 100 255 0 100 255 0 100 255 0 100 255 0 100 255 0 100 255 0 100 255 0 100 255 0 100 255 0 100 255 0 100 255 0 100 255 0 100 255 0 100 255 0 100 255 0 100 255 0 100 255 0 100 255 0 100 255 0 100 255 0 100 255 0 100 255 0 100 255 0 100 255 0 100 255 0 100 255 0 100 255 0 100 255 0 100 255 0 100 255 0 100 255 0 100 255 0 100 255 0 100 255 20 20 30 20 20 30 20 20 30 20 20 30 20 20 30 20 20 30 20 20 30 20 20 30 20 20 30 20 20 30 20 20 30 20 20 30 20 20 30 20 20 30 20 20 30 20 20 30 20 20 30 20 20 30 20 20 30 20 20 30 20 20 30 20 20 30 20 20 30 20 20 30 20 20 30 20 20 30 20 20 30 20 20 30 20 20 30 20 20 30 20 20 30 20 20 30 20 20 30 20 20 30 20 20 30 20 20 30 20 20 30 20 20 30 20 20 30 20 20 30 255 100 100 255 100 100 255 100 100 255 100 100 255 100 100 255 100 100 255 100 100 255 100 100 255 100 100 255 100 100 255 100 100 255 100 100 255 100 100 255 100 100 255 100 100 255 100 100 255 100 100 255 100 100 255 100 100 255 100 100 255 100 100 255 100 100 255 100 100 255 100 100 255 100 100 255 100 100 255 100 100 255 100 100 255 100 100 255 100 100 255 100 100 255 100 100 255 100 100 255 100 100 255 100 100 255 100 100 255 100 100 255 100 100 255 100 100 255 100 100 255 100 100 255 100 100 255 100 100 255 100 100 255 100 100 255 100 100 255 100 100 255 100 100 255 100 100 255 100 100 255 100 100 255 100 100 255 100 100 255 100 100 255 100 100 255 100 100 255 100 100 255 100 100 255 100 100 255 100 100 20 20 30 20 20 30 20 20 30 20 20 30 20 20 30 20 20 30 20 20 30 20 20 30 20 20 30 20 20 30 20 20 30 20 20 30 20 20 30 20 20 30 20 20 30 20 20 30 20 20 30 20 20 30 20 20 30 20 20 30 20 20 30 20 20 30 20 20 30 20 20 30 20 20 30 20 20 30 20 20 30 20 20 30 20 20 30 20 20 30 20 20 30 20 20 30 20 20 30 20 20 30 20 20 30 20 20 30 20 20 30 20 20 30 20 20 30 20 20 30 20 20 30 20 20 30 20 20 30 20 20 30 20 20 30 20 20 30 
20 20 30 20 20 30 20 20 30 20 20 30 20 20 30 20 20 30 20 20 30 20 20 30 20 20 30 20 20 30 20 20 30 20 20 30 20 20 30 20 20 30 20 20 30 20 20 30 20 20 30 20 20 30 20 20 30 20 20 30 20 20 30 20 20 30 20 20 30 20 20 30 20 20 30 20 20 30 20 20 30 20 20 30 20 20 30 20 20 30 20 20 30 20 20 30 20 20 30 20 20 30 20 20 30 20 20 30 20 20 30 20 20 30 20 20 30 20 20 30 0 100 255 0 100 255 0 100 255 0 100 255 0 100 255 0 100 255 0 100 255 0 100 255 0 100 255 0 100 255 0 100 255 0 100 255 0 100 255 0 100 255 0 100 255 0 100 255 0 100 255 0 100 255 0 100 255 0 100 255 0 100 255 0 100 255 0 100 255 0 100 255 0 100 255 0 100 255 0 100 255 0 100 255 0 100 255 0 100 255 0 100 255 0 100 255 0 100 255 0 100 255 0 100 255 0 100 255 0 100 255 0 100 255 0 100 255 0 100 255 0 100 255 0 100 255 0 100 255 0 100 255 0 100 255 0 100 255 0 100 255 0 100 255 0 100 255 0 100 255 0 100 255 0 100 255 0 100 255 0 100 255 0 100 255 0 100 255 0 100 255 0 100 255 0 100 255 0 100 255 0 100 255 0 100 255 0 100 255 0 100 255 0 100 255 0 100 255 0 100 255 0 100 255 0 100 255 0 100 255 20 20 30 20 20 30 20 20 30 20 20 30 20 20 30 20 20 30 20 20 30 20 20 30 20 20 30 20 20 30 20 20 30 20 20 30 20 20 30 20 20 30 20 20 30 20 20 30 20 20 30 20 20 30 20 20 30 20 20 30 20 20 30 20 20 30 20 20 30 20 20 30 20 20 30 20 20 30 20 20 30 20 20 30 20 20 30 20 20 30 20 20 30 20 20 30 20 20 30 20 20 30 20 20 30 20 20 30 20 20 30 20 20 30 20 20 30 20 20 30 255 100 100 255 100 100 255 100 100 255 100 100 255 100 100 255 100 100 255 100 100 255 100 100 255 100 100 255 100 100 255 100 100 255 100 100 255 100 100 255 100 100 255 100 100 255 100 100 255 100 100 255 100 100 255 100 100 255 100 100 255 100 100 255 100 100 255 100 100 255 100 100 255 100 100 255 100 100 255 100 100 255 100 100 255 100 100 255 100 100 255 100 100 255 100 100 255 100 100 255 100 100 255 100 100 255 100 100 255 100 100 255 100 100 255 100 100 255 100 100 255 100 100 255 100 100 255 100 100 255 100 100 255 100 100 255 100 100 255 100 100 255 100 100 255 100 100 255 100 100 255 100 100 255 100 100 255 100 100 255 100 100 255 100 100 255 100 100 255 100 100 255 100 100 255 100 100 255 100 100 20 20 30 20 20 30 20 20 30 20 20 30 20 20 30 20 20 30 20 20 30 20 20 30 20 20 30 20 20 30 20 20 30 20 20 30 20 20 30 20 20 30 20 20 30 20 20 30 20 20 30 20 20 30 20 20 30 20 20 30 20 20 30 20 20 30 20 20 30 20 20 30 20 20 30 20 20 30 20 20 30 20 20 30 20 20 30 20 20 30 20 20 30 20 20 30 20 20 30 20 20 30 20 20 30 20 20 30 20 20 30 20 20 30 20 20 30 20 20 30 20 20 30 20 20 30 20 20 30 20 20 30 20 20 30 20 20 30 
20 20 30 20 20 30 20 20 30 20 20 30 20 20 30 20 20 30 20 20 30 20 20 30 20 20 30 20 20 30 20 20 30 20 20 30 20 20 30 20 20 30 20 20 30 20 20 30 20 20 30 20 20 30 20 20 30 20 20 30 20 20 30 20 20 30 20 20 30 20 20 30 20 20 30 20 20 30 20 20 30 20 20 30 20 20 30 20 20 30 20 20 30 20 20 30 20 20 30 20 20 30 20 20 30 20 20 30 20 20 30 20 20 30 20 20 30 20 20 30 0 100 255 0 100 255 0 100 255 0 100 255 0 100 255 0 100 255 0 100 255 0 100 255 0 100 255 0 100 255 0 100 255 0 100 255 0 100 255 0 100 255 0 100 255 0 100 255 0 100 255 0 100 255 0 100 255 0 100 255 0 100 255 0 100 255 0 100 255 0 100 255 0 100 255 0 100 255 0 100 255 0 100 255 0 100 255 0 100 255 0 100 255 0 100 255 0 100 255 0 100 255 0 100 255 0 100 255 0 100 255 0 100 255 0 100 255 0 100 255 0 100 255 0 100 255 0 100 255 0 100 255 0 100 255 0 100 255 0 100 255 0 100 255 0 100 255 0 100 255 0 100 255 0 100 255 0 100 255 0 100 255 0 100 255 0 100 255 0 100 255 0 100 255 0 100 255 0 100 255 0 100 255 0 100 255 0 100 255 0 100 255 0 100 255 0 100 255 0 100 255 0 100 255 0 100 255 0 100 255 20 20 30 20 20 30 20 20 30 20 20 30 20 20 30 20 20 30 20 20 30 20 20 30 20 20 30 20 20 30 20 20 30 20 20 30 20 20 30 20 20 30 20 20 30 20 20 30 20 20 30 20 20 30 20 20 30 20 20 30 20 20 30 20 20 30 20 20 30 20 20 30 20 20 30 20 20 30 20 20 30 20 20 30 20 20 30 20 20 30 20 20 30 20 20 30 20 20 30 20 20 30 20 20 30 20 20 30 20 20 30 20 20 30 20 20 30 20 20 30 255 100 100 255 100 100 255 100 100 255 100 100 255 100 100 255 100 100 255 100 100 255 100 100 255 100 100 255 100 100 255 100 100 255 100 100 255 100 100 255 100 100 255 100 100 255 100 100 255 100 100 255 100 100 255 100 100 255 100 100 255 100 100 255 100 100 255 100 100 255 100 100 255 100 100 255 100 100 255 100 100 255 100 100 255 100 100 255 100 100 255 100 100 255 100 100 255 100 100 255 100 100 255 100 100 255 100 100 255 100 100 255 100 100 255 100 100 255 100 100 255 100 100 255 100 100 255 100 100 255 100 100 255 100 100 255 100 100 255 100 100 255 100 100 255 100 100 255 100 100 255 100 100 255 100 100 255 100 100 255 100 100 255 100 100 255 100 100 255 100 100 255 100 100 255 100 100 255 100 100 20 20 30 20 20 30 20 20 30 20 20 30 20 20 30 20 20 30 20 20 30 20 20 30 20 20 30 20 20 30 20 20 30 20 20 30 20 20 30 20 20 30 20 20 30 20 20 30 20 20 30 20 20 30 20 20 30 20 20 30 20 20 30 20 20 30 20 20 30 20 20 30 20 20 30 20 20 30 20 20 30 20 20 30 20 20 30 20 20 30 20 20 30 20 20 30 20 20 30 20 20 30 20 20 30 20 20 30 20 20 30 20 20 30 20 20 30 20 20 30 20 20 30 20 20 30 20 20 30 20 20 30 20 20 30 20 20 30 
20 20 30 20 20 30 20 20 30 20 20 30 20 20 30 20 20 30 20 20 30 20 20 30 20 20 30 20 20 30 20 20 30 20 20 30 20 20 30 20 20 30 20 20 30 20 20 30 20 20 30 20 20 30 20 20 30 20 20 30 20 20 30 20 20 30 20 20 30 20 20 30 20 20 30 20 20 30 20 20 30 20 20 30 20 20 30 20 20 30 20 20 30 20 20 30 20 20 30 20 20 30 20 20 30 20 20 30 20 20 30 20 20 30 20 20 30 20 20 30 0 100 255 0 100 255 0 100 255 0 100 255 0 100 255 0 100 255 0 100 255 0 100 255 0 100 255 0 100 255 0 100 255 0 100 255 0 100 255 0 100 255 0 100 255 0 100 255 0 100 255 0 100 255 0 100 255 0 100 255 0 100 255 0 100 255 0 100 255 0 100 255 0 100 255 0 100 255 0 100 255 0 100 255 0 100 255 0 100 255 0 100 255 0 100 255 0 100 255 0 100 255 0 100 255 0 100 255 0 100 255 0 100 255 0 100 255 0 100 255 0 100 255 0 100 255 0 100 255 0 100 255 0 100 255 0 100 255 0 100 255 0 100 255 0 100 255 0 100 255 0 100 255 0 100 255 0 100 255 0 100 255 0 100 255 0 100 255 0 100 255 0 100 255 0 100 255 0 100 255 0 100 255 0 100 255 0 100 255 0 100 255 0 100 255 0 100 255 0 100 255 0 100 255 0 100 255 0 100 255 20 20 30 20 20 30 20 20 30 20 20 30 20 20 30 20 20 30 20 20 30 20 20 30 20 20 30 20 20 30 20 20 30 20 20 30 20 20 30 20 20 30 20 20 30 20 20 30 20 20 30 20 20 30 20 20 30 20 20 30 20 20 30 20 20 30 20 20 30 20 20 30 20 20 30 20 20 30 20 20 30 20 20 30 20 20 30 20 20 30 20 20 30 20 20 30 20 20 30 20 20 30 20 20 30 20 20 30 20 20 30 20 20 30 20 20 30 20 20 30 255 100 100 255 100 100 255 100 100 255 100 100 255 100 100 255 100 100 255 100 100 255 100 100 255 100 100 255 100 100 255 100 100 255 100 100 255 100 100 255 100 100 255 100 100 255 100 100 255 100 100 255 100 100 255 100 100 255 100 100 255 100 100 255 100 100 255 100 100 255 100 100 255 100 100 255 100 100 255 100 100 255 100 100 255 100 100 255 100 100 255 100 100 255 100 100 255 100 100 255 100 100 255 100 100 255 100 100 255 100 100 255 100 100 255 100 100 255 100 100 255 100 100 255 100 100 255 100 100 255 100 100 255 100 100 255 100 100 255 100 100 255 100 100 255 100 100 255 100 100 255 100 100 255 100 100 255 100 100 255 100 100 255 100 100 255 100 100 255 100 100 255 100 100 255 100 100 255 100 100 20 20 30 20 20 30 20 20 30 20 20 30 20 20 30 20 20 30 20 20 30 20 20 30 20 20 30 20 20 30 20 20 30 20 20 30 20 20 30 20 20 30 20 20 30 20 20 30 20 20 30 20 20 30 20 20 30 20 20 30 20 20 30 20 20 30 20 20 30 20 20 30 20 20 30 20 20 30 20 20 30 20 20 30 20 20 30 20 20 30 20 20 30 20 20 30 20 20 30 20 20 30 20 20 30 20 20 30 20 20 30 20 20 30 20 20 30 20 20 30 20 20 30 20 20 30 20 20 30 20 20 30 20 20 30 20 20 30 
20 20 30 20 20 30 20 20 30 20 20 30 20 20 30 20 20 30 20 20 30 20 20 30 20 20 30 20 20 30 20 20 30 20 20 30 20 20 30 20 20 30 20 20 30 20 20 30 20 20 30 20 20 30 20 20 30 20 20 30 20 20 30 20 20 30 20 20 30 20 20 30 20 20 30 20 20 30 20 20 30 20 20 30 20 20 30 20 20 30 20 20 30 20 20 30 20 20 30 20 20 30 20 20 30 20 20 30 20 20 30 20 20 30 20 20 30 20 20 30 0 100 255 0 100 255 0 100 255 0 100 255 0 100 255 0 100 255 0 100 255 0 100 255 0 100 255 0 100 255 0 100 255 0 100 255 0 100 255 0 100 255 0 100 255 0 100 255 0 100 255 0 100 255 0 100 255 0 100 255 0 100 255 0 100 255 0 100 255 0 100 255 0 100 255 0 100 255 0 100 255 0 100 255 0 100 255 0 100 255 0 100 255 0 100 255 0 100 255 0 100 255 0 100 255 0 100 255 0 100 255 0 100 255 0 100 255 0 100 255 0 100 255 0 100 255 0 100 255 0 100 255 0 100 255 0 100 255 0 100 255 0 100 255 0 100 255 0 100 255 0 100 255 0 100 255 0 100 255 0 100 255 0 100 255 0 100 255 0 100 255 0 100 255 0 100 255 0 100 255 0 100 255 0 100 255 0 100 255 0 100 255 0 100 255 0 100 255 0 100 255 0 100 255 0 100 255 0 100 255 20 20 30 20 20 30 20 20 30 20 20 30 20 20 30 20 20 30 20 20 30 20 20 30 20 20 30 20 20 30 20 20 30 20 20 30 20 20 30 20 20 30 20 20 30 20 20 30 20 20 30 20 20 30 20 20 30 20 20 30 20 20 30 20 20 30 20 20 30 20 20 30 20 20 30 20 20 30 20 20 30 20 20 30 20 20 30 20 20 30 20 20 30 20 20 30 20 20 30 20 20 30 20 20 30 20 20 30 20 20 30 20 20 30 20 20 30 20 20 30 255 100 100 255 100 100 255 100 100 255 100 100 255 100 100 255 100 100 255 100 100 255 100 100 255 100 100 255 100 100 255 100 100 255 100 100 255 100 100 255 100 100 255 100 100 255 100 100 255 100 100 255 100 100 255 100 100 255 100 100 255 100 100 255 100 100 255 100 100 255 100 100 255 100 100 255 100 100 255 100 100 255 100 100 255 100 100 255 100 100 255 100 100 255 100 100 255 100 100 255 100 100 255 100 100 255 100 100 255 100 100 255 100 100 255 100 100 255 100 100 255 100 100 255 100 100 255 100 100 255 100 100 255 100 100 255 100 100 255 100 100 255 100 100 255 100 100 255 100 100 255 100 100 255 100 100 255 100 100 255 100 100 255 100 100 255 100 100 255 100 100 255 100 100 255 100 100 255 100 100 20 20 30 20 20 30 20 20 30 20 20 30 20 20 30 20 20 30 20 20 30 20 20 30 20 20 30 20 20 30 20 20 30 20 20 30 20 20 30 20 20 30 20 20 30 20 20 30 20 20 30 20 20 30 20 20 30 20 20 30 20 20 30 20 20 30 20 20 30 20 20 30 20 20 30 20 20 30 20 20 30 20 20 30 20 20 30 20 20 30 20 20 30 20 20 30 20 20 30 20 20 30 20 20 30 20 20 30 20 20 30 20 20 30 20 20 30 20 20 30 20 20 30 20 20 30 20 20 30 20 20 30 20 20 30 20 20 30 
20 20 30 20 20 30 20 20 30 20 20 30 20 20 30 20 20 30 20 20 30 20 20 30 20 20 30 20 20 30 20 20 30 20 20 30 20 20 30 20 20 30 20 20 30 20 20 30 20 20 30 20 20 30 20 20 30 20 20 30 20 20 30 20 20 30 20 20 30 20 20 30 20 20 30 20 20 30 20 20 30 20 20 30 20 20 30 20 20 30 20 20 30 20 20 30 20 20 30 20 20 30 20 20 30 20 20 30 20 20 30 20 20 30 20 20 30 20 20 30 20 20 30 20 20 30 20 20 30 20 20 30 20 20 30 20 20 30 20 20 30 20 20 30 20 20 30 20 20 30 20 20 30 20 20 30 20 20 30 20 20 30 20 20 30 0 255 0 20 20 30 20 20 30 20 20 30 20 20 30 20 20 30 20 20 30 20 20 30 20 20 30 20 20 30 20 20 30 20 20 30 20 20 30 20 20 30 20 20 30 20 20 30 20 20 30 20 20 30 20 20 30 20 20 30 20 20 30 20 20 30 20 20 30 20 20 30 20 20 30 20 20 30 20 20 30 20 20 30 20 20 30 20 20 30 20 20 30 20 20 30 20 20 30 20 20 30 20 20 30 20 20 30 20 20 30 20 20 30 20 20 30 20 20 30 20 20 30 20 20 30 20 20 30 20 20 30 20 20 30 20 20 30 20 20 30 20 20 30 20 20 30 20 20 30 20 20 30 20 20 30 20 20 30 20 20 30 20 20 30 20 20 30 20 20 30 20 20 30 20 20 30 20 20 30 20 20 30 20 20 30 20 20 30 20 20 30 20 20 30 20 20 30 20 20 30 20 20 30 20 20 30 20 20 30 20 20 30 20 20 30 20 20 30 20 20 30 20 20 30 20 20 30 20 20 30 20 20 30 20 20 30 20 20 30 20 20 30 20 20 30 20 20 30 20 20 30 20 20 30 20 20 30 20 20 30 20 20 30 20 20 30 20 20 30 20 20 30 20 20 30 20 20 30 20 20 30 20 20 30 255 100 100 255 100 100 255 100 100 255 100 100 255 100 100 255 100 100 255 100 100 255 100 100 255 100 100 255 100 100 255 100 100 255 100 100 255 100 100 255 100 100 255 100 100 255 100 100 255 100 100 255 100 100 255 100 100 255 100 100 255 100 100 255 100 100 255 100 100 255 100 100 255 100 100 255 100 100 255 100 100 255 100 100 255 100 100 255 100 100 255 100 100 255 100 100 255 100 100 255 100 100 255 100 100 255 100 100 255 100 100 255 100 100 255 100 100 255 100 100 255 100 100 255 100 100 255 100 100 255 100 100 255 100 100 255 100 100 255 100 100 255 100 100 255 100 100 255 100 100 255 100 100 255 100 100 255 100 100 255 100 100 255 100 100 255 100 100 255 100 100 255 100 100 255 100 100 255 100 100 20 20 30 20 20 30 20 20 30 20 20 30 20 20 30 20 20 30 20 20 30 20 20 30 20 20 30 20 20 30 20 20 30 20 20 30 20 20 30 20 20 30 20 20 30 20 20 30 20 20 30 20 20 30 20 20 30 20 20 30 20 20 30 20 20 30 20 20 30 20 20 30 20 20 30 20 20 30 20 20 30 20 20 30 20 20 30 20 20 30 20 20 30 20 20 30 20 20 30 20 20 30 20 20 30 20 20 30 20 20 30 20 20 30 20 20 30 20 20 30 20 20 30 20 20 30 20 20 30 20 20 30 20 20 30 20 20 30 
20 20 30 20 20 30 20 20 30 20 20 30 20 20 30 20 20 30 20 20 30 20 20 30 20 20 30 20 20 30 20 20 30 20 20 30 20 20 30 20 20 30 20 20 30 20 20 30 20 20 30 20 20 30 20 20 30 20 20 30 20 20 30 20 20 30 20 20 30 20 20 30 20 20 30 20 20 30 20 20 30 20 20 30 20 20 30 20 20 30 20 20 30 20 20 30 20 20 30 20 20 30 20 20 30 20 20 30 20 20 30 20 20 30 20 20 30 20 20 30 20 20 30 20 20 30 20 20 30 20 20 30 20 20 30 20 20 30 20 20 30 20 20 30 20 20 30 20 20 30 20 20 30 20 20 30 20 20 30 20 20 30 0 255 0 20 20 30 20 20 30 20 20 30 20 20 30 20 20 30 20 20 30 20 20 30 20 20 30 20 20 30 20 20 30 20 20 30 20 20 30 20 20 30 20 20 30 20 20 30 20 20 30 20 20 30 20 20 30 20 20 30 20 20 30 20 20 30 20 20 30 20 20 30 20 20 30 20 20 30 20 20 30 20 20 30 20 20 30 20 20 30 20 20 30 20 20 30 20 20 30 20 20 30 20 20 30 20 20 30 20 20 30 20 20 30 20 20 30 20 20 30 20 20 30 20 20 30 20 20 30 20 20 30 20 20 30 20 20 30 20 20 30 20 20 30 20 20 30 20 20 30 20 20 30 20 20 30 20 20 30 20 20 30 20 20 30 20 20 30 20 20 30 20 20 30 20 20 30 20 20 30 20 20 30 20 20 30 20 20 30 20 20 30 20 20 30 20 20 30 20 20 30 20 20 30 20 20 30 20 20 30 20 20 30 20 20 30 20 20 30 20 20 30 20 20 30 20 20 30 20 20 30 20 20 30 20 20 30 20 20 30 20 20 30 20 20 30 20 20 30 20 20 30 20 20 30 20 20 30 20 20 30 20 20 30 20 20 30 20 20 30 20 20 30 20 20 30 20 20 30 20 20 30 20 20 30 20 20 30 255 100 100 255 100 100 255 100 100 255 100 100 255 100 100 255 100 100 255 100 100 255 100 100 255 100 100 255 100 100 255 100 100 255 100 100 255 100 100 255 100 100 255 100 100 255 100 100 255 100 100 255 100 100 255 100 100 255 100 100 255 100 100 255 100 100 255 100 100 255 100 100 255 100 100 255 100 100 255 100 100 255 100 100 255 100 100 255 100 100 255 100 100 255 100 100 255 100 100 255 100 100 255 100 100 255 100 100 255 100 100 255 100 100 255 100 100 255 100 100 255 100 100 255 100 100 255 100 100 255 100 100 255 100 100 255 100 100 255 100 100 255 100 100 255 100 100 255 100 100 255 100 100 255 100 100 255 100 100 255 100 100 255 100 100 255 100 100 255 100 100 255 100 100 255 100 100 255 100 100 20 20 30 20 20 30 20 20 30 20 20 30 20 20 30 20 20 30 20 20 30 20 20 30 20 20 30 20 20 30 20 20 30 20 20 30 20 20 30 20 20 30 20 20 30 20 20 30 20 20 30 20 20 30 20 20 30 20 20 30 20 20 30 20 20 30 20 20 30 20 20 30 20 20 30 20 20 30 20 20 30 20 20 30 20 20 30 20 20 30 20 20 30 20 20 30 20 20 30 20 20 30 20 20 30 20 20 30 20 20 30 20 20 30 20 20 30 20 20 30 20 20 30 20 20 30 20 20 30 20 20 30 20 20 30 20 20 30 
20 20 30 20 20 30 20 20 30 20 20 30 20 20 30 20 20 30 20 20 30 20 20 30 20 20 30 20 20 30 20 20 30 20 20 30 20 20 30 20 20 30 20 20 30 20 20 30 20 20 30 20 20 30 20 20 30 20 20 30 20 20 30 20 20 30 20 20 30 20 20 30 20 20 30 20 20 30 20 20 30 20 20 30 20 20 30 20 20 30 20 20 30 20 20 30 20 20 30 20 20 30 20 20 30 20 20 30 20 20 30 20 20 30 20 20 30 20 20 30 20 20 30 20 20 30 20 20 30 20 20 30 20 20 30 20 20 30 20 20 30 20 20 30 20 20 30 20 20 30 20 20 30 20 20 30 20 20 30 0 255 0 20 20 30 20 20 30 20 20 30 20 20 30 20 20 30 20 20 30 20 20 30 20 20 30 20 20 30 20 20 30 20 20 30 20 20 30 20 20 30 20 20 30 20 20 30 20 20 30 20 20 30 20 20 30 20 20 30 20 20 30 20 20 30 20 20 30 20 20 30 20 20 30 20 20 30 20 20 30 20 20 30 20 20 30 20 20 30 20 20 30 20 20 30 20 20 30 20 20 30 20 20 30 20 20 30 20 20 30 20 20 30 20 20 30 20 20 30 20 20 30 20 20 30 20 20 30 20 20 30 20 20 30 20 20 30 20 20 30 20 20 30 20 20 30 20 20 30 20 20 30 20 20 30 20 20 30 20 20 30 20 20 30 20 20 30 20 20 30 20 20 30 20 20 30 20 20 30 20 20 30 20 20 30 20 20 30 20 20 30 20 20 30 20 20 30 20 20 30 20 20 30 20 20 30 20 20 30 20 20 30 20 20 30 20 20 30 20 20 30 20 20 30 20 20 30 20 20 30 20 20 30 20 20 30 20 20 30 20 20 30 20 20 30 20 20 30 20 20 30 20 20 30 20 20 30 20 20 30 20 20 30 20 20 30 20 20 30 20 20 30 20 20 30 20 20 30 20 20 30 20 20 30 20 20 30 20 20 30 255 100 100 255 100 100 255 100 100 255 100 100 255 100 100 255 100 100 255 100 100 255 100 100 255 100 100 255 100 100 255 100 100 255 100 100 255 100 100 255 100 100 255 100 100 255 100 100 255 100 100 255 100 100 255 100 100 255 100 100 255 100 100 255 100 100 255 100 100 255 100 100 255 100 100 255 100 100 255 100 100 255 100 100 255 100 100 255 100 100 255 100 100 255 100 100 255 100 100 255 100 100 255 100 100 255 100 100 255 100 100 255 100 100 255 100 100 255 100 100 255 100 100 255 100 100 255 100 100 255 100 100 255 100 100 255 100 100 255 100 100 255 100 100 255 100 100 255 100 100 255 100 100 255 100 100 255 100 100 255 100 100 255 100 100 255 100 100 255 100 100 255 100 100 255 100 100 255 100 100 20 20 30 20 20 30 20 20 30 20 20 30 20 20 30 20 20 30 20 20 30 20 20 30 20 20 30 20 20 30 20 20 30 20 20 30 20 20 30 20 20 30 20 20 30 20 20 30 20 20 30 20 20 30 20 20 30 20 20 30 20 20 30 20 20 30 20 20 30 20 20 30 20 20 30 20 20 30 20 20 30 20 20 30 20 20 30 20 20 30 20 20 30 20 20 30 20 20 30 20 20 30 20 20 30 20 20 30 20 20 30 20 20 30 20 20 30 20 20 30 20 20 30 20 20 30 20 20 30 20 20 30 20 20 30 20 20 30 
20 20 30 20 20 30 20 20 30 20 20 30 20 20 30 20 20 30 20 20 30 20 20 30 20 20 30 20 20 30 20 20 30 20 20 30 20 20 30 20 20 30 20 20 30 20 20 30 20 20 30 20 20 30 20 20 30 20 20 30 20 20 30 20 20 30 20 20 30 20 20 30 20 20 30 20 20 30 20 20 30 20 20 30 20 20 30 20 20 30 20 20 30 20 20 30 20 20 30 20 20 30 20 20 30 20 20 30 20 20 30 20 20 30 20 20 30 20 20 30 20 20 30 20 20 30 20 20 30 20 20 30 20 20 30 20 20 30 20 20 30 20 20 30 20 20 30 20 20 30 20 20 30 20 20 30 0 255 0 20 20 30 20 20 30 20 20 30 20 20 30 20 20 30 20 20 30 20 20 30 20 20 30 20 20 30 20 20 30 20 20 30 20 20 30 20 20 30 20 20 30 20 20 30 20 20 30 20 20 30 20 20 30 20 20 30 20 20 30 20 20 30 20 20 30 20 20 30 20 20 30 20 20 30 20 20 30 20 20 30 20 20 30 20 20 30 20 20 30 20 20 30 20 20 30 20 20 30 20 20 30 20 20 30 20 20 30 20 20 30 20 20 30 20 20 30 20 20 30 20 20 30 20 20 30 20 20 30 20 20 30 20 20 30 20 20 30 20 20 30 20 20 30 20 20 30 20 20 30 20 20 30 20 20 30 20 20 30 20 20 30 20 20 30 20 20 30 20 20 30 20 20 30 20 20 30 20 20 30 20 20 30 20 20 30 20 20 30 20 20 30 20 20 30 20 20 30 20 20 30 20 20 30 20 20 30 20 20 30 20 20 30 20 20 30 20 20 30 20 20 30 20 20 30 20 20 30 20 20 30 20 20 30 20 20 30 20 20 30 20 20 30 20 20 30 20 20 30 20 20 30 20 20 30 20 20 30 20 20 30 20 20 30 20 20 30 20 20 30 20 20 30 20 20 30 20 20 30 20 20 30 20 20 30 20 20 30 20 20 30 255 100 100 255 100 100 255 100 100 255 100 100 255 100 100 255 100 100 255 100 100 255 100 100 255 100 100 255 100 100 255 100 100 255 100 100 255 100 100 255 100 100 255 100 100 255 100 100 255 100 100 255 100 100 255 100 100 255 100 100 255 100 100 255 100 100 255 100 100 255 100 100 255 100 100 255 100 100 255 100 100 255 100 100 255 100 100 255 100 100 255 100 100 255 100 100 255 100 100 255 100 100 255 100 100 255 100 100 255 100 100 255 100 100 255 100 100 255 100 100 255 100 100 255 100 100 255 100 100 255 100 100 255 100 100 255 100 100 255 100 100 255 100 100 255 100 100 255 100 100 255 100 100 255 100 100 255 100 100 255 100 100 255 100 100 255 100 100 255 100 100 255 100 100 255 100 100 255 100 100 20 20 30 20 20 30 20 20 30 20 20 30 20 20 30 20 20 30 20 20 30 20 20 30 20 20 30 20 20 30 20 20 30 20 20 30 20 20 30 20 20 30 20 20 30 20 20 30 20 20 30 20 20 30 20 20 30 20 20 30 20 20 30 20 20 30 20 20 30 20 20 30 20 20 30 20 20 30 20 20 30 20 20 30 20 20 30 20 20 30 20 20 30 20 20 30 20 20 30 20 20 30 20 20 30 20 20 30 20 20 30 20 20 30 20 20 30 20 20 30 20 20 30 20 20 30 20 20 30 20 20 30 20 20 30 20 20 30 
20 20 30 20 20 30 20 20 30 20 20 30 20 20 30 20 20 30 20 20 30 20 20 30 20 20 30 20 20 30 20 20 30 20 20 30 20 20 30 20 20 30 20 20 30 20 20 30 20 20 30 20 20 30 20 20 30 20 20 30 20 20 30 20 20 30 20 20 30 20 20 30 20 20 30 20 20 30 20 20 30 20 20 30 20 20 30 20 20 30 20 20 30 20 20 30 20 20 30 20 20 30 20 20 30 20 20 30 20 20 30 20 20 30 20 20 30 20 20 30 20 20 30 20 20 30 20 20 30 20 20 30 20 20 30 20 20 30 20 20 30 20 20 30 20 20 30 20 20 30 20 20 30 0 255 0 20 20 30 20 20 30 20 20 30 20 20 30 20 20 30 20 20 30 20 20 30 20 20 30 20 20 30 20 20 30 20 20 30 20 20 30 20 20 30 20 20 30 20 20 30 20 20 30 20 20 30 20 20 30 20 20 30 20 20 30 20 20 30 20 20 30 20 20 30 20 20 30 20 20 30 20 20 30 20 20 30 20 20 30 20 20 30 20 20 30 20 20 30 20 20 30 20 20 30 20 20 30 20 20 30 20 20 30 20 20 30 20 20 30 20 20 30 20 20 30 20 20 30 20 20 30 20 20 30 20 20 30 20 20 30 20 20 30 20 20 30 20 20 30 20 20 30 20 20 30 20 20 30 20 20 30 20 20 30 20 20 30 20 20 30 20 20 30 20 20 30 20 20 30 20 20 30 20 20 30 20 20 30 20 20 30 20 20 30 20 20 30 20 20 30 20 20 30 20 20 30 20 20 30 20 20 30 20 20 30 20 20 30 20 20 30 20 20 30 20 20 30 20 20 30 20 20 30 20 20 30 20 20 30 20 20 30 20 20 30 20 20 30 20 20 30 20 20 30 20 20 30 20 20 30 20 20 30 20 20 30 20 20 30 20 20 30 20 20 30 20 20 30 20 20 30 20 20 30 20 20 30 20 20 30 20 20 30 20 20 30 20 20 30 255 100 100 255 100 100 255 100 100 255 100 100 255 100 100 255 100 100 255 100 100 255 100 100 255 100 100 255 100 100 255 100 100 255 100 100 255 100 100 255 100 100 255 100 100 255 100 100 255 100 100 255 100 100 255 100 100 255 100 100 255 100 100 255 100 100 255 100 100 255 100 100 255 100 100 255 100 100 255 100 100 255 100 100 255 100 100 255 100 100 255 100 100 255 100 100 255 100 100 255 100 100 255 100 100 255 100 100 255 100 100 255 100 100 255 100 100 255 100 100 255 100 100 255 100 100 255 100 100 255 100 100 255 100 100 255 100 100 255 100 100 255 100 100 255 100 100 255 100 100 255 100 100 255 100 100 255 100 100 255 100 100 255 100 100 255 100 100 255 100 100 255 100 100 255 100 100 255 100 100 20 20 30 20 20 30 20 20 30 20 20 30 20 20 30 20 20 30 20 20 30 20 20 30 20 20 30 20 20 30 20 20 30 20 20 30 20 20 30 20 20 30 20 20 30 20 20 30 20 20 30 20 20 30 20 20 30 20 20 30 20 20 30 20 20 30 20 20 30 20 20 30 20 20 30 20 20 30 20 20 30 20 20 30 20 20 30 20 20 30 20 20 30 20 20 30 20 20 30 20 20 30 20 20 30 20 20 30 20 20 30 20 20 30 20 20 30 20 20 30 20 20 30 20 20 30 20 20 30 20 20 30 20 20 30 20 20 30 
20 20 30 20 20 30 20 20 30 20 20 30 20 20 30 20 20 30 20 20 30 20 20 30 20 20 30 20 20 30 20 20 30 20 20 30 20 20 30 20 20 30 20 20 30 20 20 30 20 20 30 20 20 30 20 20 30 20 20 30 20 20 30 20 20 30 20 20 30 20 20 30 20 20 30 20 20 30 20 20 30 20 20 30 20 20 30 20 20 30 20 20 30 20 20 30 20 20 30 20 20 30 20 20 30 20 20 30 20 20 30 20 20 30 20 20 30 20 20 30 20 20 30 20 20 30 20 20 30 20 20 30 20 20 30 20 20 30 20 20 30 20 20 30 20 20 30 20 20 30 0 255 0 20 20 30 20 20 30 20 20 30 20 20 30 20 20 30 20 20 30 20 20 30 20 20 30 20 20 30 20 20 30 20 20 30 20 20 30 20 20 30 20 20 30 20 20 30 20 20 30 20 20 30 20 20 30 20 20 30 20 20 30 20 20 30 20 20 30 20 20 30 20 20 30 20 20 30 20 20 30 20 20 30 20 20 30 20 20 30 20 20 30 20 20 30 20 20 30 20 20 30 20 20 30 20 20 30 20 20 30 20 20 30 20 20 30 20 20 30 20 20 30 20 20 30 20 20 30 20 20 30 20 20 30 20 20 30 20 20 30 20 20 30 20 20 30 20 20 30 20 20 30 20 20 30 20 20 30 20 20 30 20 20 30 20 20 30 20 20 30 20 20 30 20 20 30 20 20 30 20 20 30 20 20 30 20 20 30 20 20 30 20 20 30 20 20 30 20 20 30 20 20 30 20 20 30 20 20 30 20 20 30 20 20 30 20 20 30 20 20 30 20 20 30 20 20 30 20 20 30 20 20 30 20 20 30 20 20 30 20 20 30 20 20 30 20 20 30 20 20 30 20 20 30 20 20 30 20 20 30 20 20 30 20 20 30 20 20 30 20 20 30 20 20 30 20 20 30 20 20 30 20 20 30 20 20 30 20 20 30 20 20 30 20 20 30 20 20 30 255 100 100 255 100 100 255 100 100 255 100 100 255 100 100 255 100 100 255 100 100 255 100 100 255 100 100 255 100 100 255 100 100 255 100 100 255 100 100 255 100 100 255 100 100 255 100 100 255 100 100 255 100 100 255 100 100 255 100 100 255 100 100 255 100 100 255 100 100 255 100 100 255 100 100 255 100 100 255 100 100 255 100 100 255 100 100 255 100 100 255 100 100 255 100 100 255 100 100 255 100 100 255 100 100 255 100 100 255 100 100 255 100 100 255 100 100 255 100 100 255 100 100 255 100 100 255 100 100 255 100 100 255 100 100 255 100 100 255 100 100 255 100 100 255 100 100 255 100 100 255 100 100 255 100 100 255 100 100 255 100 100 255 100 100 255 100 100 255 100 100 255 100 100 255 100 100 255 100 100 20 20 30 20 20 30 20 20 30 20 20 30 20 20 30 20 20 30 20 20 30 20 20 30 20 20 30 20 20 30 20 20 30 20 20 30 20 20 30 20 20 30 20 20 30 20 20 30 20 20 30 20 20 30 20 20 30 20 20 30 20 20 30 20 20 30 20 20 30 20 20 30 20 20 30 20 20 30 20 20 30 20 20 30 20 20 30 20 20 30 20 20 30 20 20 30 20 20 30 20 20 30 20 20 30 20 20 30 20 20 30 20 20 30 20 20 30 20 20 30 20 20 30 20 20 30 20 20 30 20 20 30 20 20 30 20 20 30 
20 20 30 20 20 30 20 20 30 20 20 30 20 20 30 20 20 30 20 20 30 20 20 30 20 20 30 20 20 30 20 20 30 20 20 30 20 20 30 20 20 30 20 20 30 20 20 30 20 20 30 20 20 30 20 20 30 20 20 30 20 20 30 20 20 30 20 20 30 20 20 30 20 20 30 20 20 30 20 20 30 20 20 30 20 20 30 20 20 30 20 20 30 20 20 30 20 20 30 20 20 30 20 20 30 20 20 30 20 20 30 20 20 30 20 20 30 20 20 30 20 20 30 20 20 30 20 20 30 20 20 30 20 20 30 20 20 30 20 20 30 20 20 30 20 20 30 0 255 0 20 20 30 20 20 30 20 20 30 20 20 30 20 20 30 20 20 30 20 20 30 20 20 30 20 20 30 20 20 30 20 20 30 20 20 30 20 20 30 20 20 30 20 20 30 20 20 30 20 20 30 20 20 30 20 20 30 20 20 30 20 20 30 20 20 30 20 20 30 20 20 30 20 20 30 20 20 30 20 20 30 20 20 30 20 20 30 20 20 30 20 20 30 20 20 30 20 20 30 20 20 30 20 20 30 20 20 30 20 20 30 20 20 30 20 20 30 20 20 30 20 20 30 20 20 30 20 20 30 20 20 30 20 20 30 20 20 30 20 20 30 20 20 30 20 20 30 20 20 30 20 20 30 20 20 30 20 20 30 20 20 30 20 20 30 20 20 30 20 20 30 20 20 30 20 20 30 20 20 30 20 20 30 20 20 30 20 20 30 20 20 30 20 20 30 20 20 30 20 20 30 20 20 30 20 20 30 20 20 30 20 20 30 20 20 30 20 20 30 20 20 30 20 20 30 20 20 30 20 20 30 20 20 30 20 20 30 20 20 30 20 20 30 20 20 30 20 20 30 20 20 30 20 20 30 20 20 30 20 20 30 20 20 30 20 20 30 20 20 30 20 20 30 20 20 30 20 20 30 20 20 30 20 20 30 20 20 30 20 20 30 20 20 30 20 20 30 20 20 30 255 100 100 255 100 100 255 100 100 255 100 100 255 100 100 255 100 100 255 100 100 255 100 100 255 100 100 255 100 100 255 100 100 255 100 100 255 100 100 255 100 100 255 100 100 255 100 100 255 100 100 255 100 100 255 100 100 255 100 100 255 100 100 255 100 100 255 100 100 255 100 100 255 100 100 255 100 100 255 100 100 255 100 100 255 100 100 255 100 100 255 100 100 255 100 100 255 100 100 255 100 100 255 100 100 255 100 100 255 100 100 255 100 100 255 100 100 255 100 100 255 100 100 255 100 100 255 100 100 255 100 100 255 100 100 255 100 100 255 100 100 255 100 100 255 100 100 255 100 100 255 100 100 255 100 100 255 100 100 255 100 100 255 100 100 255 100 100 255 100 100 255 100 100 255 100 100 255 100 100 20 20 30 20 20 30 20 20 30 20 20 30 20 20 30 20 20 30 20 20 30 20 20 30 20 20 30 20 20 30 20 20 30 20 20 30 20 20 30 20 20 30 20 20 30 20 20 30 20 20 30 20 20 30 20 20 30 20 20 30 20 20 30 20 20 30 20 20 30 20 20 30 20 20 30 20 20 30 20 20 30 20 20 30 20 20 30 20 20 30 20 20 30 20 20 30 20 20 30 20 20 30 20 20 30 20 20 30 20 20 30 20 20 30 20 20 30 20 20 30 20 20 30 20 20 30 20 20 30 20 20 30 20 20 30 20 20 30 
20 20 30 20 20 30 20 20 30 20 20 30 20 20 30 20 20 30 20 20 30 20 20 30 20 20 30 20 20 30 20 20 30 20 20 30 20 20 30 20 20 30 20 20 30 20 20 30 20 20 30 20 20 30 20 20 30 20 20 30 20 20 30 20 20 30 20 20 30 20 20 30 20 20 30 20 20 30 20 20 30 20 20 30 20 20 30 20 20 30 20 20 30 20 20 30 20 20 30 20 20 30 20 20 30 20 20 30 20 20 30 20 20 30 20 20 30 20 20 30 20 20 30 20 20 30 20 20 30 20 20 30 20 20 30 20 20 30 20 20 30 20 20 30 0 255 0 20 20 30 20 20 30 20 20 30 20 20 30 20 20 30 20 20 30 20 20 30 20 20 30 20 20 30 20 20 30 20 20 30 20 20 30 20 20 30 20 20 30 20 20 30 20 20 30 20 20 30 20 20 30 20 20 30 20 20 30 20 20 30 20 20 30 20 20 30 20 20 30 20 20 30 20 20 30 20 20 30 20 20 30 20 20 30 20 20 30 20 20 30 20 20 30 20 20 30 20 20 30 20 20 30 20 20 30 20 20 30 20 20 30 20 20 30 20 20 30 20 20 30 20 20 30 20 20 30 20 20 30 20 20 30 20 20 30 20 20 30 20 20 30 20 20 30 20 20 30 20 20 30 20 20 30 20 20 30 20 20 30 20 20 30 20 20 30 20 20 30 20 20 30 20 20 30 20 20 30 20 20 30 20 20 30 20 20 30 20 20 30 20 20 30 20 20 30 20 20 30 20 20 30 20 20 30 20 20 30 20 20 30 20 20 30 20 20 30 20 20 30 20 20 30 20 20 30 20 20 30 20 20 30 20 20 30 20 20 30 20 20 30 20 20 30 20 20 30 20 20 30 20 20 30 20 20 30 20 20 30 20 20 30 20 20 30 20 20 30 20 20 30 20 20 30 20 20 30 20 20 30 20 20 30 20 20 30 20 20 30 20 20 30 20 20 30 20 20 30 20 20 30 255 100 100 255 100 100 255 100 100 255 100 100 255 100 100 255 100 100 255 100 100 255 100 100 255 100 100 255 100 100 255 100 100 255 100 100 255 100 100 255 100 100 255 100 100 255 100 100 255 100 100 255 100 100 255 100 100 255 100 100 255 100 100 255 100 100 255 100 100 255 100 100 255 100 100 255 100 100 255 100 100 255 100 100 255 100 100 255 100 100 255 100 100 255 100 100 255 100 100 255 100 100 255 100 100 255 100 100 255 100 100 255 100 100 255 100 100 255 100 100 255 100 100 255 100 100 255 100 100 255 100 100 255 100 100 255 100 100 255 100 100 255 100 100 255 100 100 255 100 100 255 100 100 255 100 100 255 100 100 255 100 100 255 100 100 255 100 100 255 100 100 255 100 100 255 100 100 255 100 100 20 20 30 20 20 30 20 20 30 20 20 30 20 20 30 20 20 30 20 20 30 20 20 30 20 20 30 20 20 30 20 20 30 20 20 30 20 20 30 20 20 30 20 20 30 20 20 30 20 20 30 20 20 30 20 20 30 20 20 30 20 20 30 20 20 30 20 20 30 20 20 30 20 20 30 20 20 30 20 20 30 20 20 30 20 20 30 20 20 30 20 20 30 20 20 30 20 20 30 20 20 30 20 20 30 20 20 30 20 20 30 20 20 30 20 20 30 20 20 30 20 20 30 20 20 30 20 20 30 20 20 30 20 20 30 20 20 30 
20 20 30 20 20 30 20 20 30 20 20 30 20 20 30 20 20 30 20 20 30 20 20 30 20 20 30 20 20 30 20 20 30 20 20 30 20 20 30 20 20 30 20 20 30 20 20 30 20 20 30 20 20 30 20 20 30 20 20 30 20 20 30 20 20 30 20 20 30 20 20 30 20 20 30 20 20 30 20 20 30 20 20 30 20 20 30 20 20 30 20 20 30 20 20 30 20 20 30 20 20 30 20 20 30 20 20 30 20 20 30 20 20 30 20 20 30 20 20 30 20 20 30 20 20 30 20 20 30 20 20 30 20 20 30 20 20 30 20 20 30 0 255 0 20 20 30 20 20 30 20 20 30 20 20 30 20 20 30 20 20 30 20 20 30 20 20 30 20 20 30 20 20 30 20 20 30 20 20 30 20 20 30 20 20 30 20 20 30 20 20 30 20 20 30 20 20 30 20 20 30 20 20 30 20 20 30 20 20 30 20 20 30 20 20 30 20 20 30 20 20 30 20 20 30 20 20 30 20 20 30 20 20 30 20 20 30 20 20 30 20 20 30 20 20 30 20 20 30 20 20 30 20 20 30 20 20 30 20 20 30 20 20 30 20 20 30 20 20 30 20 20 30 20 20 30 20 20 30 20 20 30 20 20 30 20 20 30 20 20 30 20 20 30 20 20 30 20 20 30 20 20 30 20 20 30 20 20 30 20 20 30 20 20 30 20 20 30 20 20 30 20 20 30 20 20 30 20 20 30 20 20 30 20 20 30 20 20 30 20 20 30 20 20 30 20 20 30 20 20 30 20 20 30 20 20 30 20 20 30 20 20 30 20 20 30 20 20 30 20 20 30 20 20 30 20 20 30 20 20 30 20 20 30 20 20 30 20 20 30 20 20 30 20 20 30 20 20 30 20 20 30 20 20 30 20 20 30 20 20 30 20 20 30 20 20 30 20 20 30 20 20 30 20 20 30 20 20 30 20 20 30 20 20 30 20 20 30 20 20 30 20 20 30 20 20 30 20 20 30 255 100 100 255 100 100 255 100 100 255 100 100 255 100 100 255 100 100 255 100 100 255 100 100 255 100 100 255 100 100 255 100 100 255 100 100 255 100 100 255 100 100 255 100 100 255 100 100 255 100 100 255 100 100 255 100 100 255 100 100 255 100 100 255 100 100 255 100 100 255 100 100 255 100 100 255 100 100 255 100 100 255 100 100 255 100 100 255 100 100 255 100 100 255 100 100 255 100 100 255 100 100 255 100 100 255 100 100 255 100 100 255 100 100 255 100 100 255 100 100 255 100 100 255 100 100 255 100 100 255 100 100 255 100 100 255 100 100 255 100 100 255 100 100 255 100 100 255 100 100 255 100 100 255 100 100 255 100 100 255 100 100 255 100 100 255 100 100 255 100 100 255 100 100 255 100 100 255 100 100 20 20 30 20 20 30 20 20 30 20 20 30 20 20 30 20 20 30 20 20 30 20 20 30 20 20 30 20 20 30 20 20 30 20 20 30 20 20 30 20 20 30 20 20 30 20 20 30 20 20 30 20 20 30 20 20 30 20 20 30 20 20 30 20 20 30 20 20 30 20 20 30 20 20 30 20 20 30 20 20 30 20 20 30 20 20 30 20 20 30 20 20 30 20 20 30 20 20 30 20 20 30 20 20 30 20 20 30 20 20 30 20 20 30 20 20 30 20 20 30 20 20 30 20 20 30 20 20 30 20 20 30 20 20 30 20 20 30 
20 20 30 20 20 30 20 20 30 20 20 30 20 20 30 20 20 30 20 20 30 20 20 30 20 20 30 20 20 30 20 20 30 20 20 30 20 20 30 20 20 30 20 20 30 20 20 30 20 20 30 20 20 30 20 20 30 20 20 30 20 20 30 20 20 30 20 20 30 20 20 30 20 20 30 20 20 30 20 20 30 20 20 30 20 20 30 20 20 30 20 20 30 20 20 30 20 20 30 20 20 30 20 20 30 20 20 30 20 20 30 20 20 30 20 20 30 20 20 30 20 20 30 20 20 30 20 20 30 20 20 30 20 20 30 20 20 30 0 255 0 20 20 30 20 20 30 20 20 30 20 20 30 20 20 30 20 20 30 20 20 30 20 20 30 20 20 30 20 20 30 20 20 30 20 20 30 20 20 30 20 20 30 20 20 30 20 20 30 20 20 30 20 20 30 20 20 30 20 20 30 20 20 30 20 20 30 20 20 30 20 20 30 20 20 30 20 20 30 20 20 30 20 20 30 20 20 30 20 20 30 20 20 30 20 20 30 20 20 30 20 20 30 20 20 30 20 20 30 20 20 30 20 20 30 20 20 30 20 20 30 20 20 30 20 20 30 20 20 30 20 20 30 20 20 30 20 20 30 20 20 30 20 20 30 20 20 30 20 20 30 20 20 30 20 20 30 20 20 30 20 20 30 20 20 30 20 20 30 20 20 30 20 20 30 20 20 30 20 20 30 20 20 30 20 20 30 20 20 30 20 20 30 20 20 30 20 20 30 20 20 30 20 20 30 20 20 30 20 20 30 20 20 30 20 20 30 20 20 30 20 20 30 20 20 30 20 20 30 20 20 30 20 20 30 20 20 30 20 20 30 20 20 30 20 20 30 20 20 30 20 20 30 20 20 30 20 20 30 20 20 30 20 20 30 20 20 30 20 20 30 20 20 30 20 20 30 20 20 30 20 20 30 20 20 30 20 20 30 20 20 30 20 20 30 20 20 30 20 20 30 20 20 30 20 20 30 20 20 30 255 100 100 255 100 100 255 100 100 255 100 100 255 100 100 255 100 100 255 100 100 255 100 100 255 100 100 255 100 100 255 100 100 255 100 100 255 100 100 255 100 100 255 100 100 255 100 100 255 100 100 255 100 100 255 100 100 255 100 100 255 100 100 255 100 100 255 100 100 255 100 100 255 100 100 255 100 100 255 100 100 255 100 100 255 100 100 255 100 100 255 100 100 255 100 100 255 100 100 255 100 100 255 100 100 255 100 100 255 100 100 255 100 100 255 100 100 255 100 100 255 100 100 255 100 100 255 100 100 255 100 100 255 100 100 255 100 100 255 100 100 255 100 100 255 100 100 255 100 100 255 100 100 255 100 100 255 100 100 255 100 100 255 100 100 255 100 100 255 100 100 255 100 100 255 100 100 255 100 100 20 20 30 20 20 30 20 20 30 20 20 30 20 20 30 20 20 30 20 20 30 20 20 30 20 20 30 20 20 30 20 20 30 20 20 30 20 20 30 20 20 30 20 20 30 20 20 30 20 20 30 20 20 30 20 20 30 20 20 30 20 20 30 20 20 30 20 20 30 20 20 30 20 20 30 20 20 30 20 20 30 20 20 30 20 20 30 20 20 30 20 20 30 20 20 30 20 20 30 20 20 30 20 20 30 20 20 30 20 20 30 20 20 30 20 20 30 20 20 30 20 20 30 20 20 30 20 20 30 20 20 30 20 20 30 20 20 30 
20 20 30 20 20 30 20 20 30 20 20 30 20 20 30 20 20 30 20 20 30 20 20 30 20 20 30 20 20 30 20 20 30 20 20 30 20 20 30 20 20 30 20 20 30 20 20 30 20 20 30 20 20 30 20 20 30 20 20 30 20 20 30 20 20 30 20 20 30 20 20 30 20 20 30 20 20 30 20 20 30 20 20 30 20 20 30 20 20 30 20 20 30 20 20 30 20 20 30 20 20 30 20 20 30 20 20 30 20 20 30 20 20 30 20 20 30 20 20 30 20 20 30 20 20 30 20 20 30 20 20 30 20 20 30 0 255 0 20 20 30 20 20 30 20 20 30 20 20 30 20 20 30 20 20 30 20 20 30 20 20 30 20 20 30 20 20 30 20 20 30 20 20 30 20 20 30 20 20 30 20 20 30 20 20 30 20 20 30 20 20 30 20 20 30 20 20 30 20 20 30 20 20 30 20 20 30 20 20 30 20 20 30 20 20 30 20 20 30 20 20 30 20 20 30 20 20 30 20 20 30 20 20 30 20 20 30 20 20 30 20 20 30 20 20 30 20 20 30 20 20 30 20 20 30 20 20 30 20 20 30 20 20 30 20 20 30 20 20 30 20 20 30 20 20 30 20 20 30 20 20 30 20 20 30 20 20 30 20 20 30 20 20 30 20 20 30 20 20 30 20 20 30 20 20 30 20 20 30 20 20 30 20 20 30 20 20 30 20 20 30 20 20 30 20 20 30 20 20 30 20 20 30 20 20 30 20 20 30 20 20 30 20 20 30 20 20 30 20 20 30 20 20 30 20 20 30 20 20 30 20 20 30 20 20 30 20 20 30 20 20 30 20 20 30 20 20 30 20 20 30 20 20 30 20 20 30 20 20 30 20 20 30 20 20 30 20 20 30 20 20 30 20 20 30 20 20 30 20 20 30 20 20 30 20 20 30 20 20 30 20 20 30 20 20 30 20 20 30 20 20 30 20 20 30 20 20 30 20 20 30 20 20 30 20 20 30 20 20 30 20 20 30 20 20 30 20 20 30 20 20 30 20 20 30 20 20 30 20 20 30 20 20 30 20 20 30 20 20 30 20 20 30 20 20 30 20 20 30 20 20 30 20 20 30 20 20 30 20 20 30 20 20 30 20 20 30 20 20 30 20 20 30 20 20 30 20 20 30 20 20 30 20 20 30 20 20 30 20 20 30 20 20 30 20 20 30 20 20 30 20 20 30 20 20 30 20 20 30 20 20 30 20 20 30 20 20 30 20 20 30 20 20 30 20 20 30 20 20 30 20 20 30 20 20 30 20 20 30 20 20 30 20 20 30 20 20 30 20 20 30 20 20 30 20 20 30 20 20 30 20 20 30 20 20 30 20 20 30 20 20 30 20 20 30 20 20 30 20 20 30 20 20 30 20 20 30 20 20 30 255 0 0 20 20 30 20 20 30 20 20 30 20 20 30 20 20 30 20 20 30 20 20 30 20 20 30 20 20 30 20 20 30 20 20 30 20 20 30 20 20 30 20 20 30 20 20 30 20 20 30 20 20 30 20 20 30 20 20 30 20 20 30 20 20 30 20 20 30 20 20 30 20 20 30 20 20 30 20 20 30 20 20 30 20 20 30 20 20 30 20 20 30 20 20 30 20 20 30 20 20 30 20 20 30 20 20 30 20 20 30 20 20 30 20 20 30 20 20 30 20 20 30 20 20 30 20 20 30 20 20 30 20 20 30 20 20 30 
20 20 30 20 20 30 20 20 30 20 20 30 20 20 30 20 20 30 20 20 30 20 20 30 20 20 30 20 20 30 20 20 30 20 20 30 20 20 30 20 20 30 20 20 30 20 20 30 20 20 30 20 20 30 20 20 30 20 20 30 20 20 30 20 20 30 20 20 30 20 20 30 20 20 30 20 20 30 20 20 30 20 20 30 20 20 30 20 20 30 20 20 30 20 20 30 20 20 30 20 20 30 20 20 30 20 20 30 20 20 30 20 20 30 20 20 30 20 20 30 20 20 30 20 20 30 20 20 30 20 20 30 0 255 0 20 20 30 20 20 30 20 20 30 20 20 30 20 20 30 20 20 30 20 20 30 20 20 30 20 20 30 20 20 30 20 20 30 20 20 30 20 20 30 20 20 30 20 20 30 20 20 30 20 20 30 20 20 30 20 20 30 20 20 30 20 20 30 20 20 30 20 20 30 20 20 30 20 20 30 20 20 30 20 20 30 20 20 30 20 20 30 20 20 30 20 20 30 20 20 30 20 20 30 20 20 30 20 20 30 20 20 30 20 20 30 20 20 30 20 20 30 20 20 30 20 20 30 20 20 30 20 20 30 20 20 30 20 20 30 20 20 30 20 20 30 20 20 30 20 20 30 20 20 30 20 20 30 20 20 30 20 20 30 20 20 30 20 20 30 20 20 30 20 20 30 20 20 30 20 20 30 20 20 30 20 20 30 20 20 30 20 20 30 20 20 30 20 20 30 20 20 30 20 20 30 20 20 30 20 20 30 20 20 30 20 20 30 20 20 30 20 20 30 20 20 30 20 20 30 20 20 30 20 20 30 20 20 30 20 20 30 20 20 30 20 20 30 20 20 30 20 20 30 20 20 30 20 20 30 20 20 30 20 20 30 20 20 30 20 20 30 20 20 30 20 20 30 20 20 30 20 20 30 20 20 30 20 20 30 20 20 30 20 20 30 20 20 30 20 20 30 20 20 30 20 20 30 20 20 30 20 20 30 20 20 30 20 20 30 20 20 30 20 20 30 20 20 30 20 20 30 20 20 30 20 20 30 20 20 30 20 20 30 20 20 30 20 20 30 20 20 30 20 20 30 20 20 30 20 20 30 20 20 30 20 20 30 20 20 30 20 20 30 20 20 30 20 20 30 20 20 30 20 20 30 20 20 30 20 20 30 20 20 30 20 20 30 20 20 30 20 20 30 20 20 30 20 20 30 20 20 30 20 20 30 20 20 30 20 20 30 20 20 30 20 20 30 20 20 30 20 20 30 20 20 30 20 20 30 20 20 30 20 20 30 20 20 30 20 20 30 20 20 30 20 20 30 20 20 30 20 20 30 20 20 30 20 20 30 20 20 30 20 20 30 20 20 30 20 20 30 20 20 30 20 20 30 20 20 30 20 20 30 20 20 30 20 20 30 20 20 30 255 0 0 20 20 30 20 20 30 20 20 30 20 20 30 20 20 30 20 20 30 20 20 30 20 20 30 20 20 30 20 20 30 20 20 30 20 20 30 20 20 30 20 20 30 20 20 30 20 20 30 20 20 30 20 20 30 20 20 30 20 20 30 20 20 30 20 20 30 20 20 30 20 20 30 20 20 30 20 20 30 20 20 30 20 20 30 20 20 30 20 20 30 20 20 30 20 20 30 20 20 30 20 20 30 20 20 30 20 20 30 20 20 30 20 20 30 20 20 30 20 20 30 20 20 30 20 20 30 20 20 30 20 20 30 
20 20 30 20 20 30 20 20 30 20 20 30 20 20 30 20 20 30 20 20 30 20 20 30 20 20 30 20 20 30 20 20 30 20 20 30 20 20 30 20 20 30 20 20 30 20 20 30 20 20 30 20 20 30 20 20 30 20 20 30 20 20 30 20 20 30 20 20 30 20 20 30 20 20 30 20 20 30 20 20 30 20 20 30 20 20 30 20 20 30 20 20 30 20 20 30 20 20 30 20 20 30 20 20 30 20 20 30 20 20 30 20 20 30 20 20 30 20 20 30 20 20 30 20 20 30 20 20 30 0 255 0 20 20 30 20 20 30 20 20 30 20 20 30 20 20 30 20 20 30 20 20 30 20 20 30 20 20 30 20 20 30 20 20 30 20 20 30 20 20 30 20 20 30 20 20 30 20 20 30 20 20 30 20 20 30 20 20 30 20 20 30 20 20 30 20 20 30 20 20 30 20 20 30 20 20 30 20 20 30 20 20 30 20 20 30 20 20 30 20 20 30 20 20 30 20 20 30 20 20 30 20 20 30 20 20 30 20 20 30 20 20 30 20 20 30 20 20 30 20 20 30 20 20 30 20 20 30 20 20 30 20 20 30 20 20 30 20 20 30 20 20 30 20 20 30 20 20 30 20 20 30 20 20 30 20 20 30 20 20 30 20 20 30 20 20 30 20 20 30 20 20 30 20 20 30 20 20 30 20 20 30 20 20 30 20 20 30 20 20 30 20 20 30 20 20 30 20 20 30 20 20 30 20 20 30 20 20 30 20 20 30 20 20 30 20 20 30 20 20 30 20 20 30 20 20 30 20 20 30 20 20 30 20 20 30 20 20 30 20 20 30 20 20 30 20 20 30 20 20 30 20 20 30 20 20 30 20 20 30 20 20 30 20 20 30 20 20 30 20 20 30 20 20 30 20 20 30 20 20 30 20 20 30 20 20 30 20 20 30 20 20 30 20 20 30 20 20 30 20 20 30 20 20 30 20 20 30 20 20 30 20 20 30 20 20 30 20 20 30 20 20 30 20 20 30 20 20 30 20 20 30 20 20 30 20 20 30 20 20 30 20 20 30 20 20 30 20 20 30 20 20 30 20 20 30 20 20 30 20 20 30 20 20 30 20 20 30 20 20 30 20 20 30 20 20 30 20 20 30 20 20 30 20 20 30 20 20 30 20 20 30 20 20 30 20 20 30 20 20 30 20 20 30 20 20 30 20 20 30 20 20 30 20 20 30 20 20 30 20 20 30 20 20 30 20 20 30 20 20 30 20 20 30 20 20 30 20 20 30 20 20 30 20 20 30 20 20 30 20 20 30 20 20 30 20 20 30 20 20 30 20 20 30 20 20 30 20 20 30 20 20 30 20 20 30 20 20 30 20 20 30 20 20 30 20 20 30 20 20 30 20 20 30 20 20 30 20 20 30 20 20 30 20 20 30 255 0 0 20 20 30 20 20 30 20 20 30 20 20 30 20 20 30 20 20 30 20 20 30 20 20 30 20 20 30 20 20 30 20 20 30 20 20 30 20 20 30 20 20 30 20 20 30 20 20 30 20 20 30 20 20 30 20 20 30 20 20 30 20 20 30 20 20 30 20 20 30 20 20 30 20 20 30 20 20 30 20 20 30 20 20 30 20 20 30 20 20 30 20 20 30 20 20 30 20 20 30 20 20 30 20 20 30 20 20 30 20 20 30 20 20 30 20 20 30 20 20 30 20 20 30 20 20 30 20 20 30 
20 20 30 20 20 30 20 20 30 20 20 30 20 20 30 20 20 30 20 20 30 20 20 30 20 20 30 20 20 30 20 20 30 20 20 30 20 20 30 20 20 30 20 20 30 20 20 30 20 20 30 20 20 30 20 20 30 20 20 30 20 20 30 20 20 30 20 20 30 20 20 30 20 20 30 20 20 30 20 20 30 20 20 30 20 20 30 20 20 30 20 20 30 20 20 30 20 20 30 20 20 30 20 20 30 20 20 30 20 20 30 20 20 30 20 20 30 20 20 30 20 20 30 20 20 30 0 255 0 20 20 30 20 20 30 20 20 30 20 20 30 20 20 30 20 20 30 20 20 30 20 20 30 20 20 30 20 20 30 20 20 30 20 20 30 20 20 30 20 20 30 20 20 30 20 20 30 20 20 30 20 20 30 20 20 30 20 20 30 20 20 30 20 20 30 20 20 30 20 20 30 20 20 30 20 20 30 20 20 30 20 20 30 20 20 30 20 20 30 20 20 30 20 20 30 20 20 30 20 20 30 20 20 30 20 20 30 20 20 30 20 20 30 20 20 30 20 20 30 20 20 30 20 20 30 20 20 30 20 20 30 20 20 30 20 20 30 20 20 30 20 20 30 20 20 30 20 20 30 20 20 30 20 20 30 20 20 30 20 20 30 20 20 30 20 20 30 20 20 30 20 20 30 20 20 30 20 20 30 20 20 30 20 20 30 20 20 30 20 20 30 20 20 30 20 20 30 20 20 30 20 20 30 20 20 30 20 20 30 20 20 30 20 20 30 20 20 30 20 20 30 20 20 30 20 20 30 20 20 30 20 20 30 20 20 30 20 20 30 20 20 30 20 20 30 20 20 30 20 20 30 20 20 30 20 20 30 20 20 30 20 20 30 20 20 30 20 20 30 20 20 30 20 20 30 20 20 30 20 20 30 20 20 30 20 20 30 20 20 30 20 20 30 20 20 30 20 20 30 20 20 30 20 20 30 20 20 30 20 20 30 20 20 30 20 20 30 20 20 30 20 20 30 20 20 30 20 20 30 20 20 30 20 20 30 20 20 30 20 20 30 20 20 30 20 20 30 20 20 30 20 20 30 20 20 30 20 20 30 20 20 30 20 20 30 20 20 30 20 20 30 20 20 30 20 20 30 20 20 30 20 20 30 20 20 30 20 20 30 20 20 30 20 20 30 20 20 30 20 20 30 20 20 30 20 20 30 20 20 30 20 20 30 20 20 30 20 20 30 20 20 30 20 20 30 20 20 30 20 20 30 20 20 30 20 20 30 20 20 30 20 20 30 20 20 30 20 20 30 20 20 30 20 20 30 20 20 30 20 20 30 20 20 30 20 20 30 20 20 30 20 20 30 20 20 30 20 20 30 20 20 30 20 20 30 20 20 30 20 20 30 20 20 30 20 20 30 20 20 30 20 20 30 20 20 30 20 20 30 255 0 0 20 20 30 20 20 30 20 20 30 20 20 30 20 20 30 20 20 30 20 20 30 20 20 30 20 20 30 20 20 30 20 20 30 20 20 30 20 20 30 20 20 30 20 20 30 20 20 30 20 20 30 20 20 30 20 20 30 20 20 30 20 20 30 20 20 30 20 20 30 20 20 30 20 20 30 20 20 30 20 20 30 20 20 30 20 20 30 20 20 30 20 20 30 20 20 30 20 20 30 20 20 30 20 20 30 20 20 30 20 20 30 20 20 30 20 20 30 20 20 30 20 20 30 20 20 30 
20 20 30 20 20 30 20 20 30 20 20 30 20 20 30 20 20 30 20 20 30 20 20 30 20 20 30 20 20 30 20 20 30 20 20 30 20 20 30 20 20 30 20 20 30 20 20 30 20 20 30 20 20 30 20 20 30 20 20 30 20 20 30 20 20 30 20 20 30 20 20 30 20 20 30 20 20 30 20 20 30 20 20 30 20 20 30 20 20 30 20 20 30 20 20 30 20 20 30 20 20 30 20 20 30 20 20 30 20 20 30 20 20 30 20 20 30 20 20 30 20 20 30 0 255 0 20 20 30 20 20 30 20 20 30 20 20 30 20 20 30 20 20 30 20 20 30 20 20 30 20 20 30 20 20 30 20 20 30 20 20 30 20 20 30 20 20 30 20 20 30 20 20 30 20 20 30 20 20 30 20 20 30 20 20 30 20 20 30 20 20 30 20 20 30 20 20 30 20 20 30 20 20 30 20 20 30 20 20 30 20 20 30 20 20 30 20 20 30 20 20 30 20 20 30 20 20 30 20 20 30 20 20 30 20 20 30 20 20 30 20 20 30 20 20 30 20 20 30 20 20 30 20 20 30 20 20 30 20 20 30 20 20 30 20 20 30 20 20 30 20 20 30 20 20 30 20 20 30 20 20 30 20 20 30 20 20 30 20 20 30 20 20 30 20 20 30 20 20 30 20 20 30 20 20 30 20 20 30 20 20 30 20 20 30 20 20 30 20 20 30 20 20 30 20 20 30 20 20 30 20 20 30 20 20 30 20 20 30 20 20 30 20 20 30 20 20 30 20 20 30 20 20 30 20 20 30 20 20 30 20 20 30 20 20 30 20 20 30 20 20 30 20 20 30 20 20 30 20 20 30 20 20 30 20 20 30 20 20 30 20 20 30 20 20 30 20 20 30 20 20 30 20 20 30 20 20 30 20 20 30 20 20 30 20 20 30 20 20 30 20 20 30 20 20 30 20 20 30 20 20 30 20 20 30 20 20 30 20 20 30 20 20 30 20 20 30 20 20 30 20 20 30 20 20 30 20 20 30 20 20 30 20 20 30 20 20 30 20 20 30 20 20 30 20 20 30 20 20 30 20 20 30 20 20 30 20 20 30 20 20 30 20 20 30 20 20 30 20 20 30 20 20 30 20 20 30 20 20 30 20 20 30 20 20 30 20 20 30 20 20 30 20 20 30 20 20 30 20 20 30 20 20 30 20 20 30 20 20 30 20 20 30 20 20 30 20 20 30 20 20 30 20 20 30 20 20 30 20 20 30 20 20 30 20 20 30 20 20 30 20 20 30 20 20 30 20 20 30 20 20 30 20 20 30 20 20 30 20 20 30 20 20 30 20 20 30 20 20 30 20 20 30 20 20 30 20 20 30 20 20 30 20 20 30 20 20 30 20 20 30 20 20 30 20 20 30 20 20 30 20 20 30 20 20 30 20 20 30 20 20 30 255 0 0 20 20 30 20 20 30 20 20 30 20 20 30 20 20 30 20 20 30 20 20 30 20 20 30 20 20 30 20 20 30 20 20 30 20 20 30 20 20 30 20 20 30 20 20 30 20 20 30 20 20 30 20 20 30 20 20 30 20 20 30 20 20 30 20 20 30 20 20 30 20 20 30 20 20 30 20 20 30 20 20 30 20 20 30 20 20 30 20 20 30 20 20 30 20 20 30 20 20 30 20 20 30 20 20 30 20 20 30 20 20 30 20 20 30 20 20 30 20 20 30 20 20 30 
20 20 30 20 20 30 20 20 30 20 20 30 20 20 30 20 20 30 20 20 30 20 20 30 20 20 30 20 20 30 20 20 30 20 20 30 20 20 30 20 20 30 20 20 30 20 20 30 20 20 30 20 20 30 20 20 30 20 20 30 20 20 30 20 20 30 20 20 30 20 20 30 20 20 30 20 20 30 20 20 30 20 20 30 20 20 30 20 20 30 20 20 30 20 20 30 20 20 30 20 20 30 20 20 30 20 20 30 20 20 30 20 20 30 20 20 30 20 20 30 0 255 0 20 20 30 20 20 30 20 20 30 20 20 30 20 20 30 20 20 30 20 20 30 20 20 30 20 20 30 20 20 30 20 20 30 20 20 30 20 20 30 20 20 30 20 20 30 20 20 30 20 20 30 20 20 30 20 20 30 20 20 30 20 20 30 20 20 30 20 20 30 20 20 30 20 20 30 20 20 30 20 20 30 20 20 30 20 20 30 20 20 30 20 20 30 20 20 30 20 20 30 20 20 30 20 20 30 20 20 30 20 20 30 20 20 30 20 20 30 20 20 30 20 20 30 20 20 30 20 20 30 20 20 30 20 20 30 20 20 30 20 20 30 20 20 30 20 20 30 20 20 30 20 20 30 20 20 30 20 20 30 20 20 30 20 20 30 20 20 30 20 20 30 20 20 30 20 20 30 20 20 30 20 20 30 20 20 30 20 20 30 20 20 30 20 20 30 20 20 30 20 20 30 20 20 30 20 20 30 20 20 30 20 20 30 20 20 30 20 20 30 20 20 30 20 20 30 20 20 30 20 20 30 20 20 30 20 20 30 20 20 30 20 20 30 20 20 30 20 20 30 20 20 30 20 20 30 20 20 30 20 20 30 20 20 30 20 20 30 20 20 30 20 20 30 20 20 30 20 20 30 20 20 30 20 20 30 20 20 30 20 20 30 20 20 30 20 20 30 20 20 30 20 20 30 20 20 30 20 20 30 20 20 30 20 20 30 20 20 30 20 20 30 20 20 30 20 20 30 20 20 30 20 20 30 20 20 30 20 20 30 20 20 30 20 20 30 20 20 30 20 20 30 20 20 30 20 20 30 20 20 30 20 20 30 20 20 30 20 20 30 20 20 30 20 20 30 20 20 30 20 20 30 20 20 30 20 20 30 20 20 30 20 20 30 20 20 30 20 20 30 20 20 30 20 20 30 20 20 30 20 20 30 20 20 30 20 20 30 20 20 30 20 20 30 20 20 30 20 20 30 20 20 30 20 20 30 20 20 30 20 20 30 20 20 30 20 20 30 20 20 30 20 20 30 20 20 30 20 20 30 20 20 30 20 20 30 20 20 30 20 20 30 20 20 30 20 20 30 20 20 30 20 20 30 20 20 30 20 20 30 20 20 30 20 20 30 20 20 30 20 20 30 20 20 30 20 20 30 20 20 30 20 20 30 20 20 30 20 20 30 20 20 30 255 0 0 20 20 30 20 20 30 20 20 30 20 20 30 20 20 30 20 20 30 20 20 30 20 20 30 20 20 30 20 20 30 20 20 30 20 20 30 20 20 30 20 20 30 20 20 30 20 20 30 20 20 30 20 20 30 20 20 30 20 20 30 20 20 30 20 20 30 20 20 30 20 20 30 20 20 30 20 20 30 20 20 30 20 20 30 20 20 30 20 20 30 20 20 30 20 20 30 20 20 30 20 20 30 20 20 30 20 20 30 20 20 30 20 20 30 20 20 30 20 20 30 
20 20 30 20 20 30 20 20 30 20 20 30 20 20 30 20 20 30 20 20 30 20 20 30 20 20 30 20 20 30 20 20 30 20 20 30 20 20 30 20 20 30 20 20 30 20 20 30 20 20 30 20 20 30 20 20 30 20 20 30 20 20 30 20 20 30 20 20 30 20 20 30 20 20 30 20 20 30 20 20 30 20 20 30 20 20 30 20 20 30 20 20 30 20 20 30 20 20 30 20 20 30 20 20 30 20 20 30 20 20 30 20 20 30 20 20 30 0 255 0 20 20 30 20 20 30 20 20 30 20 20 30 20 20 30 20 20 30 20 20 30 20 20 30 20 20 30 20 20 30 20 20 30 20 20 30 20 20 30 20 20 30 20 20 30 20 20 30 20 20 30 20 20 30 20 20 30 20 20 30 20 20 30 20 20 30 20 20 30 20 20 30 20 20 30 20 20 30 20 20 30 20 20 30 20 20 30 20 20 30 20 20 30 20 20 30 20 20 30 20 20 30 20 20 30 20 20 30 20 20 30 20 20 30 20 20 30 20 20 30 20 20 30 20 20 30 20 20 30 20 20 30 20 20 30 20 20 30 20 20 30 20 20 30 20 20 30 20 20 30 20 20 30 20 20 30 20 20 30 20 20 30 20 20 30 20 20 30 20 20 30 20 20 30 20 20 30 20 20 30 20 20 30 20 20 30 20 20 30 20 20 30 20 20 30 20 20 30 20 20 30 20 20 30 20 20 30 20 20 30 20 20 30 20 20 30 20 20 30 20 20 30 20 20 30 20 20 30 20 20 30 20 20 30 20 20 30 20 20 30 20 20 30 20 20 30 20 20 30 20 20 30 20 20 30 20 20 30 20 20 30 20 20 30 20 20 30 20 20 30 20 20 30 20 20 30 20 20 30 20 20 30 20 20 30 20 20 30 20 20 30 20 20 30 20 20 30 20 20 30 20 20 30 20 20 30 20 20 30 20 20 30 20 20 30 20 20 30 20 20 30 20 20 30 20 20 30 20 20 30 20 20 30 20 20 30 20 20 30 20 20 30 20 20 30 20 20 30 20 20 30 20 20 30 20 20 30 20 20 30 20 20 30 20 20 30 20 20 30 20 20 30 20 20 30 20 20 30 20 20 30 20 20 30 20 20 30 20 20 30 20 20 30 20 20 30 20 20 30 20 20 30 20 20 30 20 20 30 20 20 30 20 20 30 20 20 30 20 20 30 20 20 30 20 20 30 20 20 30 20 20 30 20 20 30 20 20 30 20 20 30 20 20 30 20 20 30 20 20 30 20 20 30 20 20 30 20 20 30 20 20 30 20 20 30 20 20 30 20 20 30 20 20 30 20 20 30 20 20 30 20 20 30 20 20 30 20 20 30 20 20 30 20 20 30 20 20 30 20 20 30 20 20 30 20 20 30 20 20 30 20 20 30 20 20 30 20 20 30 20 20 30 20 20 30 20 20 30 255 0 0 20 20 30 20 20 30 20 20 30 20 20 30 20 20 30 20 20 30 20 20 30 20 20 30 20 20 30 20 20 30 20 20 30 20 20 30 20 20 30 20 20 30 20 20 30 20 20 30 20 20 30 20 20 30 20 20 30 20 20 30 20 20 30 20 20 30 20 20 30 20 20 30 20 20 30 20 20 30 20 20 30 20 20 30 20 20 30 20 20 30 20 20 30 20 20 30 20 20 30 20 20 30 20 20 30 20 20 30 20 20 30 20 20 30 20 20 30 
20 20 30 20 20 30 20 20 30 20 20 30 20 20 30 20 20 30 20 20 30 20 20 30 20 20 30 20 20 30 20 20 30 20 20 30 20 20 30 20 20 30 20 20 30 20 20 30 20 20 30 20 20 30 20 20 30 20 20 30 20 20 30 20 20 30 20 20 30 20 20 30 20 20 30 20 20 30 20 20 30 20 20 30 20 20 30 20 20 30 20 20 30 20 20 30 20 20 30 20 20 30 20 20 30 20 20 30 20 20 30 20 20 30 0 255 0 20 20 30 20 20 30 20 20 30 20 20 30 20 20 30 20 20 30 20 20 30 20 20 30 20 20 30 20 20 30 20 20 30 20 20 30 20 20 30 20 20 30 20 20 30 20 20 30 20 20 30 20 20 30 20 20 30 20 20 30 20 20 30 20 20 30 20 20 30 20 20 30 20 20 30 20 20 30 20 20 30 20 20 30 20 20 30 20 20 30 20 20 30 20 20 30 20 20 30 20 20 30 20 20 30 20 20 30 20 20 30 20 20 30 20 20 30 20 20 30 20 20 30 20 20 30 20 20 30 20 20 30 20 20 30 20 20 30 20 20 30 20 20 30 20 20 30 20 20 30 20 20 30 20 20 30 20 20 30 20 20 30 20 20 30 20 20 30 20 20 30 20 20 30 20 20 30 20 20 30 20 20 30 20 20 30 20 20 30 20 20 30 20 20 30 20 20 30 20 20 30 20 20 30 20 20 30 20 20 30 20 20 30 20 20 30 20 20 30 20 20 30 20 20 30 20 20 30 20 20 30 20 20 30 20 20 30 20 20 30 20 20 30 20 20 30 20 20 30 20 20 30 20 20 30 20 20 30 20 20 30 20 20 30 20 20 30 20 20 30 20 20 30 20 20 30 20 20 30 20 20 30 20 20 30 20 20 30 20 20 30 20 20 30 20 20 30 20 20 30 20 20 30 20 20 30 20 20 30 20 20 30 20 20 30 20 20 30 20 20 30 20 20 30 20 20 30 20 20 30 20 20 30 20 20 30 20 20 30 20 20 30 20 20 30 20 20 30 20 20 30 20 20 30 20 20 30 20 20 30 20 20 30 20 20 30 20 20 30 20 20 30 20 20 30 20 20 30 20 20 30 20 20 30 20 20 30 20 20 30 20 20 30 20 20 30 20 20 30 20 20 30 20 20 30 20 20 30 20 20 30 20 20 30 20 20 30 20 20 30 20 20 30 20 20 30 20 20 30 20 20 30 20 20 30 20 20 30 20 20 30 20 20 30 20 20 30 20 20 30 20 20 30 20 20 30 20 20 30 20 20 30 20 20 30 20 20 30 20 20 30 20 20 30 20 20 30 20 20 30 20 20 30 20 20 30 20 20 30 20 20 30 20 20 30 20 20 30 20 20 30 20 20 30 20 20 30 20 20 30 20 20 30 20 20 30 20 20 30 20 20 30 20 20 30 20 20 30 20 20 30 20 20 30 255 0 0 20 20 30 20 20 30 20 20 30 20 20 30 20 20 30 20 20 30 20 20 30 20 20 30 20 20 30 20 20 30 20 20 30 20 20 30 20 20 30 20 20 30 20 20 30 20 20 30 20 20 30 20 20 30 20 20 30 20 20 30 20 20 30 20 20 30 20 20 30 20 20 30 20 20 30 20 20 30 20 20 30 20 20 30 20 20 30 20 20 30 20 20 30 20 20 30 20 20 30 20 20 30 20 20 30 20 20 30 20 20 30 20 20 30 
20 20 30 20 20 30 20 20 30 20 20 30 20 20 30 20 20 30 20 20 30 20 20 30 20 20 30 20 20 30 20 20 30 20 20 30 20 20 30 20 20 30 20 20 30 20 20 30 20 20 30 20 20 30 20 20 30 20 20 30 20 20 30 20 20 30 20 20 30 20 20 30 20 20 30 20 20 30 20 20 30 20 20 30 20 20 30 20 20 30 20 20 30 20 20 30 20 20 30 20 20 30 20 20 30 20 20 30 20 20 30 0 255 0 20 20 30 20 20 30 20 20 30 20 20 30 20 20 30 20 20 30 20 20 30 20 20 30 20 20 30 20 20 30 20 20 30 20 20 30 20 20 30 20 20 30 20 20 30 20 20 30 20 20 30 20 20 30 20 20 30 20 20 30 20 20 30 20 20 30 20 20 30 20 20 30 20 20 30 20 20 30 20 20 30 20 20 30 20 20 30 20 20 30 20 20 30 20 20 30 20 20 30 20 20 30 20 20 30 20 20 30 20 20 30 20 20 30 20 20 30 20 20 30 20 20 30 20 20 30 20 20 30 20 20 30 20 20 30 20 20 30 20 20 30 20 20 30 20 20 30 20 20 30 20 20 30 20 20 30 20 20 30 20 20 30 20 20 30 20 20 30 20 20 30 20 20 30 20 20 30 20 20 30 20 20 30 20 20 30 20 20 30 20 20 30 20 20 30 20 20 30 20 20 30 20 20 30 20 20 30 20 20 30 20 20 30 20 20 30 20 20 30 20 20 30 20 20 30 20 20 30 20 20 30 20 20 30 20 20 30 20 20 30 20 20 30 20 20 30 20 20 30 20 20 30 20 20 30 20 20 30 20 20 30 20 20 30 20 20 30 20 20 30 20 20 30 20 20 30 20 20 30 20 20 30 20 20 30 20 20 30 20 20 30 20 20 30 20 20 30 20 20 30 20 20 30 20 20 30 20 20 30 20 20 30 20 20 30 20 20 30 20 20 30 20 20 30 20 20 30 20 20 30 20 20 30 20 20 30 20 20 30 20 20 30 20 20 30 20 20 30 20 20 30 20 20 30 20 20 30 20 20 30 20 20 30 20 20 30 20 20 30 20 20 30 20 20 30 20 20 30 20 20 30 20 20 30 20 20 30 20 20 30 20 20 30 20 20 30 20 20 30 20 20 30 20 20 30 20 20 30 20 20 30 20 20 30 20 20 30 20 20 30 20 20 30 20 20 30 20 20 30 20 20 30 20 20 30 20 20 30 20 20 30 20 20 30 20 20 30 20 20 30 20 20 30 20 20 30 20 20 30 20 20 30 20 20 30 20 20 30 20 20 30 20 20 30 20 20 30 20 20 30 20 20 30 20 20 30 20 20 30 20 20 30 20 20 30 20 20 30 20 20 30 20 20 30 20 20 30 20 20 30 20 20 30 20 20 30 20 20 30 20 20 30 20 20 30 20 20 30 20 20 30 20 20 30 20 20 30 20 20 30 255 0 0 20 20 30 20 20 30 20 20 30 20 20 30 20 20 30 20 20 30 20 20 30 20 20 30 20 20 30 20 20 30 20 20 30 20 20 30 20 20 30 20 20 30 20 20 30 20 20 30 20 20 30 20 20 30 20 20 30 20 20 30 20 20 30 20 20 30 20 20 30 20 20 30 20 20 30 20 20 30 20 20 30 20 20 30 20 20 30 20 20 30 20 20 30 20 20 30 20 20 30 20 20 30 20 20 30 20 20 30 20 20 30 
20 20 30 20 20 30 20 20 30 20 20 30 20 20 30 20 20 30 20 20 30 20 20 30 20 20 30 20 20 30 20 20 30 20 20 30 20 20 30 20 20 30 20 20 30 20 20 30 20 20 30 20 20 30 20 20 30 20 20 30 20 20 30 20 20 30 20 20 30 20 20 30 20 20 30 20 20 30 20 20 30 20 20 30 20 20 30 20 20 30 20 20 30 20 20 30 20 20 30 20 20 30 20 20 30 20 20 30 0 255 0 20 20 30 20 20 30 20 20 30 20 20 30 20 20 30 20 20 30 20 20 30 20 20 30 20 20 30 20 20 30 20 20 30 20 20 30 20 20 30 20 20 30 20 20 30 20 20 30 20 20 30 20 20 30 20 20 30 20 20 30 20 20 30 20 20 30 20 20 30 20 20 30 20 20 30 20 20 30 20 20 30 20 20 30 20 20 30 20 20 30 20 20 30 20 20 30 20 20 30 20 20 30 20 20 30 20 20 30 20 20 30 20 20 30 20 20 30 20 20 30 20 20 30 20 20 30 20 20 30 20 20 30 20 20 30 20 20 30 20 20 30 20 20 30 20 20 30 20 20 30 20 20 30 20 20 30 20 20 30 20 20 30 20 20 30 20 20 30 20 20 30 20 20 30 20 20 30 20 20 30 20 20 30 20 20 30 20 20 30 20 20 30 20 20 30 20 20 30 20 20 30 20 20 30 20 20 30 20 20 30 20 20 30 20 20 30 20 20 30 20 20 30 20 20 30 20 20 30 20 20 30 20 20 30 20 20 30 20 20 30 20 20 30 20 20 30 20 20 30 20 20 30 20 20 30 20 20 30 20 20 30 20 20 30 20 20 30 20 20 30 20 20 30 20 20 30 20 20 30 20 20 30 20 20 30 20 20 30 20 20 30 20 20 30 20 20 30 20 20 30 20 20 30 20 20 30 20 20 30 20 20 30 20 20 30 20 20 30 20 20 30 20 20 30 20 20 30 20 20 30 20 20 30 20 20 30 20 20 30 20 20 30 20 20 30 20 20 30 20 20 30 20 20 30 20 20 30 20 20 30 20 20 30 20 20 30 20 20 30 20 20 30 20 20 30 20 20 30 20 20 30 20 20 30 20 20 30 20 20 30 20 20 30 20 20 30 20 20 30 20 20 30 20 20 30 20 20 30 20 20 30 20 20 30 20 20 30 20 20 30 20 20 30 20 20 30 20 20 30 20 20 30 20 20 30 20 20 30 20 20 30 20 20 30 20 20 30 20 20 30 20 20 30 20 20 30 20 20 30 20 20 30 20 20 30 20 20 30 20 20 30 20 20 30 20 20 30 20 20 30 20 20 30 20 20 30 20 20 30 20 20 30 20 20 30 20 20 30 20 20 30 20 20 30 20 20 30 20 20 30 20 20 30 20 20 30 20 20 30 20 20 30 20 20 30 20 20 30 20 20 30 20 20 30 20 20 30 20 20 30 20 20 30 20 20 30 255 0 0 20 20 30 20 20 30 20 20 30 20 20 30 20 20 30 20 20 30 20 20 30 20 20 30 20 20 30 20 20 30 20 20 30 20 20 30 20 20 30 20 20 30 20 20 30 20 20 30 20 20 30 20 20 30 20 20 30 20 20 30 20 20 30 20 20 30 20 20 30 20 20 30 20 20 30 20 20 30 20 20 30 20 20 30 20 20 30 20 20 30 20 20 30 20 20 30 20 20 30 20 20 30 20 20 30 20 20 30 
20 20 30 20 20 30 20 20 30 20 20 30 20 20 30 20 20 30 20 20 30 20 20 30 20 20 30 20 20 30 20 20 30 20 20 30 20 20 30 20 20 30 20 20 30 20 20 30 20 20 30 20 20 30 20 20 30 20 20 30 20 20 30 20 20 30 20 20 30 20 20 30 20 20 30 20 20 30 20 20 30 20 20 30 20 20 30 20 20 30 20 20 30 20 20 30 20 20 30 20 20 30 20 20 30 0 255 0 20 20 30 20 20 30 20 20 30 20 20 30 20 20 30 20 20 30 20 20 30 20 20 30 20 20 30 20 20 30 20 20 30 20 20 30 20 20 30 20 20 30 20 20 30 20 20 30 20 20 30 20 20 30 20 20 30 20 20 30 20 20 30 20 20 30 20 20 30 20 20 30 20 20 30 20 20 30 20 20 30 20 20 30 20 20 30 20 20 30 20 20 30 20 20 30 20 20 30 20 20 30 20 20 30 20 20 30 20 20 30 20 20 30 20 20 30 20 20 30 20 20 30 20 20 30 20 20 30 20 20 30 20 20 30 20 20 30 20 20 30 20 20 30 20 20 30 20 20 30 20 20 30 20 20 30 20 20 30 20 20 30 20 20 30 20 20 30 20 20 30 20 20 30 20 20 30 20 20 30 20 20 30 20 20 30 20 20 30 20 20 30 20 20 30 20 20 30 20 20 30 20 20 30 20 20 30 20 20 30 20 20 30 20 20 30 20 20 30 20 20 30 20 20 30 20 20 30 20 20 30 20 20 30 20 20 30 20 20 30 20 20 30 20 20 30 20 20 30 20 20 30 20 20 30 20 20 30 20 20 30 20 20 30 20 20 30 20 20 30 20 20 30 20 20 30 20 20 30 20 20 30 20 20 30 20 20 30 20 20 30 20 20 30 20 20 30 20 20 30 20 20 30 20 20 30 20 20 30 20 20 30 20 20 30 20 20 30 20 20 30 20 20 30 20 20 30 20 20 30 20 20 30 20 20 30 20 20 30 20 20 30 20 20 30 20 20 30 20 20 30 20 20 30 20 20 30 20 20 30 20 20 30 20 20 30 20 20 30 20 20 30 20 20 30 20 20 30 20 20 30 20 20 30 20 20 30 20 20 30 20 20 30 20 20 30 20 20 30 20 20 30 20 20 30 20 20 30 20 20 30 20 20 30 20 20 30 20 20 30 20 20 30 20 20 30 20 20 30 20 20 30 20 20 30 20 20 30 20 20 30 20 20 30 20 20 30 20 20 30 20 20 30 20 20 30 20 20 30 20 20 30 20 20 30 20 20 30 20 20 30 20 20 30 20 20 30 20 20 30 20 20 30 20 20 30 20 20 30 20 20 30 20 20 30 20 20 30 20 20 30 20 20 30 20 20 30 20 20 30 20 20 30 20 20 30 20 20 30 20 20 30 20 20 30 20 20 30 20 20 30 20 20 30 20 20 30 20 20 30 20 20 30 20 20 30 20 20 30 20 20 30 255 0 0 20 20 30 20 20 30 20 20 30 20 20 30 20 20 30 20 20 30 20 20 30 20 20 30 20 20 30 20 20 30 20 20 30 20 20 30 20 20 30 20 20 30 20 20 30 20 20 30 20 20 30 20 20 30 20 20 30 20 20 30 20 20 30 20 20 30 20 20 30 20 20 30 20 20 30 20 20 30 20 20 30 20 20 30 20 20 30 20 20 30 20 20 30 20 20 30 20 20 30 20 20 30 20 20 30 
20 20 30 20 20 30 20 20 30 20 20 30 20 20 30 20 20 30 20 20 30 20 20 30 20 20 30 20 20 30 20 20 30 20 20 30 20 20 30 20 20 30 20 20 30 20 20 30 20 20 30 20 20 30 20 20 30 20 20 30 20 20 30 20 20 30 20 20 30 20 20 30 20 20 30 20 20 30 20 20 30 20 20 30 20 20 30 20 20 30 20 20 30 20 20 30 20 20 30 20 20 30 0 255 0 20 20 30 20 20 30 20 20 30 20 20 30 20 20 30 20 20 30 20 20 30 20 20 30 20 20 30 20 20 30 20 20 30 20 20 30 20 20 30 20 20 30 20 20 30 20 20 30 20 20 30 20 20 30 20 20 30 20 20 30 20 20 30 20 20 30 20 20 30 20 20 30 20 20 30 20 20 30 20 20 30 20 20 30 20 20 30 20 20 30 20 20 30 20 20 30 20 20 30 20 20 30 20 20 30 20 20 30 20 20 30 20 20 30 20 20 30 20 20 30 20 20 30 20 20 30 20 20 30 20 20 30 20 20 30 20 20 30 20 20 30 20 20 30 20 20 30 20 20 30 20 20 30 20 20 30 20 20 30 20 20 30 20 20 30 20 20 30 20 20 30 20 20 30 20 20 30 20 20 30 20 20 30 20 20 30 20 20 30 20 20 30 20 20 30 20 20 30 20 20 30 20 20 30 20 20 30 20 20 30 20 20 30 20 20 30 20 20 30 20 20 30 20 20 30 20 20 30 20 20 30 20 20 30 20 20 30 20 20 30 20 20 30 20 20 30 20 20 30 20 20 30 20 20 30 20 20 30 20 20 30 20 20 30 20 20 30 20 20 30 20 20 30 20 20 30 20 20 30 20 20 30 20 20 30 20 20 30 20 20 30 20 20 30 20 20 30 20 20 30 20 20 30 20 20 30 20 20 30 20 20 30 20 20 30 20 20 30 20 20 30 20 20 30 20 20 30 20 20 30 20 20 30 20 20 30 20 20 30 20 20 30 20 20 30 20 20 30 20 20 30 20 20 30 20 20 30 20 20 30 20 20 30 20 20 30 20 20 30 20 20 30 20 20 30 20 20 30 20 20 30 20 20 30 20 20 30 20 20 30 20 20 30 20 20 30 20 20 30 20 20 30 20 20 30 20 20 30 20 20 30 20 20 30 20 20 30 20 20 30 20 20 30 20 20 30 20 20 30 20 20 30 20 20 30 20 20 30 20 20 30 20 20 30 20 20 30 20 20 30 20 20 30 20 20 30 20 20 30 20 20 30 20 20 30 20 20 30 20 20 30 20 20 30 20 20 30 20 20 30 20 20 30 20 20 30 20 20 30 20 20 30 20 20 30 20 20 30 20 20 30 20 20 30 20 20 30 20 20 30 20 20 30 20 20 30 20 20 30 20 20 30 20 20 30 20 20 30 20 20 30 20 20 30 20 20 30 20 20 30 20 20 30 20 20 30 20 20 30 20 20 30 20 20 30 20 20 30 255 0 0 20 20 30 20 20 30 20 20 30 20 20 30 20 20 30 20 20 30 20 20 30 20 20 30 20 20 30 20 20 30 20 20 30 20 20 30 20 20 30 20 20 30 20 20 30 20 20 30 20 20 30 20 20 30 20 20 30 20 20 30 20 20 30 20 20 30 20 20 30 20 20 30 20 20 30 20 20 30 20 20 30 20 20 30 20 20 30 20 20 30 20 20 30 20 20 30 20 20 30 20 20 30 
20 20 30 20 20 30 20 20 30 20 20 30 20 20 30 20 20 30 20 20 30 20 20 30 20 20 30 20 20 30 20 20 30 20 20 30 20 20 30 20 20 30 20 20 30 20 20 30 20 20 30 20 20 30 20 20 30 20 20 30 20 20 30 20 20 30 20 20 30 20 20 30 20 20 30 20 20 30 20 20 30 20 20 30 20 20 30 20 20 30 20 20 30 20 20 30 20 20 30 0 255 0 20 20 30 20 20 30 20 20 30 20 20 30 20 20 30 20 20 30 20 20 30 20 20 30 20 20 30 20 20 30 20 20 30 20 20 30 20 20 30 20 20 30 20 20 30 20 20 30 20 20 30 20 20 30 20 20 30 20 20 30 20 20 30 20 20 30 20 20 30 20 20 30 20 20 30 20 20 30 20 20 30 20 20 30 20 20 30 20 20 30 20 20 30 20 20 30 20 20 30 20 20 30 20 20 30 20 20 30 20 20 30 20 20 30 20 20 30 20 20 30 20 20 30 20 20 30 20 20 30 20 20 30 20 20 30 20 20 30 20 20 30 20 20 30 20 20 30 20 20 30 20 20 30 20 20 30 20 20 30 20 20 30 20 20 30 20 20 30 20 20 30 20 20 30 20 20 30 20 20 30 20 20 30 20 20 30 20 20 30 20 20 30 20 20 30 20 20 30 20 20 30 20 20 30 20 20 30 20 20 30 20 20 30 20 20 30 20 20 30 20 20 30 20 20 30 20 20 30 20 20 30 20 20 30 20 20 30 20 20 30 20 20 30 20 20 30 20 20 30 20 20 30 20 20 30 20 20 30 20 20 30 20 20 30 20 20 30 20 20 30 20 20 30 20 20 30 20 20 30 20 20 30 20 20 30 20 20 30 20 20 30 20 20 30 20 20 30 20 20 30 20 20 30 20 20 30 20 20 30 20 20 30 20 20 30 20 20 30 20 20 30 20 20 30 20 20 30 20 20 30 20 20 30 20 20 30 20 20 30 20 20 30 20 20 30 20 20 30 20 20 30 20 20 30 20 20 30 20 20 30 20 20 30 20 20 30 20 20 30 20 20 30 20 20 30 20 20 30 20 20 30 20 20 30 20 20 30 20 20 30 20 20 30 20 20 30 20 20 30 20 20 30 20 20 30 20 20 30 20 20 30 20 20 30 20 20 30 20 20 30 20 20 30 20 20 30 20 20 30 20 20 30 20 20 30 20 20 30 20 20 30 20 20 30 20 20 30 20 20 30 20 20 30 20 20 30 20 20 30 20 20 30 20 20 30 20 20 30 20 20 30 20 20 30 20 20 30 20 20 30 20 20 30 20 20 30 20 20 30 20 20 30 20 20 30 20 20 30 20 20 30 20 20 30 20 20 30 20 20 30 20 20 30 20 20 30 20 20 30 20 20 30 20 20 30 20 20 30 20 20 30 20 20 30 20 20 30 20 20 30 20 20 30 20 20 30 20 20 30 20 20 30 20 20 30 20 20 30 20 20 30 20 20 30 255 0 0 20 20 30 20 20 30 20 20 30 20 20 30 20 20 30 20 20 30 20 20 30 20 20 30 20 20 30 20 20 30 20 20 30 20 20 30 20 20 30 20 20 30 20 20 30 20 20 30 20 20 30 20 20 30 20 20 30 20 20 30 20 20 30 20 20 30 20 20 30 20 20 30 20 20 30 20 20 30 20 20 30 20 20 30 20 20 30 20 20 30 20 20 30 20 20 30 20 20 30 
20 20 30 20 20 30 20 20 30 20 20 30 20 20 30 20 20 30 20 20 30 20 20 30 20 20 30 20 20 30 20 20 30 20 20 30 20 20 30 20 20 30 20 20 30 20 20 30 20 20 30 20 20 30 20 20 30 20 20 30 20 20 30 20 20 30 20 20 30 20 20 30 20 20 30 20 20 30 20 20 30 20 20 30 20 20 30 20 20 30 20 20 30 20 20 30 0 255 0 20 20 30 20 20 30 20 20 30 20 20 30 20 20 30 20 20 30 20 20 30 20 20 30 20 20 30 20 20 30 20 20 30 20 20 30 20 20 30 20 20 30 20 20 30 20 20 30 20 20 30 20 20 30 20 20 30 20 20 30 20 20 30 20 20 30 20 20 30 20 20 30 20 20 30 20 20 30 20 20 30 20 20 30 20 20 30 20 20 30 20 20 30 20 20 30 20 20 30 20 20 30 20 20 30 20 20 30 20 20 30 20 20 30 20 20 30 20 20 30 20 20 30 20 20 30 20 20 30 20 20 30 20 20 30 20 20 30 20 20 30 20 20 30 20 20 30 20 20 30 20 20 30 20 20 30 20 20 30 20 20 30 20 20 30 20 20 30 20 20 30 20 20 30 20 20 30 20 20 30 20 20 30 20 20 30 20 20 30 20 20 30 20 20 30 20 20 30 20 20 30 20 20 30 20 20 30 20 20 30 20 20 30 20 20 30 20 20 30 20 20 30 20 20 30 20 20 30 20 20 30 20 20 30 20 20 30 20 20 30 20 20 30 20 20 30 20 20 30 20 20 30 20 20 30 20 20 30 20 20 30 20 20 30 20 20 30 20 20 30 20 20 30 20 20 30 20 20 30 20 20 30 20 20 30 20 20 30 20 20 30 20 20 30 20 20 30 20 20 30 20 20 30 20 20 30 20 20 30 20 20 30 20 20 30 20 20 30 20 20 30 20 20 30 20 20 30 20 20 30 20 20 30 20 20 30 20 20 30 20 20 30 20 20 30 20 20 30 20 20 30 20 20 30 20 20 30 20 20 30 20 20 30 20 20 30 20 20 30 20 20 30 20 20 30 20 20 30 20 20 30 20 20 30 20 20 30 20 20 30 20 20 30 20 20 30 20 20 30 20 20 30 20 20 30 20 20 30 20 20 30 20 20 30 20 20 30 20 20 30 20 20 30 20 20 30 20 20 30 20 20 30 20 20 30 20 20 30 20 20 30 20 20 30 20 20 30 20 20 30 20 20 30 20 20 30 20 20 30 20 20 30 20 20 30 20 20 30 20 20 30 20 20 30 20 20 30 20 20 30 20 20 30 20 20 30 20 20 30 20 20 30 20 20 30 20 20 30 20 20 30 20 20 30 20 20 30 20 20 30 20 20 30 20 20 30 20 20 30 20 20 30 20 20 30 20 20 30 20 20 30 20 20 30 20 20 30 20 20 30 20 20 30 20 20 30 20 20 30 20 20 30 20 20 30 20 20 30 20 20 30 20 20 30 20 20 30 20 20 30 255 0 0 20 20 30 20 20 30 20 20 30 20 20 30 20 20 30 20 20 30 20 20 30 20 20 30 20 20 30 20 20 30 20 20 30 20 20 30 20 20 30 20 20 30 20 20 30 20 20 30 20 20 30 20 20 30 20 20 30 20 20 30 20 20 30 20 20 30 20 20 30 20 20 30 20 20 30 20 20 30 20 20 30 20 20 30 20 20 30 20 20 30 20 20 30 20 20 30 
20 20 30 20 20 30 20 20 30 20 20 30 20 20 30 20 20 30 20 20 30 20 20 30 20 20 30 20 20 30 20 20 30 20 20 30 20 20 30 20 20 30 20 20 30 20 20 30 20 20 30 20 20 30 20 20 30 20 20 30 20 20 30 20 20 30 20 20 30 20 20 30 20 20 30 20 20 30 20 20 30 20 20 30 20 20 30 20 20 30 20 20 30 0 255 0 20 20 30 20 20 30 20 20 30 20 20 30 20 20 30 20 20 30 20 20 30 20 20 30 20 20 30 20 20 30 20 20 30 20 20 30 20 20 30 20 20 30 20 20 30 20 20 30 20 20 30 20 20 30 20 20 30 20 20 30 20 20 30 20 20 30 20 20 30 20 20 30 20 20 30 20 20 30 20 20 30 20 20 30 20 20 30 20 20 30 20 20 30 20 20 30 20 20 30 20 20 30 20 20 30 20 20 30 20 20 30 20 20 30 20 20 30 20 20 30 20 20 30 20 20 30 20 20 30 20 20 30 20 20 30 20 20 30 20 20 30 20 20 30 20 20 30 20 20 30 20 20 30 20 20 30 20 20 30 20 20 30 20 20 30 20 20 30 20 20 30 20 20 30 20 20 30 20 20 30 20 20 30 20 20 30 20 20 30 20 20 30 20 20 30 20 20 30 20 20 30 20 20 30 20 20 30 20 20 30 20 20 30 20 20 30 20 20 30 20 20 30 20 20 30 20 20 30 20 20 30 20 20 30 20 20 30 20 20 30 20 20 30 20 20 30 20 20 30 20 20 30 20 20 30 20 20 30 20 20 30 20 20 30 20 20 30 20 20 30 20 20 30 20 20 30 20 20 30 20 20 30 20 20 30 20 20 30 20 20 30 20 20 30 20 20 30 20 20 30 20 20 30 20 20 30 20 20 30 20 20 30 20 20 30 20 20 30 20 20 30 20 20 30 20 20 30 20 20 30 20 20 30 20 20 30 20 20 30 20 20 30 20 20 30 20 20 30 20 20 30 20 20 30 20 20 30 20 20 30 20 20 30 20 20 30 20 20 30 20 20 30 20 20 30 20 20 30 20 20 30 20 20 30 20 20 30 20 20 30 20 20 30 20 20 30 20 20 30 20 20 30 20 20 30 20 20 30 20 20 30 20 20 30 20 20 30 20 20 30 20 20 30 20 20 30 20 20 30 20 20 30 20 20 30 20 20 30 20 20 30 20 20 30 20 20 30 20 20 30 20 20 30 20 20 30 20 20 30 20 20 30 20 20 30 20 20 30 20 20 30 20 20 30 20 20 30 20 20 30 20 20 30 20 20 30 20 20 30 20 20 30 20 20 30 20 20 30 20 20 30 20 20 30 20 20 30 20 20 30 20 20 30 20 20 30 20 20 30 20 20 30 20 20 30 20 20 30 20 20 30 20 20 30 20 20 30 20 20 30 20 20 30 20 20 30 20 20 30 20 20 30 20 20 30 20 20 30 20 20 30 20 20 30 20 20 30 20 20 30 20 20 30 20 20 30 255 0 0 20 20 30 20 20 30 20 20 30 20 20 30 20 20 30 20 20 30 20 20 30 20 20 30 20 20 30 20 20 30 20 20 30 20 20 30 20 20 30 20 20 30 20 20 30 20 20 30 20 20 30 20 20 30 20 20 30 20 20 30 20 20 30 20 20 30 20 20 30 20 20 30 20 20 30 20 20 30 20 20 30 20 20 30 20 20 30 20 20 30 20 20 30 
20 20 30 20 20 30 20 20 30 20 20 30 20 20 30 20 20 30 20 20 30 20 20 30 20 20 30 20 20 30 20 20 30 20 20 30 20 20 30 20 20 30 20 20 30 20 20 30 20 20 30 20 20 30 20 20 30 20 20 30 20 20 30 20 20 30 20 20 30 20 20 30 20 20 30 20 20 30 20 20 30 20 20 30 20 20 30 20 20 30 0 255 0 20 20 30 20 20 30 20 20 30 20 20 30 20 20 30 20 20 30 20 20 30 20 20 30 20 20 30 20 20 30 20 20 30 20 20 30 20 20 30 20 20 30 20 20 30 20 20 30 20 20 30 20 20 30 20 20 30 20 20 30 20 20 30 20 20 30 20 20 30 20 20 30 20 20 30 20 20 30 20 20 30 20 20 30 20 20 30 20 20 30 20 20 30 20 20 30 20 20 30 20 20 30 20 20 30 20 20 30 20 20 30 20 20 30 20 20 30 20 20 30 20 20 30 20 20 30 20 20 30 20 20 30 20 20 30 20 20 30 20 20 30 20 20 30 20 20 30 20 20 30 20 20 30 20 20 30 20 20 30 20 20 30 20 20 30 20 20 30 20 20 30 20 20 30 20 20 30 20 20 30 20 20 30 20 20 30 20 20 30 20 20 30 20 20 30 20 20 30 20 20 30 20 20 30 20 20 30 20 20 30 20 20 30 20 20 30 20 20 30 20 20 30 20 20 30 20 20 30 20 20 30 20 20 30 20 20 30 20 20 30 20 20 30 20 20 30 20 20 30 20 20 30 20 20 30 20 20 30 20 20 30 20 20 30 20 20 30 20 20 30 20 20 30 20 20 30 20 20 30 20 20 30 20 20 30 20 20 30 20 20 30 20 20 30 20 20 30 20 20 30 20 20 30 20 20 30 20 20 30 20 20 30 20 20 30 20 20 30 20 20 30 20 20 30 20 20 30 20 20 30 20 20 30 20 20 30 20 20 30 20 20 30 20 20 30 20 20 30 20 20 30 20 20 30 20 20 30 20 20 30 20 20 30 20 20 30 20 20 30 20 20 30 20 20 30 20 20 30 20 20 30 20 20 30 20 20 30 20 20 30 20 20 30 20 20 30 20 20 30 20 20 30 20 20 30 20 20 30 20 20 30 20 20 30 20 20 30 20 20 30 20 20 30 20 20 30 20 20 30 20 20 30 20 20 30 20 20 30 20 20 30 20 20 30 20 20 30 20 20 30 20 20 30 20 20 30 20 20 30 20 20 30 20 20 30 20 20 30 20 20 30 20 20 30 20 20 30 20 20 30 20 20 30 20 20 30 20 20 30 20 20 30 20 20 30 20 20 30 20 20 30 20 20 30 20 20 30 20 20 30 20 20 30 20 20 30 20 20 30 20 20 30 20 20 30 20 20 30 20 20 30 20 20 30 20 20 30 20 20 30 20 20 30 20 20 30 20 20 30 20 20 30 20 20 30 20 20 30 20 20 30 20 20 30 20 20 30 20 20 30 20 20 30 20 20 30 20 20 30 20 20 30 255 0 0 20 20 30 20 20 30 20 20 30 20 20 30 20 20 30 20 20 30 20 20 30 20 20 30 20 20 30 20 20 30 20 20 30 20 20 30 20 20 30 20 20 30 20 20 30 20 20 30 20 20 30 20 20 30 20 20 30 20 20 30 20 20 30 20 20 30 20 20 30 20 20 30 20 20 30 20 20 30 20 20 30 20 20 30 20 20 30 20 20 30 
20 20 30 20 20 30 20 20 30 20 20 30 20 20 30 20 20 30 20 20 30 20 20 30 20 20 30 20 20 30 20 20 30 20 20 30 20 20 30 20 20 30 20 20 30 20 20 30 20 20 30 20 20 30 20 20 30 20 20 30 20 20 30 20 20 30 20 20 30 20 20 30 20 20 30 20 20 30 20 20 30 20 20 30 20 20 30 0 255 0 20 20 30 20 20 30 20 20 30 20 20 30 20 20 30 20 20 30 20 20 30 20 20 30 20 20 30 20 20 30 20 20 30 20 20 30 20 20 30 20 20 30 20 20 30 20 20 30 20 20 30 20 20 30 20 20 30 20 20 30 20 20 30 20 20 30 20 20 30 20 20 30 20 20 30 20 20 30 20 20 30 20 20 30 20 20 30 20 20 30 20 20 30 20 20 30 20 20 30 20 20 30 20 20 30 20 20 30 20 20 30 20 20 30 20 20 30 20 20 30 20 20 30 20 20 30 20 20 30 20 20 30 20 20 30 20 20 30 20 20 30 20 20 30 20 20 30 20 20 30 20 20 30 20 20 30 20 20 30 20 20 30 20 20 30 20 20 30 20 20 30 20 20 30 20 20 30 20 20 30 20 20 30 20 20 30 20 20 30 20 20 30 20 20 30 20 20 30 20 20 30 20 20 30 20 20 30 20 20 30 20 20 30 20 20 30 20 20 30 20 20 30 20 20 30 20 20 30 20 20 30 20 20 30 20 20 30 20 20 30 20 20 30 20 20 30 20 20 30 20 20 30 20 20 30 20 20 30 20 20 30 20 20 30 20 20 30 20 20 30 20 20 30 20 20 30 20 20 30 20 20 30 20 20 30 20 20 30 20 20 30 20 20 30 20 20 30 20 20 30 20 20 30 20 20 30 20 20 30 20 20 30 20 20 30 20 20 30 20 20 30 20 20 30 20 20 30 20 20 30 20 20 30 20 20 30 20 20 30 20 20 30 20 20 30 20 20 30 20 20 30 20 20 30 20 20 30 20 20 30 20 20 30 20 20 30 20 20 30 20 20 30 20 20 30 20 20 30 20 20 30 20 20 30 20 20 30 20 20 30 20 20 30 20 20 30 20 20 30 20 20 30 20 20 30 20 20 30 20 20 30 20 20 30 20 20 30 20 20 30 20 20 30 20 20 30 20 20 30 20 20 30 20 20 30 20 20 30 20 20 30 20 20 30 20 20 30 20 20 30 20 20 30 20 20 30 20 20 30 20 20 30 20 20 30 20 20 30 20 20 30 20 20 30 20 20 30 20 20 30 20 20 30 20 20 30 20 20 30 20 20 30 20 20 30 20 20 30 20 20 30 20 20 30 20 20 30 20 20 30 20 20 30 20 20 30 20 20 30 20 20 30 20 20 30 20 20 30 20 20 30 20 20 30 20 20 30 20 20 30 20 20 30 20 20 30 20 20 30 20 20 30 20 20 30 20 20 30 20 20 30 20 20 30 20 20 30 20 20 30 20 20 30 20 20 30 20 20 30 20 20 30 20 20 30 20 20 30 255 0 0 20 20 30 20 20 30 20 20 30 20 20 30 20 20 30 20 20 30 20 20 30 20 20 30 20 20 30 20 20 30 20 20 30 20 20 30 20 20 30 20 20 30 20 20 30 20 20 30 20 20 30 20 20 30 20 20 30 20 20 30 20 20 30 20 20 30 20 20 30 20 20 30 20 20 30 20 20 30 20 20 30 20 20 30 20 20 30 
20 20 30 20 20 30 20 20 30 20 20 30 20 20 30 20 20 30 20 20 30 20 20 30 20 20 30 20 20 30 20 20 30 20 20 30 20 20 30 20 20 30 20 20 30 20 20 30 20 20 30 20 20 30 20 20 30 20 20 30 20 20 30 20 20 30 20 20 30 20 20 30 20 20 30 20 20 30 20 20 30 20 20 30 0 255 0 20 20 30 20 20 30 20 20 30 20 20 30 20 20 30 20 20 30 20 20 30 20 20 30 20 20 30 20 20 30 20 20 30 20 20 30 20 20 30 20 20 30 20 20 30 20 20 30 20 20 30 20 20 30 20 20 30 20 20 30 20 20 30 20 20 30 20 20 30 20 20 30 20 20 30 20 20 30 20 20 30 20 20 30 20 20 30 20 20 30 20 20 30 20 20 30 20 20 30 20 20 30 20 20 30 20 20 30 20 20 30 20 20 30 20 20 30 20 20 30 20 20 30 20 20 30 20 20 30 20 20 30 20 20 30 20 20 30 20 20 30 20 20 30 20 20 30 20 20 30 20 20 30 20 20 30 20 20 30 20 20 30 20 20 30 20 20 30 20 20 30 20 20 30 20 20 30 20 20 30 20 20 30 20 20 30 20 20 30 20 20 30 20 20 30 20 20 30 20 20 30 20 20 30 20 20 30 20 20 30 20 20 30 20 20 30 20 20 30 20 20 30 20 20 30 20 20 30 20 20 30 20 20 30 20 20 30 20 20 30 20 20 30 20 20 30 20 20 30 20 20 30 20 20 30 20 20 30 20 20 30 20 20 30 20 20 30 20 20 30 20 20 30 20 20 30 20 20 30 20 20 30 20 20 30 20 20 30 20 20 30 20 20 30 20 20 30 20 20 30 20 20 30 20 20 30 20 20 30 20 20 30 20 20 30 20 20 30 20 20 30 20 20 30 20 20 30 20 20 30 20 20 30 20 20 30 20 20 30 20 20 30 20 20 30 20 20 30 20 20 30 20 20 30 20 20 30 20 20 30 20 20 30 20 20 30 20 20 30 20 20 30 20 20 30 20 20 30 20 20 30 20 20 30 20 20 30 20 20 30 20 20 30 20 20 30 20 20 30 20 20 30 20 20 30 20 20 30 20 20 30 20 20 30 20 20 30 20 20 30 20 20 30 20 20 30 20 20 30 20 20 30 20 20 30 20 20 30 20 20 30 20 20 30 20 20 30 20 20 30 20 20 30 20 20 30 20 20 30 20 20 30 20 20 30 20 20 30 20 20 30 20 20 30 20 20 30 20 20 30 20 20 30 20 20 30 20 20 30 20 20 30 20 20 30 20 20 30 20 20 30 20 20 30 20 20 30 20 20 30 20 20 30 20 20 30 20 20 30 20 20 30 20 20 30 20 20 30 20 20 30 20 20 30 20 20 30 20 20 30 20 20 30 20 20 30 20 20 30 20 20 30 20 20 30 20 20 30 20 20 30 20 20 30 20 20 30 20 20 30 20 20 30 20 20 30 20 20 30 20 20 30 20 20 30 20 20 30 20 20 30 20 20 30 255 0 0 20 20 30 20 20 30 20 20 30 20 20 30 20 20 30 20 20 30 20 20 30 20 20 30 20 20 30 20 20 30 20 20 30 20 20 30 20 20 30 20 20 30 20 20 30 20 20 30 20 20 30 20 20 30 20 20 30 20 20 30 20 20 30 20 20 30 20 20 30 20 20 30 20 20 30 20 20 30 20 20 30 20 20 30 
20 20 30 20 20 30 20 20 30 20 20 30 20 20 30 20 20 30 20 20 30 20 20 30 20 20 30 20 20 30 20 20 30 20 20 30 20 20 30 20 20 30 20 20 30 20 20 30 20 20 30 20 20 30 20 20 30 20 20 30 20 20 30 20 20 30 20 20 30 20 20 30 20 20 30 20 20 30 20 20 30 0 255 0 20 20 30 20 20 30 20 20 30 20 20 30 20 20 30 20 20 30 20 20 30 20 20 30 20 20 30 20 20 30 20 20 30 20 20 30 20 20 30 20 20 30 20 20 30 20 20 30 20 20 30 20 20 30 20 20 30 20 20 30 20 20 30 20 20 30 20 20 30 20 20 30 20 20 30 20 20 30 20 20 30 20 20 30 20 20 30 20 20 30 20 20 30 20 20 30 20 20 30 20 20 30 20 20 30 20 20 30 20 20 30 20 20 30 20 20 30 20 20 30 20 20 30 20 20 30 20 20 30 20 20 30 20 20 30 20 20 30 20 20 30 20 20 30 20 20 30 20 20 30 20 20 30 20 20 30 20 20 30 20 20 30 20 20 30 20 20 30 20 20 30 20 20 30 20 20 30 20 20 30 20 20 30 20 20 30 20 20 30 20 20 30 20 20 30 20 20 30 20 20 30 20 20 30 20 20 30 20 20 30 20 20 30 20 20 30 20 20 30 20 20 30 20 20 30 20 20 30 20 20 30 20 20 30 20 20 30 20 20 30 20 20 30 20 20 30 20 20 30 20 20 30 20 20 30 20 20 30 20 20 30 20 20 30 20 20 30 20 20 30 20 20 30 20 20 30 20 20 30 20 20 30 20 20 30 20 20 30 20 20 30 20 20 30 20 20 30 20 20 30 20 20 30 20 20 30 20 20 30 20 20 30 20 20 30 20 20 30 20 20 30 20 20 30 20 20 30 20 20 30 20 20 30 20 20 30 20 20 30 20 20 30 20 20 30 20 20 30 20 20 30 20 20 30 20 20 30 20 20 30 20 20 30 20 20 30 20 20 30 20 20 30 20 20 30 20 20 30 20 20 30 20 20 30 20 20 30 20 20 30 20 20 30 20 20 30 20 20 30 20 20 30 20 20 30 20 20 30 20 20 30 20 20 30 20 20 30 20 20 30 20 20 30 20 20 30 20 20 30 20 20 30 20 20 30 20 20 30 20 20 30 20 20 30 20 20 30 20 20 30 20 20 30 20 20 30 20 20 30 20 20 30 20 20 30 20 20 30 20 20 30 20 20 30 20 20 30 20 20 30 20 20 30 20 20 30 20 20 30 20 20 30 20 20 30 20 20 30 20 20 30 20 20 30 20 20 30 20 20 30 20 20 30 20 20 30 20 20 30 20 20 30 20 20 30 20 20 30 20 20 30 20 20 30 20 20 30 20 20 30 20 20 30 20 20 30 20 20 30 20 20 30 20 20 30 20 20 30 20 20 30 20 20 30 20 20 30 20 20 30 20 20 30 20 20 30 20 20 30 20 20 30 20 20 30 20 20 30 20 20 30 20 20 30 20 20 30 20 20 30 255 0 0 20 20 30 20 20 30 20 20 30 20 20 30 20 20 30 20 20 30 20 20 30 20 20 30 20 20 30 20 20 30 20 20 30 20 20 30 20 20 30 20 20 30 20 20 30 20 20 30 20 20 30 20 20 30 20 20 30 20 20 30 20 20 30 20 20 30 20 20 30 20 20 30 20 20 30 20 20 30 20 20 30 
20 20 30 20 20 30 20 20 30 20 20 30 20 20 30 20 20 30 20 20 30 20 20 30 20 20 30 20 20 30 20 20 30 20 20 30 20 20 30 20 20 30 20 20 30 20 20 30 20 20 30 20 20 30 20 20 30 20 20 30 20 20 30 20 20 30 20 20 30 20 20 30 20 20 30 20 20 30 0 255 0 20 20 30 20 20 30 20 20 30 20 20 30 20 20 30 20 20 30 20 20 30 20 20 30 20 20 30 20 20 30 20 20 30 20 20 30 20 20 30 20 20 30 20 20 30 20 20 30 20 20 30 20 20 30 20 20 30 20 20 30 20 20 30 20 20 30 20 20 30 20 20 30 20 20 30 20 20 30 20 20 30 20 20 30 20 20 30 20 20 30 20 20 30 20 20 30 20 20 30 20 20 30 20 20 30 20 20 30 20 20 30 20 20 30 20 20 30 20 20 30 20 20 30 20 20 30 20 20 30 20 20 30 20 20 30 20 20 30 20 20 30 20 20 30 20 20 30 20 20 30 20 20 30 20 20 30 20 20 30 20 20 30 20 20 30 20 20 30 20 20 30 20 20 30 20 20 30 20 20 30 20 20 30 20 20 30 20 20 30 20 20 30 20 20 30 20 20 30 20 20 30 20 20 30 20 20 30 20 20 30 20 20 30 20 20 30 20 20 30 20 20 30 20 20 30 20 20 30 20 20 30 20 20 30 20 20 30 20 20 30 20 20 30 20 20 30 20 20 30 20 20 30 20 20 30 20 20 30 20 20 30 20 20 30 20 20 30 20 20 30 20 20 30 20 20 30 20 20 30 20 20 30 20 20 30 20 20 30 20 20 30 20 20 30 20 20 30 20 20 30 20 20 30 20 20 30 20 20 30 20 20 30 20 20 30 20 20 30 20 20 30 20 20 30 20 20 30 20 20 30 20 20 30 20 20 30 20 20 30 20 20 30 20 20 30 20 20 30 20 20 30 20 20 30 20 20 30 20 20 30 20 20 30 20 20 30 20 20 30 20 20 30 20 20 30 20 20 30 20 20 30 20 20 30 20 20 30 20 20 30 20 20 30 20 20 30 20 20 30 20 20 30 20 20 30 20 20 30 20 20 30 20 20 30 20 20 30 20 20 30 20 20 30 20 20 30 20 20 30 20 20 30 20 20 30 20 20 30 20 20 30 20 20 30 20 20 30 20 20 30 20 20 30 20 20 30 20 20 30 20 20 30 20 20 30 20 20 30 20 20 30 20 20 30 20 20 30 20 20 30 20 20 30 20 20 30 20 20 30 20 20 30 20 20 30 20 20 30 20 20 30 20 20 30 20 20 30 20 20 30 20 20 30 20 20 30 20 20 30 20 20 30 20 20 30 20 20 30 20 20 30 20 20 30 20 20 30 20 20 30 20 20 30 20 20 30 20 20 30 20 20 30 20 20 30 20 20 30 20 20 30 20 20 30 20 20 30 20 20 30 20 20 30 20 20 30 20 20 30 20 20 30 20 20 30 20 20 30 20 20 30 20 20 30 20 20 30 20 20 30 20 20 30 20 20 30 255 0 0 20 20 30 20 20 30 20 20 30 20 20 30 20 20 30 20 20 30 20 20 30 20 20 30 20 20 30 20 20 30 20 20 30 20 20 30 20 20 30 20 20 30 20 20 30 20 20 30 20 20 30 20 20 30 20 20 30 20 20 30 20 20 30 20 20 30 20 20 30 20 20 30 20 20 30 20 20 30 
20 20 30 20 20 30 20 20 30 20 20 30 20 20 30 20 20 30 20 20 30 20 20 30 20 20 30 20 20 30 20 20 30 20 20 30 20 20 30 20 20 30 20 20 30 20 20 30 20 20 30 20 20 30 20 20 30 20 20 30 20 20 30 20 20 30 20 20 30 20 20 30 20 20 30 0 255 0 20 20 30 20 20 30 20 20 30 20 20 30 20 20 30 20 20 30 20 20 30 20 20 30 20 20 30 20 20 30 20 20 30 20 20 30 20 20 30 20 20 30 20 20 30 20 20 30 20 20 30 20 20 30 20 20 30 20 20 30 20 20 30 20 20 30 20 20 30 20 20 30 20 20 30 20 20 30 20 20 30 20 20 30 20 20 30 20 20 30 20 20 30 20 20 30 20 20 30 20 20 30 20 20 30 20 20 30 20 20 30 20 20 30 20 20 30 20 20 30 20 20 30 20 20 30 20 20 30 20 20 30 20 20 30 20 20 30 20 20 30 20 20 30 20 20 30 20 20 30 20 20 30 20 20 30 20 20 30 20 20 30 20 20 30 20 20 30 20 20 30 20 20 30 20 20 30 20 20 30 20 20 30 20 20 30 20 20 30 20 20 30 20 20 30 20 20 30 20 20 30 20 20 30 20 20 30 20 20 30 20 20 30 20 20 30 20 20 30 20 20 30 20 20 30 20 20 30 20 20 30 20 20 30 20 20 30 20 20 30 20 20 30 20 20 30 20 20 30 20 20 30 20 20 30 20 20 30 20 20 30 20 20 30 20 20 30 20 20 30 20 20 30 20 20 30 20 20 30 20 20 30 20 20 30 20 20 30 20 20 30 20 20 30 20 20 30 20 20 30 20 20 30 20 20 30 20 20 30 20 20 30 20 20 30 20 20 30 20 20 30 20 20 30 20 20 30 20 20 30 20 20 30 20 20 30 20 20 30 20 20 30 20 20 30 20 20 30 20 20 30 20 20 30 20 20 30 20 20 30 20 20 30 20 20 30 20 20 30 20 20 30 20 20 30 20 20 30 20 20 30 20 20 30 20 20 30 20 20 30 20 20 30 20 20 30 20 20 30 20 20 30 20 20 30 20 20 30 20 20 30 20 20 30 20 20 30 20 20 30 20 20 30 20 20 30 20 20 30 20 20 30 20 20 30 20 20 30 20 20 30 20 20 30 20 20 30 20 20 30 20 20 30 20 20 30 20 20 30 20 20 30 20 20 30 20 20 30 20 20 30 20 20 30 20 20 30 20 20 30 20 20 30 20 20 30 20 20 30 20 20 30 20 20 30 20 20 30 20 20 30 20 20 30 20 20 30 20 20 30 20 20 30 20 20 30 20 20 30 20 20 30 20 20 30 20 20 30 20 20 30 20 20 30 20 20 30 20 20 30 20 20 30 20 20 30 20 20 30 20 20 30 20 20 30 20 20 30 20 20 30 20 20 30 20 20 30 20 20 30 20 20 30 20 20 30 20 20 30 20 20 30 20 20 30 20 20 30 20 20 30 20 20 30 20 20 30 20 20 30 20 20 30 20 20 30 20 20 30 20 20 30 255 0 0 20 20 30 20 20 30 20 20 30 20 20 30 20 20 30 20 20 30 20 20 30 20 20 30 20 20 30 20 20 30 20 20 30 20 20 30 20 20 30 20 20 30 20 20 30 20 20 30 20 20 30 20 20 30 20 20 30 20 20 30 20 20 30 20 20 30 20 20 30 20 20 30 20 20 30 
20 20 30 20 20 30 20 20 30 20 20 30 20 20 30 20 20 30 20 20 30 20 20 30 20 20 30 20 20 30 20 20 30 20 20 30 20 20 30 20 20 30 20 20 30 20 20 30 20 20 30 20 20 30 20 20 30 20 20 30 20 20 30 20 20 30 20 20 30 20 20 30 0 255 0 20 20 30 20 20 30 20 20 30 20 20 30 20 20 30 20 20 30 20 20 30 20 20 30 20 20 30 20 20 30 20 20 30 20 20 30 20 20 30 20 20 30 20 20 30 20 20 30 20 20 30 20 20 30 20 20 30 20 20 30 20 20 30 20 20 30 20 20 30 20 20 30 20 20 30 20 20 30 20 20 30 20 20 30 20 20 30 20 20 30 20 20 30 20 20 30 20 20 30 20 20 30 20 20 30 20 20 30 20 20 30 20 20 30 20 20 30 20 20 30 20 20 30 20 20 30 20 20 30 20 20 30 20 20 30 20 20 30 20 20 30 20 20 30 20 20 30 20 20 30 20 20 30 20 20 30 20 20 30 20 20 30 20 20 30 20 20 30 20 20 30 20 20 30 20 20 30 20 20 30 20 20 30 20 20 30 20 20 30 20 20 30 20 20 30 20 20 30 20 20 30 20 20 30 20 20 30 20 20 30 20 20 30 20 20 30 20 20 30 20 20 30 20 20 30 20 20 30 20 20 30 20 20 30 20 20 30 20 20 30 20 20 30 20 20 30 20 20 30 20 20 30 20 20 30 20 20 30 20 20 30 20 20 30 20 20 30 20 20 30 20 20 30 20 20 30 20 20 30 20 20 30 20 20 30 20 20 30 20 20 30 20 20 30 20 20 30 20 20 30 20 20 30 20 20 30 20 20 30 20 20 30 20 20 30 20 20 30 20 20 30 20 20 30 20 20 30 20 20 30 20 20 30 20 20 30 20 20 30 20 20 30 20 20 30 20 20 30 20 20 30 20 20 30 20 20 30 20 20 30 20 20 30 20 20 30 20 20 30 20 20 30 20 20 30 20 20 30 20 20 30 20 20 30 20 20 30 20 20 30 20 20 30 20 20 30 20 20 30 20 20 30 20 20 30 20 20 30 20 20 30 20 20 30 20 20 30 20 20 30 20 20 30 20 20 30 20 20 30 20 20 30 20 20 30 20 20 30 20 20 30 20 20 30 20 20 30 20 20 30 20 20 30 20 20 30 20 20 30 20 20 30 20 20 30 20 20 30 20 20 30 20 20 30 20 20 30 20 20 30 20 20 30 20 20 30 20 20 30 20 20 30 20 20 30 20 20 30 20 20 30 20 20 30 20 20 30 20 20 30 20 20 30 20 20 30 20 20 30 20 20 30 20 20 30 20 20 30 20 20 30 20 20 30 20 20 30 20 20 30 20 20 30 20 20 30 20 20 30 20 20 30 20 20 30 20 20 30 20 20 30 20 20 30 20 20 30 20 20 30 20 20 30 20 20 30 20 20 30 20 20 30 20 20 30 20 20 30 20 20 30 20 20 30 20 20 30 20 20 30 20 20 30 20 20 30 20 20 30 20 20 30 20 20 30 20 20 30 255 0 0 20 20 30 20 20 30 20 20 30 20 20 30 20 20 30 20 20 30 20 20 30 20 20 30 20 20 30 20 20 30 20 20 30 20 20 30 20 20 30 20 20 30 20 20 30 20 20 30 20 20 30 20 20 30 20 20 30 20 20 30 20 20 30 20 20 30 20 20 30 20 20 30 
20 20 30 20 20 30 20 20 30 20 20 30 20 20 30 20 20 30 20 20 30 20 20 30 20 20 30 20 20 30 20 20 30 20 20 30 20 20 30 20 20 30 20 20 30 20 20 30 20 20 30 20 20 30 20 20 30 20 20 30 20 20 30 20 20 30 20 20 30 0 255 0 20 20 30 20 20 30 20 20 30 20 20 30 20 20 30 20 20 30 20 20 30 20 20 30 20 20 30 20 20 30 20 20 30 20 20 30 20 20 30 20 20 30 20 20 30 20 20 30 20 20 30 20 20 30 20 20 30 20 20 30 20 20 30 20 20 30 20 20 30 20 20 30 20 20 30 20 20 30 20 20 30 20 20 30 20 20 30 20 20 30 20 20 30 20 20 30 20 20 30 20 20 30 20 20 30 20 20 30 20 20 30 20 20 30 20 20 30 20 20 30 20 20 30 20 20 30 20 20 30 20 20 30 20 20 30 20 20 30 20 20 30 20 20 30 20 20 30 20 20 30 20 20 30 20 20 30 20 20 30 20 20 30 20 20 30 20 20 30 20 20 30 20 20 30 20 20 30 20 20 30 20 20 30 20 20 30 20 20 30 20 20 30 20 20 30 20 20 30 20 20 30 20 20 30 20 20 30 20 20 30 20 20 30 20 20 30 20 20 30 20 20 30 20 20 30 20 20 30 20 20 30 20 20 30 20 20 30 20 20 30 20 20 30 20 20 30 20 20 30 20 20 30 20 20 30 20 20 30 20 20 30 20 20 30 20 20 30 20 20 30 20 20 30 20 20 30 20 20 30 20 20 30 20 20 30 20 20 30 20 20 30 20 20 30 20 20 30 20 20 30 20 20 30 20 20 30 20 20 30 20 20 30 20 20 30 20 20 30 20 20 30 20 20 30 20 20 30 20 20 30 20 20 30 20 20 30 20 20 30 20 20 30 20 20 30 20 20 30 20 20 30 20 20 30 20 20 30 20 20 30 20 20 30 20 20 30 20 20 30 20 20 30 20 20 30 20 20 30 20 20 30 20 20 30 20 20 30 20 20 30 20 20 30 20 20 30 20 20 30 20 20 30 20 20 30 20 20 30 20 20 30 20 20 30 20 20 30 20 20 30 20 20 30 20 20 30 20 20 30 20 20 30 20 20 30 20 20 30 20 20 30 20 20 30 20 20 30 20 20 30 20 20 30 20 20 30 20 20 30 20 20 30 20 20 30 20 20 30 20 20 30 20 20 30 20 20 30 20 20 30 20 20 30 20 20 30 20 20 30 20 20 30 20 20 30 20 20 30 20 20 30 20 20 30 20 20 30 20 20 30 20 20 30 20 20 30 20 20 30 20 20 30 20 20 30 20 20 30 20 20 30 20 20 30 20 20 30 20 20 30 20 20 30 20 20 30 20 20 30 20 20 30 20 20 30 20 20 30 20 20 30 20 20 30 20 20 30 20 20 30 20 20 30 20 20 30 20 20 30 20 20 30 20 20 30 20 20 30 20 20 30 20 20 30 20 20 30 20 20 30 20 20 30 20 20 30 20 20 30 20 20 30 20 20 30 20 20 30 20 20 30 20 20 30 255 0 0 20 20 30 20 20 30 20 20 30 20 20 30 20 20 30 20 20 30 20 20 30 20 20 30 20 20 30 20 20 30 20 20 30 20 20 30 20 20 30 20 20 30 20 20 30 20 20 30 20 20 30 20 20 30 20 20 30 20 20 30 20 20 30 20 20 30 20 20 30 
20 20 30 20 20 30 20 20 30 20 20 30 20 20 30 20 20 30 20 20 30 20 20 30 20 20 30 20 20 30 20 20 30 20 20 30 20 20 30 20 20 30 20 20 30 20 20 30 20 20 30 20 20 30 20 20 30 20 20 30 20 20 30 20 20 30 0 255 0 20 20 30 20 20 30 20 20 30 20 20 30 20 20 30 20 20 30 20 20 30 20 20 30 20 20 30 20 20 30 20 20 30 20 20 30 20 20 30 20 20 30 20 20 30 20 20 30 20 20 30 20 20 30 20 20 30 20 20 30 20 20 30 20 20 30 20 20 30 20 20 30 20 20 30 20 20 30 20 20 30 20 20 30 20 20 30 20 20 30 20 20 30 20 20 30 20 20 30 20 20 30 20 20 30 20 20 30 20 20 30 20 20 30 20 20 30 20 20 30 20 20 30 20 20 30 20 20 30 20 20 30 20 20 30 20 20 30 20 20 30 20 20 30 20 20 30 20 20 30 20 20 30 20 20 30 20 20 30 20 20 30 20 20 30 20 20 30 20 20 30 20 20 30 20 20 30 20 20 30 20 20 30 20 20 30 20 20 30 20 20 30 20 20 30 20 20 30 20 20 30 20 20 30 20 20 30 20 20 30 20 20 30 20 20 30 20 20 30 20 20 30 20 20 30 20 20 30 20 20 30 20 20 30 20 20 30 20 20 30 20 20 30 20 20 30 20 20 30 20 20 30 20 20 30 20 20 30 20 20 30 20 20 30 20 20 30 20 20 30 20 20 30 20 20 30 20 20 30 20 20 30 20 20 30 20 20 30 20 20 30 20 20 30 20 20 30 20 20 30 20 20 30 20 20 30 20 20 30 20 20 30 20 20 30 20 20 30 20 20 30 20 20 30 20 20 30 20 20 30 20 20 30 20 20 30 20 20 30 20 20 30 20 20 30 20 20 30 20 20 30 20 20 30 20 20 30 20 20 30 20 20 30 20 20 30 20 20 30 20 20 30 20 20 30 20 20 30 20 20 30 20 20 30 20 20 30 20 20 30 20 20 30 20 20 30 20 20 30 20 20 30 20 20 30 20 20 30 20 20 30 20 20 30 20 20 30 20 20 30 20 20 30 20 20 30 20 20 30 20 20 30 20 20 30 20 20 30 20 20 30 20 20 30 20 20 30 20 20 30 20 20 30 20 20 30 20 20 30 20 20 30 20 20 30 20 20 30 20 20 30 20 20 30 20 20 30 20 20 30 20 20 30 20 20 30 20 20 30 20 20 30 20 20 30 20 20 30 20 20 30 20 20 30 20 20 30 20 20 30 20 20 30 20 20 30 20 20 30 20 20 30 20 20 30 20 20 30 20 20 30 20 20 30 20 20 30 20 20 30 20 20 30 20 20 30 20 20 30 20 20 30 20 20 30 20 20 30 20 20 30 20 20 30 20 20 30 20 20 30 20 20 30 20 20 30 20 20 30 20 20 30 20 20 30 20 20 30 20 20 30 20 20 30 20 20 30 20 20 30 20 20 30 20 20 30 20 20 30 20 20 30 20 20 30 20 20 30 20 20 30 20 20 30 20 20 30 20 20 30 255 0 0 20 20 30 20 20 30 20 20 30 20 20 30 20 20 30 20 20 30 20 20 30 20 20 30 20 20 30 20 20 30 20 20 30 20 20 30 20 20 30 20 20 30 20 20 30 20 20 30 20 20 30 20 20 30 20 20 30 20 20 30 20 20 30 20 20 30 
20 20 30 20 20 30 20 20 30 20 20 30 20 20 30 20 20 30 20 20 30 20 20 30 20 20 30 20 20 30 20 20 30 20 20 30 20 20 30 20 20 30 20 20 30 20 20 30 20 20 30 20 20 30 20 20 30 20 20 30 20 20 30 0 255 0 20 20 30 20 20 30 20 20 30 20 20 30 20 20 30 20 20 30 20 20 30 20 20 30 20 20 30 20 20 30 20 20 30 20 20 30 20 20 30 20 20 30 20 20 30 20 20 30 20 20 30 20 20 30 20 20 30 20 20 30 20 20 30 20 20 30 20 20 30 20 20 30 20 20 30 20 20 30 20 20 30 20 20 30 20 20 30 20 20 30 20 20 30 20 20 30 20 20 30 20 20 30 20 20 30 20 20 30 20 20 30 20 20 30 20 20 30 20 20 30 20 20 30 20 20 30 20 20 30 20 20 30 20 20 30 20 20 30 20 20 30 20 20 30 20 20 30 20 20 30 20 20 30 20 20 30 20 20 30 20 20 30 20 20 30 20 20 30 20 20 30 20 20 30 20 20 30 20 20 30 20 20 30 20 20 30 20 20 30 20 20 30 20 20 30 20 20 30 20 20 30 20 20 30 20 20 30 20 20 30 20 20 30 20 20 30 20 20 30 20 20 30 20 20 30 20 20 30 20 20 30 20 20 30 20 20 30 20 20 30 20 20 30 20 20 30 20 20 30 20 20 30 20 20 30 20 20 30 20 20 30 20 20 30 20 20 30 20 20 30 20 20 30 20 20 30 20 20 30 20 20 30 20 20 30 20 20 30 20 20 30 20 20 30 20 20 30 20 20 30 20 20 30 20 20 30 20 20 30 20 20 30 20 20 30 20 20 30 20 20 30 20 20 30 20 20 30 20 20 30 20 20 30 20 20 30 20 20 30 20 20 30 20 20 30 20 20 30 20 20 30 20 20 30 20 20 30 20 20 30 20 20 30 20 20 30 20 20 30 20 20 30 20 20 30 20 20 30 20 20 30 20 20 30 20 20 30 20 20 30 20 20 30 20 20 30 20 20 30 20 20 30 20 20 30 20 20 30 20 20 30 20 20 30 20 20 30 20 20 30 20 20 30 20 20 30 20 20 30 20 20 30 20 20 30 20 20 30 20 20 30 20 20 30 20 20 30 20 20 30 20 20 30 20 20 30 20 20 30 20 20 30 20 20 30 20 20 30 20 20 30 20 20 30 20 20 30 20 20 30 20 20 30 20 20 30 20 20 30 20 20 30 20 20 30 20 20 30 20 20 30 20 20 30 20 20 30 20 20 30 20 20 30 20 20 30 20 20 30 20 20 30 20 20 30 20 20 30 20 20 30 20 20 30 20 20 30 20 20 30 20 20 30 20 20 30 20 20 30 20 20 30 20 20 30 20 20 30 20 20 30 20 20 30 20 20 30 20 20 30 20 20 30 20 20 30 20 20 30 20 20 30 20 20 30 20 20 30 20 20 30 20 20 30 20 20 30 20 20 30 20 20 30 20 20 30 20 20 30 20 20 30 20 20 30 20 20 30 20 20 30 20 20 30 20 20 30 20 20 30 20 20 30 20 20 30 255 0 0 20 20 30 20 20 30 20 20 30 20 20 30 20 20 30 20 20 30 20 20 30 20 20 30 20 20 30 20 20 30 20 20 30 20 20 30 20 20 30 20 20 30 20 20 30 20 20 30 20 20 30 20 20 30 20 20 30 20 20 30 20 20 30 
20 20 30 20 20 30 20 20 30 20 20 30 20 20 30 20 20 30 20 20 30 20 20 30 20 20 30 20 20 30 20 20 30 20 20 30 20 20 30 20 20 30 20 20 30 20 20 30 20 20 30 20 20 30 20 20 30 20 20 30 0 255 0 20 20 30 20 20 30 20 20 30 20 20 30 20 20 30 20 20 30 20 20 30 20 20 30 20 20 30 20 20 30 20 20 30 20 20 30 20 20 30 20 20 30 20 20 30 20 20 30 20 20 30 20 20 30 20 20 30 20 20 30 20 20 30 20 20 30 20 20 30 20 20 30 20 20 30 20 20 30 20 20 30 20 20 30 20 20 30 20 20 30 20 20 30 20 20 30 20 20 30 20 20 30 20 20 30 20 20 30 20 20 30 20 20 30 20 20 30 20 20 30 20 20 30 20 20 30 20 20 30 20 20 30 20 20 30 20 20 30 20 20 30 20 20 30 20 20 30 20 20 30 20 20 30 20 20 30 20 20 30 20 20 30 20 20 30 20 20 30 20 20 30 20 20 30 20 20 30 20 20 30 20 20 30 20 20 30 20 20 30 20 20 30 20 20 30 20 20 30 20 20 30 20 20 30 20 20 30 20 20 30 20 20 30 20 20 30 20 20 30 20 20 30 20 20 30 20 20 30 20 20 30 20 20 30 20 20 30 20 20 30 20 20 30 20 20 30 20 20 30 20 20 30 20 20 30 20 20 30 20 20 30 20 20 30 20 20 30 20 20 30 20 20 30 20 20 30 20 20 30 20 20 30 20 20 30 20 20 30 20 20 30 20 20 30 20 20 30 20 20 30 20 20 30 20 20 30 20 20 30 20 20 30 20 20 30 20 20 30 20 20 30 20 20 30 20 20 30 20 20 30 20 20 30 20 20 30 20 20 30 20 20 30 20 20 30 20 20 30 20 20 30 20 20 30 20 20 30 20 20 30 20 20 30 20 20 30 20 20 30 20 20 30 20 20 30 20 20 30 20 20 30 20 20 30 20 20 30 20 20 30 20 20 30 20 20 30 20 20 30 20 20 30 20 20 30 20 20 30 20 20 30 20 20 30 20 20 30 20 20 30 20 20 30 20 20 30 20 20 30 20 20 30 20 20 30 20 20 30 20 20 30 20 20 30 20 20 30 20 20 30 20 20 30 20 20 30 20 20 30 20 20 30 20 20 30 20 20 30 20 20 30 20 20 30 20 20 30 20 20 30 20 20 30 20 20 30 20 20 30 20 20 30 20 20 30 20 20 30 20 20 30 20 20 30 20 20 30 20 20 30 20 20 30 20 20 30 20 20 30 20 20 30 20 20 30 20 20 30 20 20 30 20 20 30 20 20 30 20 20 30 20 20 30 20 20 30 20 20 30 20 20 30 20 20 30 20 20 30 20 20 30 20 20 30 20 20 30 20 20 30 20 20 30 20 20 30 20 20 30 20 20 30 20 20 30 20 20 30 20 20 30 20 20 30 20 20 30 20 20 30 20 20 30 20 20 30 20 20 30 20 20 30 20 20 30 20 20 30 20 20 30 20 20 30 20 20 30 20 20 30 20 20 30 20 20 30 20 20 30 20 20 30 255 0 0 20 20 30 20 20 30 20 20 30 20 20 30 20 20 30 20 20 30 20 20 30 20 20 30 20 20 30 20 20 30 20 20 30 20 20 30 20 20 30 20 20 30 20 20 30 20 20 30 20 20 30 20 20 30 20 20 30 20 20 30 
20 20 30 20 20 30 20 20 30 20 20 30 20 20 30 20 20 30 20 20 30 20 20 30 20 20 30 20 20 30 20 20 30 20 20 30 20 20 30 20 20 30 20 20 30 20 20 30 20 20 30 20 20 30 20 20 30 0 255 0 20 20 30 20 20 30 20 20 30 20 20 30 20 20 30 20 20 30 20 20 30 20 20 30 20 20 30 20 20 30 20 20 30 20 20 30 20 20 30 20 20 30 20 20 30 20 20 30 20 20 30 20 20 30 20 20 30 20 20 30 20 20 30 20 20 30 20 20 30 20 20 30 20 20 30 20 20 30 20 20 30 20 20 30 20 20 30 20 20 30 20 20 30 20 20 30 20 20 30 20 20 30 20 20 30 20 20 30 20 20 30 20 20 30 20 20 30 20 20 30 20 20 30 20 20 30 20 20 30 20 20 30 20 20 30 20 20 30 20 20 30 20 20 30 20 20 30 20 20 30 20 20 30 20 20 30 20 20 30 20 20 30 20 20 30 20 20 30 20 20 30 20 20 30 20 20 30 20 20 30 20 20 30 20 20 30 20 20 30 20 20 30 20 20 30 20 20 30 20 20 30 20 20 30 20 20 30 20 20 30 20 20 30 20 20 30 20 20 30 20 20 30 20 20 30 20 20 30 20 20 30 20 20 30 20 20 30 20 20 30 20 20 30 20 20 30 20 20 30 20 20 30 20 20 30 20 20 30 20 20 30 20 20 30 20 20 30 20 20 30 20 20 30 20 20 30 20 20 30 20 20 30 20 20 30 20 20 30 20 20 30 20 20 30 20 20 30 20 20 30 20 20 30 20 20 30 20 20 30 20 20 30 20 20 30 20 20 30 20 20 30 20 20 30 20 20 30 20 20 30 20 20 30 20 20 30 20 20 30 20 20 30 20 20 30 20 20 30 20 20 30 20 20 30 20 20 30 20 20 30 20 20 30 20 20 30 20 20 30 20 20 30 20 20 30 20 20 30 20 20 30 20 20 30 20 20 30 20 20 30 20 20 30 20 20 30 20 20 30 20 20 30 20 20 30 20 20 30 20 20 30 20 20 30 20 20 30 20 20 30 20 20 30 20 20 30 20 20 30 20 20 30 20 20 30 20 20 30 20 20 30 20 20 30 20 20 30 20 20 30 20 20 30 20 20 30 20 20 30 20 20 30 20 20 30 20 20 30 20 20 30 20 20 30 20 20 30 20 20 30 20 20 30 20 20 30 20 20 30 20 20 30 20 20 30 20 20 30 20 20 30 20 20 30 20 20 30 20 20 30 20 20 30 20 20 30 20 20 30 20 20 30 20 20 30 20 20 30 20 20 30 20 20 30 20 20 30 20 20 30 20 20 30 20 20 30 20 20 30 20 20 30 20 20 30 20 20 30 20 20 30 20 20 30 20 20 30 20 20 30 20 20 30 20 20 30 20 20 30 20 20 30 20 20 30 20 20 30 20 20 30 20 20 30 20 20 30 20 20 30 20 20 30 20 20 30 20 20 30 20 20 30 20 20 30 20 20 30 20 20 30 20 20 30 20 20 30 20 20 30 20 20 30 20 20 30 20 20 30 20 20 30 20 20 30 20 20 30 255 0 0 20 20 30 20 20 30 20 20 30 20 20 30 20 20 30 20 20 30 20 20 30 20 20 30 20 20 30 20 20 30 20 20 30 20 20 30 20 20 30 20 20 30 20 20 30 20 20 30 20 20 30 20 20 30 20 20 30 
20 20 30 20 20 30 20 20 30 20 20 30 20 20 30 20 20 30 20 20 30 20 20 30 20 20 30 20 20 30 20 20 30 20 20 30 20 20 30 20 20 30 20 20 30 20 20 30 20 20 30 20 20 30 0 255 0 20 20 30 20 20 30 20 20 30 20 20 30 20 20 30 20 20 30 20 20 30 20 20 30 20 20 30 20 20 30 20 20 30 20 20 30 20 20 30 20 20 30 20 20 30 20 20 30 20 20 30 20 20 30 20 20 30 20 20 30 20 20 30 20 20 30 20 20 30 20 20 30 20 20 30 20 20 30 20 20 30 20 20 30 20 20 30 20 20 30 20 20 30 20 20 30 20 20 30 20 20 30 20 20 30 20 20 30 20 20 30 20 20 30 20 20 30 20 20 30 20 20 30 20 20 30 20 20 30 20 20 30 20 20 30 20 20 30 20 20 30 20 20 30 20 20 30 20 20 30 20 20 30 20 20 30 20 20 30 20 20 30 20 20 30 20 20 30 20 20 30 20 20 30 20 20 30 20 20 30 20 20 30 20 20 30 20 20 30 20 20 30 20 20 30 20 20 30 20 20 30 20 20 30 20 20 30 20 20 30 20 20 30 20 20 30 20 20 30 20 20 30 20 20 30 20 20 30 20 20 30 20 20 30 20 20 30 20 20 30 20 20 30 20 20 30 20 20 30 20 20 30 20 20 30 20 20 30 20 20 30 20 20 30 20 20 30 20 20 30 20 20 30 20 20 30 20 20 30 20 20 30 20 20 30 20 20 30 20 20 30 20 20 30 20 20 30 20 20 30 20 20 30 20 20 30 20 20 30 20 20 30 20 20 30 20 20 30 20 20 30 20 20 30 20 20 30 20 20 30 20 20 30 20 20 30 20 20 30 20 20 30 20 20 30 20 20 30 20 20 30 20 20 30 20 20 30 20 20 30 20 20 30 20 20 30 20 20 30 20 20 30 20 20 30 20 20 30 20 20 30 20 20 30 20 20 30 20 20 30 20 20 30 20 20 30 20 20 30 20 20 30 20 20 30 20 20 30 20 20 30 20 20 30 20 20 30 20 20 30 20 20 30 20 20 30 20 20 30 20 20 30 20 20 30 20 20 30 20 20 30 20 20 30 20 20 30 20 20 30 20 20 30 20 20 30 20 20 30 20 20 30 20 20 30 20 20 30 20 20 30 20 20 30 20 20 30 20 20 30 20 20 30 20 20 30 20 20 30 20 20 30 20 20 30 20 20 30 20 20 30 20 20 30 20 20 30 20 20 30 20 20 30 20 20 30 20 20 30 20 20 30 20 20 30 20 20 30 20 20 30 20 20 30 20 20 30 20 20 30 20 20 30 20 20 30 20 20 30 20 20 30 20 20 30 20 20 30 20 20 30 20 20 30 20 20 30 20 20 30 20 20 30 20 20 30 20 20 30 20 20 30 20 20 30 20 20 30 20 20 30 20 20 30 20 20 30 20 20 30 20 20 30 20 20 30 20 20 30 20 20 30 20 20 30 20 20 30 20 20 30 20 20 30 20 20 30 20 20 30 20 20 30 20 20 30 20 20 30 20 20 30 20 20 30 20 20 30 20 20 30 20 20 30 255 0 0 20 20 30 20 20 30 20 20 30 20 20 30 20 20 30 20 20 30 20 20 30 20 20 30 20 20 30 20 20 30 20 20 30 20 20 30 20 20 30 20 20 30 20 20 30 20 20 30 20 20 30 20 20 30 
20 20 30 20 20 30 20 20 30 20 20 30 20 20 30 20 20 30 20 20 30 20 20 30 20 20 30 20 20 30 20 20 30 20 20 30 20 20 30 20 20 30 20 20 30 20 20 30 20 20 30 0 255 0 20 20 30 20 20 30 20 20 30 20 20 30 20 20 30 20 20 30 20 20 30 20 20 30 20 20 30 20 20 30 20 20 30 20 20 30 20 20 30 20 20 30 20 20 30 20 20 30 20 20 30 20 20 30 20 20 30 20 20 30 20 20 30 20 20 30 20 20 30 20 20 30 20 20 30 20 20 30 20 20 30 20 20 30 20 20 30 20 20 30 20 20 30 20 20 30 20 20 30 20 20 30 20 20 30 20 20 30 20 20 30 20 20 30 20 20 30 20 20 30 20 20 30 20 20 30 20 20 30 20 20 30 20 20 30 20 20 30 20 20 30 20 20 30 20 20 30 20 20 30 20 20 30 20 20 30 20 20 30 20 20 30 20 20 30 20 20 30 20 20 30 20 20 30 20 20 30 20 20 30 20 20 30 20 20 30 20 20 30 20 20 30 20 20 30 20 20 30 20 20 30 20 20 30 20 20 30 20 20 30 20 20 30 20 20 30 20 20 30 20 20 30 20 20 30 20 20 30 20 20 30 20 20 30 20 20 30 20 20 30 20 20 30 20 20 30 20 20 30 20 20 30 20 20 30 20 20 30 20 20 30 20 20 30 20 20 30 20 20 30 20 20 30 20 20 30 20 20 30 20 20 30 20 20 30 20 20 30 20 20 30 20 20 30 20 20 30 20 20 30 20 20 30 20 20 30 20 20 30 20 20 30 20 20 30 20 20 30 20 20 30 20 20 30 20 20 30 20 20 30 20 20 30 20 20 30 20 20 30 20 20 30 20 20 30 20 20 30 20 20 30 20 20 30 20 20 30 20 20 30 20 20 30 20 20 30 20 20 30 20 20 30 20 20 30 20 20 30 20 20 30 20 20 30 20 20 30 20 20 30 20 20 30 20 20 30 20 20 30 20 20 30 20 20 30 20 20 30 20 20 30 20 20 30 20 20 30 20 20 30 20 20 30 20 20 30 20 20 30 20 20 30 20 20 30 20 20 30 20 20 30 20 20 30 20 20 30 20 20 30 20 20 30 20 20 30 20 20 30 20 20 30 20 20 30 20 20 30 20 20 30 20 20 30 20 20 30 20 20 30 20 20 30 20 20 30 20 20 30 20 20 30 20 20 30 20 20 30 20 20 30 20 20 30 20 20 30 20 20 30 20 20 30 20 20 30 20 20 30 20 20 30 20 20 30 20 20 30 20 20 30 20 20 30 20 20 30 20 20 30 20 20 30 20 20 30 20 20 30 20 20 30 20 20 30 20 20 30 20 20 30 20 20 30 20 20 30 20 20 30 20 20 30 20 20 30 20 20 30 20 20 30 20 20 30 20 20 30 20 20 30 20 20 30 20 20 30 20 20 30 20 20 30 20 20 30 20 20 30 20 20 30 20 20 30 20 20 30 20 20 30 20 20 30 20 20 30 20 20 30 20 20 30 20 20 30 20 20 30 20 20 30 20 20 30 20 20 30 20 20 30 20 20 30 20 20 30 20 20 30 255 0 0 20 20 30 20 20 30 20 20 30 20 20 30 20 20 30 20 20 30 20 20 30 20 20 30 20 20 30 20 20 30 20 20 30 20 20 30 20 20 30 20 20 30 20 20 30 20 20 30 20 20 30 
20 20 30 20 20 30 20 20 30 20 20 30 20 20 30 20 20 30 20 20 30 20 20 30 20 20 30 20 20 30 20 20 30 20 20 30 20 20 30 20 20 30 20 20 30 20 20 30 0 255 0 20 20 30 20 20 30 20 20 30 20 20 30 20 20 30 20 20 30 20 20 30 20 20 30 20 20 30 20 20 30 20 20 30 20 20 30 20 20 30 20 20 30 20 20 30 20 20 30 20 20 30 20 20 30 20 20 30 20 20 30 20 20 30 20 20 30 20 20 30 20 20 30 20 20 30 20 20 30 20 20 30 20 20 30 20 20 30 20 20 30 20 20 30 20 20 30 20 20 30 20 20 30 20 20 30 20 20 30 20 20 30 20 20 30 20 20 30 20 20 30 20 20 30 20 20 30 20 20 30 20 20 30 20 20 30 20 20 30 20 20 30 20 20 30 20 20 30 20 20 30 20 20 30 20 20 30 20 20 30 20 20 30 20 20 30 20 20 30 20 20 30 20 20 30 20 20 30 20 20 30 20 20 30 20 20 30 20 20 30 20 20 30 20 20 30 20 20 30 20 20 30 20 20 30 20 20 30 20 20 30 20 20 30 20 20 30 20 20 30 20 20 30 20 20 30 20 20 30 20 20 30 20 20 30 20 20 30 20 20 30 20 20 30 20 20 30 20 20 30 20 20 30 20 20 30 20 20 30 20 20 30 20 20 30 20 20 30 20 20 30 20 20 30 20 20 30 20 20 30 20 20 30 20 20 30 20 20 30 20 20 30 20 20 30 20 20 30 20 20 30 20 20 30 20 20 30 20 20 30 20 20 30 20 20 30 20 20 30 20 20 30 20 20 30 20 20 30 20 20 30 20 20 30 20 20 30 20 20 30 20 20 30 20 20 30 20 20 30 20 20 30 20 20 30 20 20 30 20 20 30 20 20 30 20 20 30 20 20 30 20 20 30 20 20 30 20 20 30 20 20 30 20 20 30 20 20 30 20 20 30 20 20 30 20 20 30 20 20 30 20 20 30 20 20 30 20 20 30 20 20 30 20 20 30 20 20 30 20 20 30 20 20 30 20 20 30 20 20 30 20 20 30 20 20 30 20 20 30 20 20 30 20 20 30 20 20 30 20 20 30 20 20 30 20 20 30 20 20 30 20 20 30 20 20 30 20 20 30 20 20 30 20 20 30 20 20 30 20 20 30 20 20 30 20 20 30 20 20 30 20 20 30 20 20 30 20 20 30 20 20 30 20 20 30 20 20 30 20 20 30 20 20 30 20 20 30 20 20 30 20 20 30 20 20 30 20 20 30 20 20 30 20 20 30 20 20 30 20 20 30 20 20 30 20 20 30 20 20 30 20 20 30 20 20 30 20 20 30 20 20 30 20 20 30 20 20 30 20 20 30 20 20 30 20 20 30 20 20 30 20 20 30 20 20 30 20 20 30 20 20 30 20 20 30 20 20 30 20 20 30 20 20 30 20 20 30 20 20 30 20 20 30 20 20 30 20 20 30 20 20 30 20 20 30 20 20 30 20 20 30 20 20 30 20 20 30 20 20 30 20 20 30 20 20 30 20 20 30 20 20 30 20 20 30 20 20 30 20 20 30 20 20 30 20 20 30 255 0 0 20 20 30 20 20 30 20 20 30 20 20 30 20 20 30 20 20 30 20 20 30 20 20 30 20 20 30 20 20 30 20 20 30 20 20 30 20 20 30 20 20 30 20 20 30 20 20 30 
20 20 30 20 20 30 20 20 30 20 20 30 20 20 30 20 20 30 20 20 30 20 20 30 20 20 30 20 20 30 20 20 30 20 20 30 20 20 30 20 20 30 20 20 30 0 255 0 20 20 30 20 20 30 20 20 30 20 20 30 20 20 30 20 20 30 20 20 30 20 20 30 20 20 30 20 20 30 20 20 30 20 20 30 20 20 30 20 20 30 20 20 30 20 20 30 20 20 30 20 20 30 20 20 30 20 20 30 20 20 30 20 20 30 20 20 30 20 20 30 20 20 30 20 20 30 20 20 30 20 20 30 20 20 30 20 20 30 20 20 30 20 20 30 20 20 30 20 20 30 20 20 30 20 20 30 20 20 30 20 20 30 20 20 30 20 20 30 20 20 30 20 20 30 20 20 30 20 20 30 20 20 30 20 20 30 20 20 30 20 20 30 20 20 30 20 20 30 20 20 30 20 20 30 20 20 30 20 20 30 20 20 30 20 20 30 20 20 30 20 20 30 20 20 30 20 20 30 20 20 30 20 20 30 20 20 30 20 20 30 20 20 30 20 20 30 20 20 30 20 20 30 20 20 30 20 20 30 20 20 30 20 20 30 20 20 30 20 20 30 20 20 30 20 20 30 20 20 30 20 20 30 20 20 30 20 20 30 20 20 30 20 20 30 20 20 30 20 20 30 20 20 30 20 20 30 20 20 30 20 20 30 20 20 30 20 20 30 20 20 30 20 20 30 20 20 30 20 20 30 20 20 30 20 20 30 20 20 30 20 20 30 20 20 30 20 20 30 20 20 30 20 20 30 20 20 30 20 20 30 20 20 30 20 20 30 20 20 30 20 20 30 20 20 30 20 20 30 20 20 30 20 20 30 20 20 30 20 20 30 20 20 30 20 20 30 20 20 30 20 20 30 20 20 30 20 20 30 20 20 30 20 20 30 20 20 30 20 20 30 20 20 30 20 20 30 20 20 30 20 20 30 20 20 30 20 20 30 20 20 30 20 20 30 20 20 30 20 20 30 20 20 30 20 20 30 20 20 30 20 20 30 20 20 30 20 20 30 20 20 30 20 20 30 20 20 30 20 20 30 20 20 30 20 20 30 20 20 30 20 20 30 20 20 30 20 20 30 20 20 30 20 20 30 20 20 30 20 20 30 20 20 30 20 20 30 20 20 30 20 20 30 20 20 30 20 20 30 20 20 30 20 20 30 20 20 30 20 20 30 20 20 30 20 20 30 20 20 30 20 20 30 20 20 30 20 20 30 20 20 30 20 20 30 20 20 30 20 20 30 20 20 30 20 20 30 20 20 30 20 20 30 20 20 30 20 20 30 20 20 30 20 20 30 20 20 30 20 20 30 20 20 30 20 20 30 20 20 30 20 20 30 20 20 30 20 20 30 20 20 30 20 20 30 20 20 30 20 20 30 20 20 30 20 20 30 20 20 30 20 20 30 20 20 30 20 20 30 20 20 30 20 20 30 20 20 30 20 20 30 20 20 30 20 20 30 20 20 30 20 20 30 20 20 30 20 20 30 20 20 30 20 20 30 20 20 30 20 20 30 20 20 30 20 20 30 20 20 30 20 20 30 20 20 30 20 20 30 20 20 30 20 20 30 20 20 30 20 20 30 255 0 0 20 20 30 20 20 30 20 20 30 20 20 30 20 20 30 20 20 30 20 20 30 20 20 30 20 20 30 20 20 30 20 20 30 20 20 30 20 20 30 20 20 30 20 20 30 
20 20 30 20 20 30 20 20 30 20 20 30 20 20 30 20 20 30 20 20 30 20 20 30 20 20 30 20 20 30 20 20 30 20 20 30 20 20 30 20 20 30 0 255 0 20 20 30 20 20 30 20 20 30 20 20 30 20 20 30 20 20 30 20 20 30 20 20 30 20 20 30 20 20 30 20 20 30 20 20 30 20 20 30 20 20 30 20 20 30 20 20 30 20 20 30 20 20 30 20 20 30 20 20 30 20 20 30 20 20 30 20 20 30 20 20 30 20 20 30 20 20 30 20 20 30 20 20 30 20 20 30 20 20 30 20 20 30 20 20 30 20 20 30 20 20 30 20 20 30 20 20 30 20 20 30 20 20 30 20 20 30 20 20 30 20 20 30 20 20 30 20 20 30 20 20 30 20 20 30 20 20 30 20 20 30 20 20 30 20 20 30 20 20 30 20 20 30 20 20 30 20 20 30 20 20 30 20 20 30 20 20 30 20 20 30 20 20 30 20 20 30 20 20 30 20 20 30 20 20 30 20 20 30 20 20 30 20 20 30 20 20 30 20 20 30 20 20 30 20 20 30 20 20 30 20 20 30 20 20 30 20 20 30 20 20 30 20 20 30 20 20 30 20 20 30 20 20 30 20 20 30 20 20 30 20 20 30 20 20 30 20 20 30 20 20 30 20 20 30 20 20 30 20 20 30 20 20 30 20 20 30 20 20 30 20 20 30 20 20 30 20 20 30 20 20 30 20 20 30 20 20 30 20 20 30 20 20 30 20 20 30 20 20 30 20 20 30 20 20 30 20 20 30 20 20 30 20 20 30 20 20 30 20 20 30 20 20 30 20 20 30 20 20 30 20 20 30 20 20 30 20 20 30 20 20 30 20 20 30 20 20 30 20 20 30 20 20 30 20 20 30 20 20 30 20 20 30 20 20 30 20 20 30 20 20 30 20 20 30 20 20 30 20 20 30 20 20 30 20 20 30 20 20 30 20 20 30 20 20 30 20 20 30 20 20 30 20 20 30 20 20 30 20 20 30 20 20 30 20 20 30 20 20 30 20 20 30 20 20 30 20 20 30 20 20 30 20 20 30 20 20 30 20 20 30 20 20 30 20 20 30 20 20 30 20 20 30 20 20 30 20 20 30 20 20 30 20 20 30 20 20 30 20 20 30 20 20 30 20 20 30 20 20 30 20 20 30 20 20 30 20 20 30 20 20 30 20 20 30 20 20 30 20 20 30 20 20 30 20 20 30 20 20 30 20 20 30 20 20 30 20 20 30 20 20 30 20 20 30 20 20 30 20 20 30 20 20 30 20 20 30 20 20 30 20 20 30 20 20 30 20 20 30 20 20 30 20 20 30 20 20 30 20 20 30 20 20 30 20 20 30 20 20 30 20 20 30 20 20 30 20 20 30 20 20 30 20 20 30 20 20 30 20 20 30 20 20 30 20 20 30 20 20 30 20 20 30 20 20 30 20 20 30 20 20 30 20 20 30 20 20 30 20 20 30 20 20 30 20 20 30 20 20 30 20 20 30 20 20 30 20 20 30 20 20 30 20 20 30 20 20 30 20 20 30 20 20 30 20 20 30 20 20 30 20 20 30 20 20 30 20 20 30 20 20 30 20 20 30 20 20 30 255 0 0 20 20 30 20 20 30 20 20 30 20 20 30 20 20 30 20 20 30 20 20 30 20 20 30 20 20 30 20 20 30 20 20 30 20 20 30 20 20 30 20 20 30 
20 20 30 20 20 30 20 20 30 20 20 30 20 20 30 20 20 30 20 20 30 20 20 30 20 20 30 20 20 30 20 20 30 20 20 30 20 20 30 0 255 0 20 20 30 20 20 30 20 20 30 20 20 30 20 20 30 20 20 30 20 20 30 20 20 30 20 20 30 20 20 30 20 20 30 20 20 30 20 20 30 20 20 30 20 20 30 20 20 30 20 20 30 20 20 30 20 20 30 20 20 30 20 20 30 20 20 30 20 20 30 20 20 30 20 20 30 20 20 30 20 20 30 20 20 30 20 20 30 20 20 30 20 20 30 20 20 30 20 20 30 20 20 30 20 20 30 20 20 30 20 20 30 20 20 30 20 20 30 20 20 30 20 20 30 20 20 30 20 20 30 20 20 30 20 20 30 20 20 30 20 20 30 20 20 30 20 20 30 20 20 30 20 20 30 20 20 30 20 20 30 20 20 30 20 20 30 20 20 30 20 20 30 20 20 30 20 20 30 20 20 30 20 20 30 20 20 30 20 20 30 20 20 30 20 20 30 20 20 30 20 20 30 20 20 30 20 20 30 20 20 30 20 20 30 20 20 30 20 20 30 20 20 30 20 20 30 20 20 30 20 20 30 20 20 30 20 20 30 20 20 30 20 20 30 20 20 30 20 20 30 20 20 30 20 20 30 20 20 30 20 20 30 20 20 30 20 20 30 20 20 30 20 20 30 20 20 30 20 20 30 20 20 30 20 20 30 20 20 30 20 20 30 20 20 30 20 20 30 20 20 30 20 20 30 20 20 30 20 20 30 20 20 30 20 20 30 20 20 30 20 20 30 20 20 30 20 20 30 20 20 30 20 20 30 20 20 30 20 20 30 20 20 30 20 20 30 20 20 30 20 20 30 20 20 30 20 20 30 20 20 30 20 20 30 20 20 30 20 20 30 20 20 30 20 20 30 20 20 30 20 20 30 20 20 30 20 20 30 20 20 30 20 20 30 20 20 30 20 20 30 20 20 30 20 20 30 20 20 30 20 20 30 20 20 30 20 20 30 20 20 30 20 20 30 20 20 30 20 20 30 20 20 30 20 20 30 20 20 30 20 20 30 20 20 30 20 20 30 20 20 30 20 20 30 20 20 30 20 20 30 20 20 30 20 20 30 20 20 30 20 20 30 20 20 30 20 20 30 20 20 30 20 20 30 20 20 30 20 20 30 20 20 30 20 20 30 20 20 30 20 20 30 20 20 30 20 20 30 20 20 30 20 20 30 20 20 30 20 20 30 20 20 30 20 20 30 20 20 30 20 20 30 20 20 30 20 20 30 20 20 30 20 20 30 20 20 30 20 20 30 20 20 30 20 20 30 20 20 30 20 20 30 20 20 30 20 20 30 20 20 30 20 20 30 20 20 30 20 20 30 20 20 30 20 20 30 20 20 30 20 20 30 20 20 30 20 20 30 20 20 30 20 20 30 20 20 30 20 20 30 20 20 30 20 20 30 20 20 30 20 20 30 20 20 30 20 20 30 20 20 30 20 20 30 20 20 30 20 20 30 20 20 30 20 20 30 20 20 30 20 20 30 20 20 30 20 20 30 20 20 30 20 20 30 20 20 30 20 20 30 20 20 30 20 20 30 20 20 30 20 20 30 20 20 30 255 0 0 20 20 30 20 20 30 20 20 30 20 20 30 20 20 30 20 20 30 20 20 30 20 20 30 20 20 30 20 20 30 20 20 30 20 20 30 20 20 30 
20 20 30 20 20 30 20 20 30 20 20 30 20 20 30 20 20 30 20 20 30 20 20 30 20 20 30 20 20 30 20 20 30 20 20 30 0 255 0 20 20 30 20 20 30 20 20 30 20 20 30 20 20 30 20 20 30 20 20 30 20 20 30 20 20 30 20 20 30 20 20 30 20 20 30 20 20 30 20 20 30 20 20 30 20 20 30 20 20 30 20 20 30 20 20 30 20 20 30 20 20 30 20 20 30 20 20 30 20 20 30 20 20 30 20 20 30 20 20 30 20 20 30 20 20 30 20 20 30 20 20 30 20 20 30 20 20 30 20 20 30 20 20 30 20 20 30 20 20 30 20 20 30 20 20 30 20 20 30 20 20 30 20 20 30 20 20 30 20 20 30 20 20 30 20 20 30 20 20 30 20 20 30 20 20 30 20 20 30 20 20 30 20 20 30 20 20 30 20 20 30 20 20 30 20 20 30 20 20 30 20 20 30 20 20 30 20 20 30 20 20 30 20 20 30 20 20 30 20 20 30 20 20 30 20 20 30 20 20 30 20 20 30 20 20 30 20 20 30 20 20 30 20 20 30 20 20 30 20 20 30 20 20 30 20 20 30 20 20 30 20 20 30 20 20 30 20 20 30 20 20 30 20 20 30 20 20 30 20 20 30 20 20 30 20 20 30 20 20 30 20 20 30 20 20 30 20 20 30 20 20 30 20 20 30 20 20 30 20 20 30 20 20 30 20 20 30 20 20 30 20 20 30 20 20 30 20 20 30 20 20 30 20 20 30 20 20 30 20 20 30 20 20 30 20 20 30 20 20 30 20 20 30 20 20 30 20 20 30 20 20 30 20 20 30 20 20 30 20 20 30 20 20 30 20 20 30 20 20 30 20 20 30 20 20 30 20 20 30 20 20 30 20 20 30 20 20 30 20 20 30 20 20 30 20 20 30 20 20 30 20 20 30 20 20 30 20 20 30 20 20 30 20 20 30 20 20 30 20 20 30 20 20 30 20 20 30 20 20 30 20 20 30 20 20 30 20 20 30 20 20 30 20 20 30 20 20 30 20 20 30 20 20 30 20 20 30 20 20 30 20 20 30 20 20 30 20 20 30 20 20 30 20 20 30 20 20 30 20 20 30 20 20 30 20 20 30 20 20 30 20 20 30 20 20 30 20 20 30 20 20 30 20 20 30 20 20 30 20 20 30 20 20 30 20 20 30 20 20 30 20 20 30 20 20 30 20 20 30 20 20 30 20 20 30 20 20 30 20 20 30 20 20 30 20 20 30 20 20 30 20 20 30 20 20 30 20 20 30 20 20 30 20 20 30 20 20 30 20 20 30 20 20 30 20 20 30 20 20 30 20 20 30 20 20 30 20 20 30 20 20 30 20 20 30 20 20 30 20 20 30 20 20 30 20 20 30 20 20 30 20 20 30 20 20 30 20 20 30 20 20 30 20 20 30 20 20 30 20 20 30 20 20 30 20 20 30 20 20 30 20 20 30 20 20 30 20 20 30 20 20 30 20 20 30 20 20 30 20 20 30 20 20 30 20 20 30 20 20 30 20 20 30 20 20 30 20 20 30 20 20 30 20 20 30 20 20 30 20 20 30 20 20 30 20 20 30 20 20 30 20 20 30 20 20 30 20 20 30 255 0 0 20 20 30 20 20 30 20 20 30 20 20 30 20 20 30 20 20 30 20 20 30 20 20 30 20 20 30 20 20 30 20 20 30 20 20 30 
20 20 30 20 20 30 20 20 30 20 20 30 20 20 30 20 20 30 20 20 30 20 20 30 20 20 30 20 20 30 20 20 30 0 255 0 20 20 30 20 20 30 20 20 30 20 20 30 20 20 30 20 20 30 20 20 30 20 20 30 20 20 30 20 20 30 20 20 30 20 20 30 20 20 30 20 20 30 20 20 30 20 20 30 20 20 30 20 20 30 20 20 30 20 20 30 20 20 30 20 20 30 20 20 30 20 20 30 20 20 30 20 20 30 20 20 30 20 20 30 20 20 30 20 20 30 20 20 30 20 20 30 20 20 30 20 20 30 20 20 30 20 20 30 20 20 30 20 20 30 20 20 30 20 20 30 20 20 30 20 20 30 20 20 30 20 20 30 20 20 30 20 20 30 20 20 30 20 20 30 20 20 30 20 20 30 20 20 30 20 20 30 20 20 30 20 20 30 20 20 30 20 20 30 20 20 30 20 20 30 20 20 30 20 20 30 20 20 30 20 20 30 20 20 30 20 20 30 20 20 30 20 20 30 20 20 30 20 20 30 20 20 30 20 20 30 20 20 30 20 20 30 20 20 30 20 20 30 20 20 30 20 20 30 20 20 30 20 20 30 20 20 30 20 20 30 20 20 30 20 20 30 20 20 30 20 20 30 20 20 30 20 20 30 20 20 30 20 20 30 20 20 30 20 20 30 20 20 30 20 20 30 20 20 30 20 20 30 20 20 30 20 20 30 20 20 30 20 20 30 20 20 30 20 20 30 20 20 30 20 20 30 20 20 30 20 20 30 20 20 30 20 20 30 20 20 30 20 20 30 20 20 30 20 20 30 20 20 30 20 20 30 20 20 30 20 20 30 20 20 30 20 20 30 20 20 30 20 20 30 20 20 30 20 20 30 20 20 30 20 20 30 20 20 30 20 20 30 20 20 30 20 20 30 20 20 30 20 20 30 20 20 30 20 20 30 20 20 30 20 20 30 20 20 30 20 20 30 20 20 30 20 20 30 20 20 30 20 20 30 20 20 30 20 20 30 20 20 30 20 20 30 20 20 30 20 20 30 20 20 30 20 20 30 20 20 30 20 20 30 20 20 30 20 20 30 20 20 30 20 20 30 20 20 30 20 20 30 20 20 30 20 20 30 20 20 30 20 20 30 20 20 30 20 20 30 20 20 30 20 20 30 20 20 30 20 20 30 20 20 30 20 20 30 20 20 30 20 20 30 20 20 30 20 20 30 20 20 30 20 20 30 20 20 30 20 20 30 20 20 30 20 20 30 20 20 30 20 20 30 20 20 30 20 20 30 20 20 30 20 20 30 20 20 30 20 20 30 20 20 30 20 20 30 20 20 30 20 20 30 20 20 30 20 20 30 20 20 30 20 20 30 20 20 30 20 20 30 20 20 30 20 20 30 20 20 30 20 20 30 20 20 30 20 20 30 20 20 30 20 20 30 20 20 30 20 20 30 20 20 30 20 20 30 20 20 30 20 20 30 20 20 30 20 20 30 20 20 30 20 20 30 20 20 30 20 20 30 20 20 30 20 20 30 20 20 30 20 20 30 20 20 30 20 20 30 20 20 30 20 20 30 20 20 30 20 20 30 20 20 30 20 20 30 20 20 30 20 20 30 20 20 30 20 20 30 20 20 30 20 20 30 255 0 0 20 20 30 20 20 30 20 20 30 20 20 30 20 20 30 20 20 30 20 20 30 20 20 30 20 20 30 20 20 30 20 20 30 
20 20 30 20 20 30 20 20 30 20 20 30 20 20 30 20 20 30 20 20 30 20 20 30 20 20 30 20 20 30 0 255 0 20 20 30 20 20 30 20 20 30 20 20 30 20 20 30 20 20 30 20 20 30 20 20 30 20 20 30 20 20 30 20 20 30 20 20 30 20 20 30 20 20 30 20 20 30 20 20 30 20 20 30 20 20 30 20 20 30 20 20 30 20 20 30 20 20 30 20 20 30 20 20 30 20 20 30 20 20 30 20 20 30 20 20 30 20 20 30 20 20 30 20 20 30 20 20 30 20 20 30 20 20 30 20 20 30 20 20 30 20 20 30 20 20 30 20 20 30 20 20 30 20 20 30 20 20 30 20 20 30 20 20 30 20 20 30 20 20 30 20 20 30 20 20 30 20 20 30 20 20 30 20 20 30 20 20 30 20 20 30 20 20 30 20 20 30 20 20 30 20 20 30 20 20 30 20 20 30 20 20 30 20 20 30 20 20 30 20 20 30 20 20 30 20 20 30 20 20 30 20 20 30 20 20 30 20 20 30 20 20 30 20 20 30 20 20 30 20 20 30 20 20 30 20 20 30 20 20 30 20 20 30 20 20 30 20 20 30 20 20 30 20 20 30 20 20 30 20 20 30 20 20 30 20 20 30 20 20 30 20 20 30 20 20 30 20 20 30 20 20 30 20 20 30 20 20 30 20 20 30 20 20 30 20 20 30 20 20 30 20 20 30 20 20 30 20 20 30 20 20 30 20 20 30 20 20 30 20 20 30 20 20 30 20 20 30 20 20 30 20 20 30 20 20 30 20 20 30 20 20 30 20 20 30 20 20 30 20 20 30 20 20 30 20 20 30 20 20 30 20 20 30 20 20 30 20 20 30 20 20 30 20 20 30 20 20 30 20 20 30 20 20 30 20 20 30 20 20 30 20 20 30 20 20 30 20 20 30 20 20 30 20 20 30 20 20 30 20 20 30 20 20 30 20 20 30 20 20 30 20 20 30 20 20 30 20 20 30 20 20 30 20 20 30 20 20 30 20 20 30 20 20 30 20 20 30 20 20 30 20 20 30 20 20 30 20 20 30 20 20 30 20 20 30 20 20 30 20 20 30 20 20 30 20 20 30 20 20 30 20 20 30 20 20 30 20 20 30 20 20 30 20 20 30 20 20 30 20 20 30 20 20 30 20 20 30 20 20 30 20 20 30 20 20 30 20 20 30 20 20 30 20 20 30 20 20 30 20 20 30 20 20 30 20 20 30 20 20 30 20 20 30 20 20 30 20 20 30 20 20 30 20 20 30 20 20 30 20 20 30 20 20 30 20 20 30 20 20 30 20 20 30 20 20 30 20 20 30 20 20 30 20 20 30 20 20 30 20 20 30 20 20 30 20 20 30 20 20 30 20 20 30 20 20 30 20 20 30 20 20 30 20 20 30 20 20 30 20 20 30 20 20 30 20 20 30 20 20 30 20 20 30 20 20 30 20 20 30 20 20 30 20 20 30 20 20 30 20 20 30 20 20 30 20 20 30 20 20 30 20 20 30 20 20 30 20 20 30 20 20 30 20 20 30 20 20 30 20 20 30 20 20 30 20 20 30 20 20 30 20 20 30 20 20 30 20 20 30 20 20 30 20 20 30 20 20 30 20 20 30 20 20 30 255 0 0 20 20 30 20 20 30 20 20 30 20 20 30 20 20 30 20 20 30 20 20 30 20 20 30 20 20 30 20 20 30 
20 20 30 20 20 30 20 20 30 20 20 30 20 20 30 20 20 30 20 20 30 20 20 30 20 20 30 0 255 0 20 20 30 20 20 30 20 20 30 20 20 30 20 20 30 20 20 30 20 20 30 20 20 30 20 20 30 20 20 30 20 20 30 20 20 30 20 20 30 20 20 30 20 20 30 20 20 30 20 20 30 20 20 30 20 20 30 20 20 30 20 20 30 20 20 30 20 20 30 20 20 30 20 20 30 20 20 30 20 20 30 20 20 30 20 20 30 20 20 30 20 20 30 20 20 30 20 20 30 20 20 30 20 20 30 20 20 30 20 20 30 20 20 30 20 20 30 20 20 30 20 20 30 20 20 30 20 20 30 20 20 30 20 20 30 20 20 30 20 20 30 20 20 30 20 20 30 20 20 30 20 20 30 20 20 30 20 20 30 20 20 30 20 20 30 20 20 30 20 20 30 20 20 30 20 20 30 20 20 30 20 20 30 20 20 30 20 20 30 20 20 30 20 20 30 20 20 30 20 20 30 20 20 30 20 20 30 20 20 30 20 20 30 20 20 30 20 20 30 20 20 30 20 20 30 20 20 30 20 20 30 20 20 30 20 20 30 20 20 30 20 20 30 20 20 30 20 20 30 20 20 30 20 20 30 20 20 30 20 20 30 20 20 30 20 20 30 20 20 30 20 20 30 20 20 30 20 20 30 20 20 30 20 20 30 20 20 30 20 20 30 20 20 30 20 20 30 20 20 30 20 20 30 20 20 30 20 20 30 20 20 30 20 20 30 20 20 30 20 20 30 20 20 30 20 20 30 20 20 30 20 20 30 20 20 30 20 20 30 20 20 30 20 20 30 20 20 30 20 20 30 20 20 30 20 20 30 20 20 30 20 20 30 20 20 30 20 20 30 20 20 30 20 20 30 20 20 30 20 20 30 20 20 30 20 20 30 20 20 30 20 20 30 20 20 30 20 20 30 20 20 30 20 20 30 20 20 30 20 20 30 20 20 30 20 20 30 20 20 30 20 20 30 20 20 30 20 20 30 20 20 30 20 20 30 20 20 30 20 20 30 20 20 30 20 20 30 20 20 30 20 20 30 20 20 30 20 20 30 20 20 30 20 20 30 20 20 30 20 20 30 20 20 30 20 20 30 20 20 30 20 20 30 20 20 30 20 20 30 20 20 30 20 20 30 20 20 30 20 20 30 20 20 30 20 20 30 20 20 30 20 20 30 20 20 30 20 20 30 20 20 30 20 20 30 20 20 30 20 20 30 20 20 30 20 20 30 20 20 30 20 20 30 20 20 30 20 20 30 20 20 30 20 20 30 20 20 30 20 20 30 20 20 30 20 20 30 20 20 30 20 20 30 20 20 30 20 20 30 20 20 30 20 20 30 20 20 30 20 20 30 20 20 30 20 20 30 20 20 30 20 20 30 20 20 30 20 20 30 20 20 30 20 20 30 20 20 30 20 20 30 20 20 30 20 20 30 20 20 30 20 20 30 20 20 30 20 20 30 20 20 30 20 20 30 20 20 30 20 20 30 20 20 30 20 20 30 20 20 30 20 20 30 20 20 30 20 20 30 20 20 30 20 20 30 20 20 30 20 20 30 20 20 30 20 20 30 20 20 30 20 20 30 20 20 30 20 20 30 20 20 30 20 20 30 20 20 30 255 0 0 20 20 30 20 20 30 20 20 30 20 20 30 20 20 30 20 20 30 20 20 30 20 20 30 20 20 30 
20 20 30 20 20 30 20 20 30 20 20 30 20 20 30 20 20 30 20 20 30 20 20 30 0 255 0 20 20 30 20 20 30 20 20 30 20 20 30 20 20 30 20 20 30 20 20 30 20 20 30 20 20 30 20 20 30 20 20 30 20 20 30 20 20 30 20 20 30 20 20 30 20 20 30 20 20 30 20 20 30 20 20 30 20 20 30 20 20 30 20 20 30 20 20 30 20 20 30 20 20 30 20 20 30 20 20 30 20 20 30 20 20 30 20 20 30 20 20 30 20 20 30 20 20 30 20 20 30 20 20 30 20 20 30 20 20 30 20 20 30 20 20 30 20 20 30 20 20 30 20 20 30 20 20 30 20 20 30 20 20 30 20 20 30 20 20 30 20 20 30 20 20 30 20 20 30 20 20 30 20 20 30 20 20 30 20 20 30 20 20 30 20 20 30 20 20 30 20 20 30 20 20 30 20 20 30 20 20 30 20 20 30 20 20 30 20 20 30 20 20 30 20 20 30 20 20 30 20 20 30 20 20 30 20 20 30 20 20 30 20 20 30 20 20 30 20 20 30 20 20 30 20 20 30 20 20 30 20 20 30 20 20 30 20 20 30 20 20 30 20 20 30 20 20 30 20 20 30 20 20 30 20 20 30 20 20 30 20 20 30 20 20 30 20 20 30 20 20 30 20 20 30 20 20 30 20 20 30 20 20 30 20 20 30 20 20 30 20 20 30 20 20 30 20 20 30 20 20 30 20 20 30 20 20 30 20 20 30 20 20 30 20 20 30 20 20 30 20 20 30 20 20 30 20 20 30 20 20 30 20 20 30 20 20 30 20 20 30 20 20 30 20 20 30 20 20 30 20 20 30 20 20 30 20 20 30 20 20 30 20 20 30 20 20 30 20 20 30 20 20 30 20 20 30 20 20 30 20 20 30 20 20 30 20 20 30 20 20 30 20 20 30 20 20 30 20 20 30 20 20 30 20 20 30 20 20 30 20 20 30 20 20 30 20 20 30 20 20 30 20 20 30 20 20 30 20 20 30 20 20 30 20 20 30 20 20 30 20 20 30 20 20 30 20 20 30 20 20 30 20 20 30 20 20 30 20 20 30 20 20 30 20 20 30 20 20 30 20 20 30 20 20 30 20 20 30 20 20 30 20 20 30 20 20 30 20 20 30 20 20 30 20 20 30 20 20 30 20 20 30 20 20 30 20 20 30 20 20 30 20 20 30 20 20 30 20 20 30 20 20 30 20 20 30 20 20 30 20 20 30 20 20 30 20 20 30 20 20 30 20 20 30 20 20 30 20 20 30 20 20 30 20 20 30 20 20 30 20 20 30 20 20 30 20 20 30 20 20 30 20 20 30 20 20 30 20 20 30 20 20 30 20 20 30 20 20 30 20 20 30 20 20 30 20 20 30 20 20 30 20 20 30 20 20 30 20 20 30 20 20 30 20 20 30 20 20 30 20 20 30 20 20 30 20 20 30 20 20 30 20 20 30 20 20 30 20 20 30 20 20 30 20 20 30 20 20 30 20 20 30 20 20 30 20 20 30 20 20 30 20 20 30 20 20 30 20 20 30 20 20 30 20 20 30 20 20 30 20 20 30 20 20 30 20 20 30 20 20 30 20 20 30 20 20 30 20 20 30 20 20 30 20 20 30 20 20 30 20 20 30 255 0 0 20 20 30 20 20 30 20 20 30 20 20 30 20 20 30 20 20 30 20 20 30 20 20 30 
20 20 30 20 20 30 20 20 30 20 20 30 20 20 30 20 20 30 20 20 30 0 255 0 20 20 30 20 20 30 20 20 30 20 20 30 20 20 30 20 20 30 20 20 30 20 20 30 20 20 30 20 20 30 20 20 30 20 20 30 20 20 30 20 20 30 20 20 30 20 20 30 20 20 30 20 20 30 20 20 30 20 20 30 20 20 30 20 20 30 20 20 30 20 20 30 20 20 30 20 20 30 20 20 30 20 20 30 20 20 30 20 20 30 20 20 30 20 20 30 20 20 30 20 20 30 20 20 30 20 20 30 20 20 30 20 20 30 20 20 30 20 20 30 20 20 30 20 20 30 20 20 30 20 20 30 20 20 30 20 20 30 20 20 30 20 20 30 20 20 30 20 20 30 20 20 30 20 20 30 20 20 30 20 20 30 20 20 30 20 20 30 20 20 30 20 20 30 20 20 30 20 20 30 20 20 30 20 20 30 20 20 30 20 20 30 20 20 30 20 20 30 20 20 30 20 20 30 20 20 30 20 20 30 20 20 30 20 20 30 20 20 30 20 20 30 20 20 30 20 20 30 20 20 30 20 20 30 20 20 30 20 20 30 20 20 30 20 20 30 20 20 30 20 20 30 20 20 30 20 20 30 20 20 30 20 20 30 20 20 30 20 20 30 20 20 30 20 20 30 20 20 30 20 20 30 20 20 30 20 20 30 20 20 30 20 20 30 20 20 30 20 20 30 20 20 30 20 20 30 20 20 30 20 20 30 20 20 30 20 20 30 20 20 30 20 20 30 20 20 30 20 20 30 20 20 30 20 20 30 20 20 30 20 20 30 20 20 30 20 20 30 20 20 30 20 20 30 20 20 30 20 20 30 20 20 30 20 20 30 20 20 30 20 20 30 20 20 30 20 20 30 20 20 30 20 20 30 20 20 30 20 20 30 20 20 30 20 20 30 20 20 30 20 20 30 20 20 30 20 20 30 20 20 30 20 20 30 20 20 30 20 20 30 20 20 30 20 20 30 20 20 30 20 20 30 20 20 30 20 20 30 20 20 30 20 20 30 20 20 30 20 20 30 20 20 30 20 20 30 20 20 30 20 20 30 20 20 30 20 20 30 20 20 30 20 20 30 20 20 30 20 20 30 20 20 30 20 20 30 20 20 30 20 20 30 20 20 30 20 20 30 20 20 30 20 20 30 20 20 30 20 20 30 20 20 30 20 20 30 20 20 30 20 20 30 20 20 30 20 20 30 20 20 30 20 20 30 20 20 30 20 20 30 20 20 30 20 20 30 20 20 30 20 20 30 20 20 30 20 20 30 20 20 30 20 20 30 20 20 30 20 20 30 20 20 30 20 20 30 20 20 30 20 20 30 20 20 30 20 20 30 20 20 30 20 20 30 20 20 30 20 20 30 20 20 30 20 20 30 20 20 30 20 20 30 20 20 30 20 20 30 20 20 30 20 20 30 20 20 30 20 20 30 20 20 30 20 20 30 20 20 30 20 20 30 20 20 30 20 20 30 20 20 30 20 20 30 20 20 30 20 20 30 20 20 30 20 20 30 20 20 30 20 20 30 20 20 30 20 20 30 20 20 30 20 20 30 20 20 30 20 20 30 20 20 30 20 20 30 20 20 30 20 20 30 20 20 30 20 20 30 20 20 30 20 20 30 20 20 30 20 20 30 255 0 0 20 20 30 20 20 30 20 20 30 20 20 30 20 20 30 20 20 30 20 20 30 
20 20 30 20 20 30 20 20 30 20 20 30 20 20 30 20 20 30 0 255 0 20 20 30 20 20 30 20 20 30 20 20 30 20 20 30 20 20 30 20 20 30 20 20 30 20 20 30 20 20 30 20 20 30 20 20 30 20 20 30 20 20 30 20 20 30 20 20 30 20 20 30 20 20 30 20 20 30 20 20 30 20 20 30 20 20 30 20 20 30 20 20 30 20 20 30 20 20 30 20 20 30 20 20 30 20 20 30 20 20 30 20 20 30 20 20 30 20 20 30 20 20 30 20 20 30 20 20 30 20 20 30 20 20 30 20 20 30 20 20 30 20 20 30 20 20 30 20 20 30 20 20 30 20 20 30 20 20 30 20 20 30 20 20 30 20 20 30 20 20 30 20 20 30 20 20 30 20 20 30 20 20 30 20 20 30 20 20 30 20 20 30 20 20 30 20 20 30 20 20 30 20 20 30 20 20 30 20 20 30 20 20 30 20 20 30 20 20 30 20 20 30 20 20 30 20 20 30 20 20 30 20 20 30 20 20 30 20 20 30 20 20 30 20 20 30 20 20 30 20 20 30 20 20 30 20 20 30 20 20 30 20 20 30 20 20 30 20 20 30 20 20 30 20 20 30 20 20 30 20 20 30 20 20 30 20 20 30 20 20 30 20 20 30 20 20 30 20 20 30 20 20 30 20 20 30 20 20 30 20 20 30 20 20 30 20 20 30 20 20 30 20 20 30 20 20 30 20 20 30 20 20 30 20 20 30 20 20 30 20 20 30 20 20 30 20 20 30 20 20 30 20 20 30 20 20 30 20 20 30 20 20 30 20 20 30 20 20 30 20 20 30 20 20 30 20 20 30 20 20 30 20 20 30 20 20 30 20 20 30 20 20 30 20 20 30 20 20 30 20 20 30 20 20 30 20 20 30 20 20 30 20 20 30 20 20 30 20 20 30 20 20 30 20 20 30 20 20 30 20 20 30 20 20 30 20 20 30 20 20 30 20 20 30 20 20 30 20 20 30 20 20 30 20 20 30 20 20 30 20 20 30 20 20 30 20 20 30 20 20 30 20 20 30 20 20 30 20 20 30 20 20 30 20 20 30 20 20 30 20 20 30 20 20 30 20 20 30 20 20 30 20 20 30 20 20 30 20 20 30 20 20 30 20 20 30 20 20 30 20 20 30 20 20 30 20 20 30 20 20 30 20 20 30 20 20 30 20 20 30 20 20 30 20 20 30 20 20 30 20 20 30 20 20 30 20 20 30 20 20 30 20 20 30 20 20 30 20 20 30 20 20 30 20 20 30 20 20 30 20 20 30 20 20 30 20 20 30 20 20 30 20 20 30 20 20 30 20 20 30 20 20 30 20 20 30 20 20 30 20 20 30 20 20 30 20 20 30 20 20 30 20 20 30 20 20 30 20 20 30 20 20 30 20 20 30 20 20 30 20 20 30 20 20 30 20 20 30 20 20 30 20 20 30 20 20 30 20 20 30 20 20 30 20 20 30 20 20 30 20 20 30 20 20 30 20 20 30 20 20 30 20 20 30 20 20 30 20 20 30 20 20 30 20 20 30 20 20 30 20 20 30 20 20 30 20 20 30 20 20 30 20 20 30 20 20 30 20 20 30 20 20 30 20 20 30 20 20 30 20 20 30 20 20 30 20 20 30 20 20 30 20 20 30 20 20 30 255 0 0 20 20 30 20 20 30 20 20 30 20 20 30 20 20 30 20 20 30 
20 20 30 20 20 30 20 20 30 20 20 30 20 20 30 0 255 0 20 20 30 20 20 30 20 20 30 20 20 30 20 20 30 20 20 30 20 20 30 20 20 30 20 20 30 20 20 30 20 20 30 20 20 30 20 20 30 20 20 30 20 20 30 20 20 30 20 20 30 20 20 30 20 20 30 20 20 30 20 20 30 20 20 30 20 20 30 20 20 30 20 20 30 20 20 30 20 20 30 20 20 30 20 20 30 20 20 30 20 20 30 20 20 30 20 20 30 20 20 30 20 20 30 20 20 30 20 20 30 20 20 30 20 20 30 20 20 30 20 20 30 20 20 30 20 20 30 20 20 30 20 20 30 20 20 30 20 20 30 20 20 30 20 20 30 20 20 30 20 20 30 20 20 30 20 20 30 20 20 30 20 20 30 20 20 30 20 20 30 20 20 30 20 20 30 20 20 30 20 20 30 20 20 30 20 20 30 20 20 30 20 20 30 20 20 30 20 20 30 20 20 30 20 20 30 20 20 30 20 20 30 20 20 30 20 20 30 20 20 30 20 20 30 20 20 30 20 20 30 20 20 30 20 20 30 20 20 30 20 20 30 20 20 30 20 20 30 20 20 30 20 20 30 20 20 30 20 20 30 20 20 30 20 20 30 20 20 30 20 20 30 20 20 30 20 20 30 20 20 30 20 20 30 20 20 30 20 20 30 20 20 30 20 20 30 20 20 30 20 20 30 20 20 30 20 20 30 20 20 30 20 20 30 20 20 30 20 20 30 20 20 30 20 20 30 20 20 30 20 20 30 20 20 30 20 20 30 20 20 30 20 20 30 20 20 30 20 20 30 20 20 30 20 20 30 20 20 30 20 20 30 20 20 30 20 20 30 20 20 30 20 20 30 20 20 30 20 20 30 20 20 30 20 20 30 20 20 30 20 20 30 20 20 30 20 20 30 20 20 30 20 20 30 20 20 30 20 20 30 20 20 30 20 20 30 20 20 30 20 20 30 20 20 30 20 20 30 20 20 30 20 20 30 20 20 30 20 20 30 20 20 30 20 20 30 20 20 30 20 20 30 20 20 30 20 20 30 20 20 30 20 20 30 20 20 30 20 20 30 20 20 30 20 20 30 20 20 30 20 20 30 20 20 30 20 20 30 20 20 30 20 20 30 20 20 30 20 20 30 20 20 30 20 20 30 20 20 30 20 20 30 20 20 30 20 20 30 20 20 30 20 20 30 20 20 30 20 20 30 20 20 30 20 20 30 20 20 30 20 20 30 20 20 30 20 20 30 20 20 30 20 20 30 20 20 30 20 20 30 20 20 30 20 20 30 20 20 30 20 20 30 20 20 30 20 20 30 20 20 30 20 20 30 20 20 30 20 20 30 20 20 30 20 20 30 20 20 30 20 20 30 20 20 30 20 20 30 20 20 30 20 20 30 20 20 30 20 20 30 20 20 30 20 20 30 20 20 30 20 20 30 20 20 30 20 20 30 20 20 30 20 20 30 20 20 30 20 20 30 20 20 30 20 20 30 20 20 30 20 20 30 20 20 30 20 20 30 20 20 30 20 20 30 20 20 30 20 20 30 20 20 30 20 20 30 20 20 30 20 20 30 20 20 30 20 20 30 20 20 30 20 20 30 20 20 30 20 20 30 20 20 30 20 20 30 20 20 30 20 20 30 20 20 30 20 20 30 20 20 30 255 0 0 20 20 30 20 20 30 20 20 30 20 20 30 20 20 30 
20 20 30 20 20 30 20 20 30 20 20 30 0 255 0 20 20 30 20 20 30 20 20 30 20 20 30 20 20 30 20 20 30 20 20 30 20 20 30 20 20 30 20 20 30 20 20 30 20 20 30 20 20 30 20 20 30 20 20 30 20 20 30 20 20 30 20 20 30 20 20 30 20 20 30 20 20 30 20 20 30 20 20 30 20 20 30 20 20 30 20 20 30 20 20 30 20 20 30 20 20 30 20 20 30 20 20 30 20 20 30 20 20 30 20 20 30 20 20 30 20 20 30 20 20 30 20 20 30 20 20 30 20 20 30 20 20 30 20 20 30 20 20 30 20 20 30 20 20 30 20 20 30 20 20 30 20 20 30 20 20 30 20 20 30 20 20 30 20 20 30 20 20 30 20 20 30 20 20 30 20 20 30 20 20 30 20 20 30 20 20 30 20 20 30 20 20 30 20 20 30 20 20 30 20 20 30 20 20 30 20 20 30 20 20 30 20 20 30 20 20 30 20 20 30 20 20 30 20 20 30 20 20 30 20 20 30 20 20 30 20 20 30 20 20 30 20 20 30 20 20 30 20 20 30 20 20 30 20 20 30 20 20 30 20 20 30 20 20 30 20 20 30 20 20 30 20 20 30 20 20 30 20 20 30 20 20 30 20 20 30 20 20 30 20 20 30 20 20 30 20 20 30 20 20 30 20 20 30 20 20 30 20 20 30 20 20 30 20 20 30 20 20 30 20 20 30 20 20 30 20 20 30 20 20 30 20 20 30 20 20 30 20 20 30 20 20 30 20 20 30 20 20 30 20 20 30 20 20 30 20 20 30 20 20 30 20 20 30 20 20 30 20 20 30 20 20 30 20 20 30 20 20 30 20 20 30 20 20 30 20 20 30 20 20 30 20 20 30 20 20 30 20 20 30 20 20 30 20 20 30 20 20 30 20 20 30 20 20 30 20 20 30 20 20 30 20 20 30 20 20 30 20 20 30 20 20 30 20 20 30 20 20 30 20 20 30 20 20 30 20 20 30 20 20 30 20 20 30 20 20 30 20 20 30 20 20 30 20 20 30 20 20 30 20 20 30 20 20 30 20 20 30 20 20 30 20 20 30 20 20 30 20 20 30 20 20 30 20 20 30 20 20 30 20 20 30 20 20 30 20 20 30 20 20 30 20 20 30 20 20 30 20 20 30 20 20 30 20 20 30 20 20 30 20 20 30 20 20 30 20 20 30 20 20 30 20 20 30 20 20 30 20 20 30 20 20 30 20 20 30 20 20 30 20 20 30 20 20 30 20 20 30 20 20 30 20 20 30 20 20 30 20 20 30 20 20 30 20 20 30 20 20 30 20 20 30 20 20 30 20 20 30 20 20 30 20 20 30 20 20 30 20 20 30 20 20 30 20 20 30 20 20 30 20 20 30 20 20 30 20 20 30 20 20 30 20 20 30 20 20 30 20 20 30 20 20 30 20 20 30 20 20 30 20 20 30 20 20 30 20 20 30 20 20 30 20 20 30 20 20 30 20 20 30 20 20 30 20 20 30 20 20 30 20 20 30 20 20 30 20 20 30 20 20 30 20 20 30 20 20 30 20 20 30 20 20 30 20 20 30 20 20 30 20 20 30 20 20 30 20 20 30 20 20 30 20 20 30 20 20 30 20 20 30 20 20 30 20 20 30 20 20 30 20 20 30 20 20 30 20 20 30 255 0 0 20 20 30 20 20 30 20 20 30 20 20 30 
20 20 30 20 20 30 20 20 30 0 255 0 20 20 30 20 20 30 20 20 30 20 20 30 20 20 30 20 20 30 20 20 30 20 20 30 20 20 30 20 20 30 20 20 30 20 20 30 20 20 30 20 20 30 20 20 30 20 20 30 20 20 30 20 20 30 20 20 30 20 20 30 20 20 30 20 20 30 20 20 30 20 20 30 20 20 30 20 20 30 20 20 30 20 20 30 20 20 30 20 20 30 20 20 30 20 20 30 20 20 30 20 20 30 20 20 30 20 20 30 20 20 30 20 20 30 20 20 30 20 20 30 20 20 30 20 20 30 20 20 30 20 20 30 20 20 30 20 20 30 20 20 30 20 20 30 20 20 30 20 20 30 20 20 30 20 20 30 20 20 30 20 20 30 20 20 30 20 20 30 20 20 30 20 20 30 20 20 30 20 20 30 20 20 30 20 20 30 20 20 30 20 20 30 20 20 30 20 20 30 20 20 30 20 20 30 20 20 30 20 20 30 20 20 30 20 20 30 20 20 30 20 20 30 20 20 30 20 20 30 20 20 30 20 20 30 20 20 30 20 20 30 20 20 30 20 20 30 20 20 30 20 20 30 20 20 30 20 20 30 20 20 30 20 20 30 20 20 30 20 20 30 20 20 30 20 20 30 20 20 30 20 20 30 20 20 30 20 20 30 20 20 30 20 20 30 20 20 30 20 20 30 20 20 30 20 20 30 20 20 30 20 20 30 20 20 30 20 20 30 20 20 30 20 20 30 20 20 30 20 20 30 20 20 30 20 20 30 20 20 30 20 20 30 20 20 30 20 20 30 20 20 30 20 20 30 20 20 30 20 20 30 20 20 30 20 20 30 20 20 30 20 20 30 20 20 30 20 20 30 20 20 30 20 20 30 20 20 30 20 20 30 20 20 30 20 20 30 20 20 30 20 20 30 20 20 30 20 20 30 20 20 30 20 20 30 20 20 30 20 20 30 20 20 30 20 20 30 20 20 30 20 20 30 20 20 30 20 20 30 20 20 30 20 20 30 20 20 30 20 20 30 20 20 30 20 20 30 20 20 30 20 20 30 20 20 30 20 20 30 20 20 30 20 20 30 20 20 30 20 20 30 20 20 30 20 20 30 20 20 30 20 20 30 20 20 30 20 20 30 20 20 30 20 20 30 20 20 30 20 20 30 20 20 30 20 20 30 20 20 30 20 20 30 20 20 30 20 20 30 20 20 30 20 20 30 20 20 30 20 20 30 20 20 30 20 20 30 20 20 30 20 20 30 20 20 30 20 20 30 20 20 30 20 20 30 20 20 30 20 20 30 20 20 30 20 20 30 20 20 30 20 20 30 20 20 30 20 20 30 20 20 30 20 20 30 20 20 30 20 20 30 20 20 30 20 20 30 20 20 30 20 20 30 20 20 30 20 20 30 20 20 30 20 20 30 20 20 30 20 20 30 20 20 30 20 20 30 20 20 30 20 20 30 20 20 30 20 20 30 20 20 30 20 20 30 20 20 30 20 20 30 20 20 30 20 20 30 20 20 30 20 20 30 20 20 30 20 20 30 20 20 30 20 20 30 20 20 30 20 20 30 20 20 30 20 20 30 20 20 30 20 20 30 20 20 30 20 20 30 20 20 30 20 20 30 20 20 30 20 20 30 20 20 30 20 20 30 20 20 30 20 20 30 20 20 30 20 20 30 20 20 30 20 20 30 255 0 0 20 20 30 20 20 30 20 20 30 
20 20 30 20 20 30 0 255 0 20 20 30 20 20 30 20 20 30 20 20 30 20 20 30 20 20 30 20 20 30 20 20 30 20 20 30 20 20 30 20 20 30 20 20 30 20 20 30 20 20 30 20 20 30 20 20 30 20 20 30 20 20 30 20 20 30 20 20 30 20 20 30 20 20 30 20 20 30 20 20 30 20 20 30 20 20 30 20 20 30 20 20 30 20 20 30 20 20 30 20 20 30 20 20 30 20 20 30 20 20 30 20 20 30 20 20 30 20 20 30 20 20 30 20 20 30 20 20 30 20 20 30 20 20 30 20 20 30 20 20 30 20 20 30 20 20 30 20 20 30 20 20 30 20 20 30 20 20 30 20 20 30 20 20 30 20 20 30 20 20 30 20 20 30 20 20 30 20 20 30 20 20 30 20 20 30 20 20 30 20 20 30 20 20 30 20 20 30 20 20 30 20 20 30 20 20 30 20 20 30 20 20 30 20 20 30 20 20 30 20 20 30 20 20 30 20 20 30 20 20 30 20 20 30 20 20 30 20 20 30 20 20 30 20 20 30 20 20 30 20 20 30 20 20 30 20 20 30 20 20 30 20 20 30 20 20 30 20 20 30 20 20 30 20 20 30 20 20 30 20 20 30 20 20 30 20 20 30 20 20 30 20 20 30 20 20 30 20 20 30 20 20 30 20 20 30 20 20 30 20 20 30 20 20 30 20 20 30 20 20 30 20 20 30 20 20 30 20 20 30 20 20 30 20 20 30 20 20 30 20 20 30 20 20 30 20 20 30 20 20 30 20 20 30 20 20 30 20 20 30 20 20 30 20 20 30 20 20 30 20 20 30 20 20 30 20 20 30 20 20 30 20 20 30 20 20 30 20 20 30 20 20 30 20 20 30 20 20 30 20 20 30 20 20 30 20 20 30 20 20 30 20 20 30 20 20 30 20 20 30 20 20 30 20 20 30 20 20 30 20 20 30 20 20 30 20 20 30 20 20 30 20 20 30 20 20 30 20 20 30 20 20 30 20 20 30 20 20 30 20 20 30 20 20 30 20 20 30 20 20 30 20 20 30 20 20 30 20 20 30 20 20 30 20 20 30 20 20 30 20 20 30 20 20 30 20 20 30 20 20 30 20 20 30 20 20 30 20 20 30 20 20 30 20 20 30 20 20 30 20 20 30 20 20 30 20 20 30 20 20 30 20 20 30 20 20 30 20 20 30 20 20 30 20 20 30 20 20 30 20 20 30 20 20 30 20 20 30 20 20 30 20 20 30 20 20 30 20 20 30 20 20 30 20 20 30 20 20 30 20 20 30 20 20 30 20 20 30 20 20 30 20 20 30 20 20 30 20 20 30 20 20 30 20 20 30 20 20 30 20 20 30 20 20 30 20 20 30 20 20 30 20 20 30 20 20 30 20 20 30 20 20 30 20 20 30 20 20 30 20 20 30 20 20 30 20 20 30 20 20 30 20 20 30 20 20 30 20 20 30 20 20 30 20 20 30 20 20 30 20 20 30 20 20 30 20 20 30 20 20 30 20 20 30 20 20 30 20 20 30 20 20 30 20 20 30 20 20 30 20 20 30 20 20 30 20 20 30 20 20 30 20 20 30 20 20 30 20 20 30 20 20 30 20 20 30 20 20 30 20 20 30 20 20 30 20 20 30 20 20 30 20 20 30 20 20 30 20 20 30 20 20 30 20 20 30 20 20 30 255 0 0 20 20 30 20 20 30 
20 20 30 0 255 0 20 20 30 20 20 30 20 20 30 20 20 30 20 20 30 20 20 30 20 20 30 20 20 30 20 20 30 20 20 30 20 20 30 20 20 30 20 20 30 20 20 30 20 20 30 20 20 30 20 20 30 20 20 30 20 20 30 20 20 30 20 20 30 20 20 30 20 20 30 20 20 30 20 20 30 20 20 30 20 20 30 20 20 30 20 20 30 20 20 30 20 20 30 20 20 30 20 20 30 20 20 30 20 20 30 20 20 30 20 20 30 20 20 30 20 20 30 20 20 30 20 20 30 20 20 30 20 20 30 20 20 30 20 20 30 20 20 30 20 20 30 20 20 30 20 20 30 20 20 30 20 20 30 20 20 30 20 20 30 20 20 30 20 20 30 20 20 30 20 20 30 20 20 30 20 20 30 20 20 30 20 20 30 20 20 30 20 20 30 20 20 30 20 20 30 20 20 30 20 20 30 20 20 30 20 20 30 20 20 30 20 20 30 20 20 30 20 20 30 20 20 30 20 20 30 20 20 30 20 20 30 20 20 30 20 20 30 20 20 30 20 20 30 20 20 30 20 20 30 20 20 30 20 20 30 20 20 30 20 20 30 20 20 30 20 20 30 20 20 30 20 20 30 20 20 30 20 20 30 20 20 30 20 20 30 20 20 30 20 20 30 20 20 30 20 20 30 20 20 30 20 20 30 20 20 30 20 20 30 20 20 30 20 20 30 20 20 30 20 20 30 20 20 30 20 20 30 20 20 30 20 20 30 20 20 30 20 20 30 20 20 30 20 20 30 20 20 30 20 20 30 20 20 30 20 20 30 20 20 30 20 20 30 20 20 30 20 20 30 20 20 30 20 20 30 20 20 30 20 20 30 20 20 30 20 20 30 20 20 30 20 20 30 20 20 30 20 20 30 20 20 30 20 20 30 20 20 30 20 20 30 20 20 30 20 20 30 20 20 30 20 20 30 20 20 30 20 20 30 20 20 30 20 20 30 20 20 30 20 20 30 20 20 30 20 20 30 20 20 30 20 20 30 20 20 30 20 20 30 20 20 30 20 20 30 20 20 30 20 20 30 20 20 30 20 20 30 20 20 30 20 20 30 20 20 30 20 20 30 20 20 30 20 20 30 20 20 30 20 20 30 20 20 30 20 20 30 20 20 30 20 20 30 20 20 30 20 20 30 20 20 30 20 20 30 20 20 30 20 20 30 20 20 30 20 20 30 20 20 30 20 20 30 20 20 30 20 20 30 20 20 30 20 20 30 20 20 30 20 20 30 20 20 30 20 20 30 20 20 30 20 20 30 20 20 30 20 20 30 20 20 30 20 20 30 20 20 30 20 20 30 20 20 30 20 20 30 20 20 30 20 20 30 20 20 30 20 20 30 20 20 30 20 20 30 20 20 30 20 20 30 20 20 30 20 20 30 20 20 30 20 20 30 20 20 30 20 20 30 20 20 30 20 20 30 20 20 30 20 20 30 20 20 30 20 20 30 20 20 30 20 20 30 20 20 30 20 20 30 20 20 30 20 20 30 20 20 30 20 20 30 20 20 30 20 20 30 20 20 30 20 20 30 20 20 30 20 20 30 20 20 30 20 20 30 20 20 30 20 20 30 20 20 30 20 20 30 20 20 30 20 20 30 20 20 30 20 20 30 20 20 30 20 20 30 20 20 30 20 20 30 20 20 30 20 20 30 20 20 30 20 20 30 20 20 30 255 0 0 20 20 30 
0 255 0 20 20 30 20 20 30 20 20 30 20 20 30 20 20 30 20 20 30 20 20 30 20 20 30 20 20 30 20 20 30 20 20 30 20 20 30 20 20 30 20 20 30 20 20 30 20 20 30 20 20 30 20 20 30 20 20 30 20 20 30 20 20 30 20 20 30 20 20 30 20 20 30 20 20 30 20 20 30 20 20 30 20 20 30 20 20 30 20 20 30 20 20 30 20 20 30 20 20 30 20 20 30 20 20 30 20 20 30 20 20 30 20 20 30 20 20 30 20 20 30 20 20 30 20 20 30 20 20 30 20 20 30 20 20 30 20 20 30 20 20 30 20 20 30 20 20 30 20 20 30 20 20 30 20 20 30 20 20 30 20 20 30 20 20 30 20 20 30 20 20 30 20 20 30 20 20 30 20 20 30 20 20 30 20 20 30 20 20 30 20 20 30 20 20 30 20 20 30 20 20 30 20 20 30 20 20 30 20 20 30 20 20 30 20 20 30 20 20 30 20 20 30 20 20 30 20 20 30 20 20 30 20 20 30 20 20 30 20 20 30 20 20 30 20 20 30 20 20 30 20 20 30 20 20 30 20 20 30 20 20 30 20 20 30 20 20 30 20 20 30 20 20 30 20 20 30 20 20 30 20 20 30 20 20 30 20 20 30 20 20 30 20 20 30 20 20 30 20 20 30 20 20 30 20 20 30 20 20 30 20 20 30 20 20 30 20 20 30 20 20 30 20 20 30 20 20 30 20 20 30 20 20 30 20 20 30 20 20 30 20 20 30 20 20 30 20 20 30 20 20 30 20 20 30 20 20 30 20 20 30 20 20 30 20 20 30 20 20 30 20 20 30 20 20 30 20 20 30 20 20 30 20 20 30 20 20 30 20 20 30 20 20 30 20 20 30 20 20 30 20 20 30 20 20 30 20 20 30 20 20 30 20 20 30 20 20 30 20 20 30 20 20 30 20 20 30 20 20 30 20 20 30 20 20 30 20 20 30 20 20 30 20 20 30 20 20 30 20 20 30 20 20 30 20 20 30 20 20 30 20 20 30 20 20 30 20 20 30 20 20 30 20 20 30 20 20 30 20 20 30 20 20 30 20 20 30 20 20 30 20 20 30 20 20 30 20 20 30 20 20 30 20 20 30 20 20 30 20 20 30 20 20 30 20 20 30 20 20 30 20 20 30 20 20 30 20 20 30 20 20 30 20 20 30 20 20 30 20 20 30 20 20 30 20 20 30 20 20 30 20 20 30 20 20 30 20 20 30 20 20 30 20 20 30 20 20 30 20 20 30 20 20 30 20 20 30 20 20 30 20 20 30 20 20 30 20 20 30 20 20 30 20 20 30 20 20 30 20 20 30 20 20 30 20 20 30 20 20 30 20 20 30 20 20 30 20 20 30 20 20 30 20 20 30 20 20 30 20 20 30 20 20 30 20 20 30 20 20 30 20 20 30 20 20 30 20 20 30 20 20 30 20 20 30 20 20 30 20 20 30 20 20 30 20 20 30 20 20 30 20 20 30 20 20 30 20 20 30 20 20 30 20 20 30 20 20 30 20 20 30 20 20 30 20 20 30 20 20 30 20 20 30 20 20 30 20 20 30 20 20 30 20 20 30 20 20 30 20 20 30 20 20 30 20 20 30 20 20 30 20 20 30 20 20 30 20 20 30 20 20 30 20 20 30 20 20 30 20 20 30 20 20 30 20 20 30 20 20 30 20 20 30 255 0 0 
