P3
256 256
255
255 0 0 15 15 25 15 15 25 15 15 25 15 15 25 15 15 25 15 15 25 15 15 25 15 15 25 15 15 25 15 15 25 15 15 25 15 15 25 15 15 25 15 15 25 15 15 25 15 15 25 15 15 25 15 15 25 15 15 25 15 15 25 15 15 25 15 15 25 15 15 25 15 15 25 15 15 25 15 15 25 15 15 25 15 15 25 15 15 25 15 15 25 15 15 25 15 15 25 15 15 25 15 15 25 15 15 25 15 15 25 15 15 25 15 15 25 15 15 25 15 15 25 15 15 25 15 15 25 15 15 25 15 15 25 15 15 25 15 15 25 15 15 25 15 15 25 15 15 25 15 15 25 15 15 25 15 15 25 15 15 25 15 15 25 15 15 25 15 15 25 15 15 25 15 15 25 15 15 25 15 15 25 15 15 25 15 15 25 15 15 25 15 15 25 15 15 25 15 15 25 15 15 25 15 15 25 15 15 25 15 15 25 15 15 25 15 15 25 15 15 25 15 15 25 15 15 25 15 15 25 15 15 25 15 15 25 15 15 25 15 15 25 15 15 25 15 15 25 15 15 25 15 15 25 15 15 25 15 15 25 15 15 25 15 15 25 15 15 25 15 15 25 15 15 25 15 15 25 15 15 25 15 15 25 15 15 25 15 15 25 15 15 25 15 15 25 15 15 25 15 15 25 15 15 25 15 15 25 15 15 25 15 15 25 15 15 25 15 15 25 15 15 25 15 15 25 15 15 25 15 15 25 15 15 25 15 15 25 15 15 25 15 15 25 15 15 25 15 15 25 15 15 25 15 15 25 15 15 25 15 15 25 15 15 25 15 15 25 15 15 25 15 15 25 15 15 25 15 15 25 15 15 25 15 15 25 15 15 25 15 15 25 15 15 25 15 15 25 15 15 25 15 15 25 15 15 25 15 15 25 15 15 25 15 15 25 15 15 25 15 15 25 15 15 25 15 15 25 15 15 25 15 15 25 15 15 25 15 15 25 15 15 25 15 15 25 15 15 25 15 15 25 15 15 25 15 15 25 15 15 25 15 15 25 15 15 25 15 15 25 15 15 25 15 15 25 15 15 25 15 15 25 15 15 25 15 15 25 15 15 25 15 15 25 15 15 25 15 15 25 15 15 25 15 15 25 15 15 25 15 15 25 15 15 25 15 15 25 15 15 25 15 15 25 15 15 25 15 15 25 15 15 25 15 15 25 15 15 25 15 15 25 15 15 25 15 15 25 15 15 25 15 15 25 15 15 25 15 15 25 15 15 25 15 15 25 15 15 25 15 15 25 15 15 25 15 15 25 15 15 25 15 15 25 15 15 25 15 15 25 15 15 25 15 15 25 15 15 25 15 15 25 15 15 25 15 15 25 15 15 25 15 15 25 15 15 25 15 15 25 15 15 25 15 15 25 15 15 25 15 15 25 15 15 25 15 15 25 15 15 25 15 15 25 15 15 25 15 15 25 15 15 25 15 15 25 15 15 25 15 15 25 15 15 25 15 15 25 15 15 25 15 15 25 15 15 25 15 15 25 15 15 25 15 15 25 15 15 25 15 15 25 15 15 25 15 15 25 15 15 25 15 15 25 15 15 25 15 15 25 15 15 25 15 15 25 15 15 25 15 15 25 15 15 25 15 15 25 15 15 25 15 15 25 15 15 25 15 15 25 15 15 25 15 15 25 15 15 25 15 15 25 15 15 25 15 15 25 15 15 25 15 15 25 0 255 0 
15 15 25 255 0 0 15 15 25 15 15 25 15 15 25 15 15 25 15 15 25 15 15 25 15 15 25 15 15 25 15 15 25 15 15 25 15 15 25 15 15 25 15 15 25 15 15 25 15 15 25 15 15 25 15 15 25 15 15 25 15 15 25 15 15 25 15 15 25 15 15 25 15 15 25 15 15 25 15 15 25 15 15 25 15 15 25 15 15 25 15 15 25 15 15 25 15 15 25 15 15 25 15 15 25 15 15 25 15 15 25 15 15 25 15 15 25 15 15 25 15 15 25 15 15 25 15 15 25 15 15 25 15 15 25 15 15 25 15 15 25 15 15 25 15 15 25 15 15 25 15 15 25 15 15 25 15 15 25 15 15 25 15 15 25 15 15 25 15 15 25 15 15 25 15 15 25 15 15 25 15 15 25 15 15 25 15 15 25 15 15 25 15 15 25 15 15 25 15 15 25 15 15 25 15 15 25 15 15 25 15 15 25 15 15 25 15 15 25 15 15 25 15 15 25 15 15 25 15 15 25 15 15 25 15 15 25 15 15 25 15 15 25 15 15 25 15 15 25 15 15 25 15 15 25 15 15 25 15 15 25 15 15 25 15 15 25 15 15 25 15 15 25 15 15 25 15 15 25 15 15 25 15 15 25 15 15 25 15 15 25 15 15 25 15 15 25 15 15 25 15 15 25 15 15 25 15 15 25 15 15 25 15 15 25 15 15 25 15 15 25 15 15 25 15 15 25 15 15 25 15 15 25 15 15 25 15 15 25 15 15 25 15 15 25 15 15 25 15 15 25 15 15 25 15 15 25 15 15 25 15 15 25 15 15 25 15 15 25 15 15 25 15 15 25 15 15 25 15 15 25 15 15 25 15 15 25 15 15 25 15 15 25 15 15 25 15 15 25 15 15 25 15 15 25 15 15 25 15 15 25 15 15 25 15 15 25 15 15 25 15 15 25 15 15 25 15 15 25 15 15 25 15 15 25 15 15 25 15 15 25 15 15 25 15 15 25 15 15 25 15 15 25 15 15 25 15 15 25 15 15 25 15 15 25 15 15 25 15 15 25 15 15 25 15 15 25 15 15 25 15 15 25 15 15 25 15 15 25 15 15 25 15 15 25 15 15 25 15 15 25 15 15 25 15 15 25 15 15 25 15 15 25 15 15 25 15 15 25 15 15 25 15 15 25 15 15 25 15 15 25 15 15 25 15 15 25 15 15 25 15 15 25 15 15 25 15 15 25 15 15 25 15 15 25 15 15 25 15 15 25 15 15 25 15 15 25 15 15 25 15 15 25 15 15 25 15 15 25 15 15 25 15 15 25 15 15 25 15 15 25 15 15 25 15 15 25 15 15 25 15 15 25 15 15 25 15 15 25 15 15 25 15 15 25 15 15 25 15 15 25 15 15 25 15 15 25 15 15 25 15 15 25 15 15 25 15 15 25 15 15 25 15 15 25 15 15 25 15 15 25 15 15 25 15 15 25 15 15 25 15 15 25 15 15 25 15 15 25 15 15 25 15 15 25 15 15 25 15 15 25 15 15 25 15 15 25 15 15 25 15 15 25 15 15 25 15 15 25 15 15 25 15 15 25 15 15 25 15 15 25 15 15 25 15 15 25 15 15 25 15 15 25 15 15 25 15 15 25 15 15 25 15 15 25 15 15 25 15 15 25 15 15 25 15 15 25 15 15 25 15 15 25 15 15 25 15 15 25 15 15 25 0 255 0 15 15 25 
15 15 25 15 15 25 255 0 0 15 15 25 15 15 25 15 15 25 15 15 25 15 15 25 15 15 25 15 15 25 15 15 25 15 15 25 15 15 25 15 15 25 15 15 25 15 15 25 15 15 25 15 15 25 15 15 25 15 15 25 15 15 25 15 15 25 15 15 25 15 15 25 15 15 25 15 15 25 15 15 25 15 15 25 15 15 25 15 15 25 15 15 25 15 15 25 15 15 25 15 15 25 15 15 25 15 15 25 15 15 25 15 15 25 15 15 25 15 15 25 15 15 25 15 15 25 15 15 25 15 15 25 15 15 25 15 15 25 15 15 25 15 15 25 15 15 25 15 15 25 15 15 25 15 15 25 15 15 25 15 15 25 15 15 25 15 15 25 15 15 25 15 15 25 15 15 25 15 15 25 15 15 25 15 15 25 15 15 25 15 15 25 15 15 25 15 15 25 15 15 25 15 15 25 15 15 25 15 15 25 15 15 25 15 15 25 15 15 25 15 15 25 15 15 25 15 15 25 15 15 25 15 15 25 15 15 25 15 15 25 15 15 25 15 15 25 15 15 25 15 15 25 15 15 25 15 15 25 15 15 25 15 15 25 15 15 25 15 15 25 15 15 25 15 15 25 15 15 25 15 15 25 15 15 25 15 15 25 15 15 25 15 15 25 15 15 25 15 15 25 15 15 25 15 15 25 15 15 25 15 15 25 15 15 25 15 15 25 15 15 25 15 15 25 15 15 25 15 15 25 15 15 25 15 15 25 15 15 25 15 15 25 15 15 25 15 15 25 15 15 25 15 15 25 15 15 25 15 15 25 15 15 25 15 15 25 15 15 25 15 15 25 15 15 25 15 15 25 15 15 25 15 15 25 15 15 25 15 15 25 15 15 25 15 15 25 15 15 25 15 15 25 15 15 25 15 15 25 15 15 25 15 15 25 15 15 25 15 15 25 15 15 25 15 15 25 15 15 25 15 15 25 15 15 25 15 15 25 15 15 25 15 15 25 15 15 25 15 15 25 15 15 25 15 15 25 15 15 25 15 15 25 15 15 25 15 15 25 15 15 25 15 15 25 15 15 25 15 15 25 15 15 25 15 15 25 15 15 25 15 15 25 15 15 25 15 15 25 15 15 25 15 15 25 15 15 25 15 15 25 15 15 25 15 15 25 15 15 25 15 15 25 15 15 25 15 15 25 15 15 25 15 15 25 15 15 25 15 15 25 15 15 25 15 15 25 15 15 25 15 15 25 15 15 25 15 15 25 15 15 25 15 15 25 15 15 25 15 15 25 15 15 25 15 15 25 15 15 25 15 15 25 15 15 25 15 15 25 15 15 25 15 15 25 15 15 25 15 15 25 15 15 25 15 15 25 15 15 25 15 15 25 15 15 25 15 15 25 15 15 25 15 15 25 15 15 25 15 15 25 15 15 25 15 15 25 15 15 25 15 15 25 15 15 25 15 15 25 15 15 25 15 15 25 15 15 25 15 15 25 15 15 25 15 15 25 15 15 25 15 15 25 15 15 25 15 15 25 15 15 25 15 15 25 15 15 25 15 15 25 15 15 25 15 15 25 15 15 25 15 15 25 15 15 25 15 15 25 15 15 25 15 15 25 15 15 25 15 15 25 15 15 25 15 15 25 15 15 25 15 15 25 15 15 25 15 15 25 15 15 25 15 15 25 15 15 25 15 15 25 15 15 25 15 15 25 15 15 25 0 255 0 15 15 25 15 15 25 
15 15 25 15 15 25 15 15 25 255 0 0 15 15 25 15 15 25 15 15 25 15 15 25 15 15 25 15 15 25 15 15 25 15 15 25 15 15 25 15 15 25 15 15 25 15 15 25 15 15 25 15 15 25 15 15 25 15 15 25 15 15 25 15 15 25 15 15 25 15 15 25 15 15 25 15 15 25 15 15 25 15 15 25 15 15 25 15 15 25 15 15 25 15 15 25 15 15 25 15 15 25 15 15 25 15 15 25 15 15 25 15 15 25 15 15 25 15 15 25 15 15 25 15 15 25 15 15 25 15 15 25 15 15 25 15 15 25 15 15 25 15 15 25 15 15 25 15 15 25 15 15 25 15 15 25 15 15 25 15 15 25 15 15 25 15 15 25 15 15 25 15 15 25 15 15 25 15 15 25 15 15 25 15 15 25 15 15 25 15 15 25 15 15 25 15 15 25 15 15 25 15 15 25 15 15 25 15 15 25 15 15 25 15 15 25 15 15 25 15 15 25 15 15 25 15 15 25 15 15 25 15 15 25 15 15 25 15 15 25 15 15 25 15 15 25 15 15 25 15 15 25 15 15 25 15 15 25 15 15 25 15 15 25 15 15 25 15 15 25 15 15 25 15 15 25 15 15 25 15 15 25 15 15 25 15 15 25 15 15 25 15 15 25 15 15 25 15 15 25 15 15 25 15 15 25 15 15 25 15 15 25 15 15 25 15 15 25 15 15 25 15 15 25 15 15 25 15 15 25 15 15 25 15 15 25 15 15 25 15 15 25 15 15 25 15 15 25 15 15 25 15 15 25 15 15 25 15 15 25 15 15 25 15 15 25 15 15 25 15 15 25 15 15 25 15 15 25 15 15 25 15 15 25 15 15 25 15 15 25 15 15 25 15 15 25 15 15 25 15 15 25 15 15 25 15 15 25 15 15 25 15 15 25 15 15 25 15 15 25 15 15 25 15 15 25 15 15 25 15 15 25 15 15 25 15 15 25 15 15 25 15 15 25 15 15 25 15 15 25 15 15 25 15 15 25 15 15 25 15 15 25 15 15 25 15 15 25 15 15 25 15 15 25 15 15 25 15 15 25 15 15 25 15 15 25 15 15 25 15 15 25 15 15 25 15 15 25 15 15 25 15 15 25 15 15 25 15 15 25 15 15 25 15 15 25 15 15 25 15 15 25 15 15 25 15 15 25 15 15 25 15 15 25 15 15 25 15 15 25 15 15 25 15 15 25 15 15 25 15 15 25 15 15 25 15 15 25 15 15 25 15 15 25 15 15 25 15 15 25 15 15 25 15 15 25 15 15 25 15 15 25 15 15 25 15 15 25 15 15 25 15 15 25 15 15 25 15 15 25 15 15 25 15 15 25 15 15 25 15 15 25 15 15 25 15 15 25 15 15 25 15 15 25 15 15 25 15 15 25 15 15 25 15 15 25 15 15 25 15 15 25 15 15 25 15 15 25 15 15 25 15 15 25 15 15 25 15 15 25 15 15 25 15 15 25 15 15 25 15 15 25 15 15 25 15 15 25 15 15 25 15 15 25 15 15 25 15 15 25 15 15 25 15 15 25 15 15 25 15 15 25 15 15 25 15 15 25 15 15 25 15 15 25 15 15 25 15 15 25 15 15 25 15 15 25 15 15 25 15 15 25 15 15 25 15 15 25 15 15 25 15 15 25 15 15 25 15 15 25 15 15 25 15 15 25 0 255 0 15 15 25 15 15 25 15 15 25 
15 15 25 15 15 25 15 15 25 15 15 25 255 0 0 15 15 25 15 15 25 15 15 25 15 15 25 15 15 25 15 15 25 15 15 25 15 15 25 15 15 25 15 15 25 15 15 25 15 15 25 15 15 25 15 15 25 15 15 25 15 15 25 15 15 25 15 15 25 15 15 25 15 15 25 15 15 25 15 15 25 15 15 25 15 15 25 15 15 25 15 15 25 15 15 25 15 15 25 15 15 25 15 15 25 15 15 25 15 15 25 15 15 25 15 15 25 15 15 25 15 15 25 15 15 25 15 15 25 15 15 25 15 15 25 15 15 25 15 15 25 15 15 25 15 15 25 15 15 25 15 15 25 15 15 25 15 15 25 15 15 25 15 15 25 15 15 25 15 15 25 15 15 25 15 15 25 15 15 25 15 15 25 15 15 25 15 15 25 15 15 25 15 15 25 15 15 25 15 15 25 15 15 25 15 15 25 15 15 25 15 15 25 15 15 25 15 15 25 15 15 25 15 15 25 15 15 25 15 15 25 15 15 25 15 15 25 15 15 25 15 15 25 15 15 25 15 15 25 15 15 25 15 15 25 15 15 25 15 15 25 15 15 25 15 15 25 15 15 25 15 15 25 15 15 25 15 15 25 15 15 25 15 15 25 15 15 25 15 15 25 15 15 25 15 15 25 15 15 25 15 15 25 15 15 25 15 15 25 15 15 25 15 15 25 15 15 25 15 15 25 15 15 25 15 15 25 15 15 25 15 15 25 15 15 25 15 15 25 15 15 25 15 15 25 15 15 25 15 15 25 15 15 25 15 15 25 15 15 25 15 15 25 15 15 25 15 15 25 15 15 25 15 15 25 15 15 25 15 15 25 15 15 25 15 15 25 15 15 25 15 15 25 15 15 25 15 15 25 15 15 25 15 15 25 15 15 25 15 15 25 15 15 25 15 15 25 15 15 25 15 15 25 15 15 25 15 15 25 15 15 25 15 15 25 15 15 25 15 15 25 15 15 25 15 15 25 15 15 25 15 15 25 15 15 25 15 15 25 15 15 25 15 15 25 15 15 25 15 15 25 15 15 25 15 15 25 15 15 25 15 15 25 15 15 25 15 15 25 15 15 25 15 15 25 15 15 25 15 15 25 15 15 25 15 15 25 15 15 25 15 15 25 15 15 25 15 15 25 15 15 25 15 15 25 15 15 25 15 15 25 15 15 25 15 15 25 15 15 25 15 15 25 15 15 25 15 15 25 15 15 25 15 15 25 15 15 25 15 15 25 15 15 25 15 15 25 15 15 25 15 15 25 15 15 25 15 15 25 15 15 25 15 15 25 15 15 25 15 15 25 15 15 25 15 15 25 15 15 25 15 15 25 15 15 25 15 15 25 15 15 25 15 15 25 15 15 25 15 15 25 15 15 25 15 15 25 15 15 25 15 15 25 15 15 25 15 15 25 15 15 25 15 15 25 15 15 25 15 15 25 15 15 25 15 15 25 15 15 25 15 15 25 15 15 25 15 15 25 15 15 25 15 15 25 15 15 25 15 15 25 15 15 25 15 15 25 15 15 25 15 15 25 15 15 25 15 15 25 15 15 25 15 15 25 15 15 25 15 15 25 15 15 25 15 15 25 15 15 25 15 15 25 15 15 25 15 15 25 15 15 25 15 15 25 15 15 25 15 15 25 15 15 25 15 15 25 15 15 25 15 15 25 0 255 0 15 15 25 15 15 25 15 15 25 15 15 25 
15 15 25 15 15 25 15 15 25 15 15 25 15 15 25 255 0 0 15 15 25 15 15 25 15 15 25 15 15 25 15 15 25 15 15 25 15 15 25 15 15 25 15 15 25 15 15 25 15 15 25 15 15 25 15 15 25 15 15 25 15 15 25 15 15 25 15 15 25 15 15 25 15 15 25 15 15 25 15 15 25 15 15 25 15 15 25 15 15 25 15 15 25 15 15 25 15 15 25 15 15 25 15 15 25 15 15 25 15 15 25 15 15 25 15 15 25 15 15 25 15 15 25 15 15 25 15 15 25 15 15 25 15 15 25 15 15 25 15 15 25 15 15 25 15 15 25 15 15 25 15 15 25 15 15 25 15 15 25 15 15 25 15 15 25 15 15 25 15 15 25 15 15 25 15 15 25 15 15 25 15 15 25 15 15 25 15 15 25 15 15 25 15 15 25 15 15 25 15 15 25 15 15 25 15 15 25 15 15 25 15 15 25 15 15 25 15 15 25 15 15 25 15 15 25 15 15 25 15 15 25 15 15 25 15 15 25 15 15 25 15 15 25 15 15 25 15 15 25 15 15 25 15 15 25 15 15 25 15 15 25 15 15 25 15 15 25 15 15 25 15 15 25 15 15 25 15 15 25 15 15 25 15 15 25 15 15 25 15 15 25 15 15 25 15 15 25 15 15 25 15 15 25 15 15 25 15 15 25 15 15 25 15 15 25 15 15 25 15 15 25 15 15 25 15 15 25 15 15 25 15 15 25 15 15 25 15 15 25 15 15 25 15 15 25 15 15 25 15 15 25 15 15 25 15 15 25 15 15 25 15 15 25 15 15 25 15 15 25 15 15 25 15 15 25 15 15 25 15 15 25 15 15 25 15 15 25 15 15 25 15 15 25 15 15 25 15 15 25 15 15 25 15 15 25 15 15 25 15 15 25 15 15 25 15 15 25 15 15 25 15 15 25 15 15 25 15 15 25 15 15 25 15 15 25 15 15 25 15 15 25 15 15 25 15 15 25 15 15 25 15 15 25 15 15 25 15 15 25 15 15 25 15 15 25 15 15 25 15 15 25 15 15 25 15 15 25 15 15 25 15 15 25 15 15 25 15 15 25 15 15 25 15 15 25 15 15 25 15 15 25 15 15 25 15 15 25 15 15 25 15 15 25 15 15 25 15 15 25 15 15 25 15 15 25 15 15 25 15 15 25 15 15 25 15 15 25 15 15 25 15 15 25 15 15 25 15 15 25 15 15 25 15 15 25 15 15 25 15 15 25 15 15 25 15 15 25 15 15 25 15 15 25 15 15 25 15 15 25 15 15 25 15 15 25 15 15 25 15 15 25 15 15 25 15 15 25 15 15 25 15 15 25 15 15 25 15 15 25 15 15 25 15 15 25 15 15 25 15 15 25 15 15 25 15 15 25 15 15 25 15 15 25 15 15 25 15 15 25 15 15 25 15 15 25 15 15 25 15 15 25 15 15 25 15 15 25 15 15 25 15 15 25 15 15 25 15 15 25 15 15 25 15 15 25 15 15 25 15 15 25 15 15 25 15 15 25 15 15 25 15 15 25 15 15 25 15 15 25 15 15 25 15 15 25 15 15 25 15 15 25 15 15 25 15 15 25 15 15 25 15 15 25 15 15 25 15 15 25 15 15 25 15 15 25 15 15 25 15 15 25 15 15 25 15 15 25 15 15 25 0 255 0 15 15 25 15 15 25 15 15 25 15 15 25 15 15 25 
15 15 25 15 15 25 15 15 25 15 15 25 15 15 25 15 15 25 255 0 0 15 15 25 15 15 25 15 15 25 15 15 25 15 15 25 15 15 25 15 15 25 15 15 25 15 15 25 15 15 25 15 15 25 15 15 25 15 15 25 15 15 25 15 15 25 15 15 25 15 15 25 15 15 25 15 15 25 15 15 25 15 15 25 15 15 25 15 15 25 15 15 25 15 15 25 15 15 25 15 15 25 15 15 25 15 15 25 15 15 25 15 15 25 15 15 25 15 15 25 15 15 25 15 15 25 15 15 25 15 15 25 15 15 25 15 15 25 15 15 25 15 15 25 15 15 25 15 15 25 15 15 25 15 15 25 15 15 25 15 15 25 15 15 25 15 15 25 15 15 25 15 15 25 15 15 25 15 15 25 15 15 25 15 15 25 15 15 25 15 15 25 15 15 25 15 15 25 15 15 25 15 15 25 15 15 25 15 15 25 15 15 25 15 15 25 15 15 25 15 15 25 15 15 25 15 15 25 15 15 25 15 15 25 15 15 25 15 15 25 15 15 25 15 15 25 15 15 25 15 15 25 15 15 25 15 15 25 15 15 25 15 15 25 15 15 25 15 15 25 15 15 25 15 15 25 15 15 25 15 15 25 15 15 25 15 15 25 15 15 25 15 15 25 15 15 25 15 15 25 15 15 25 15 15 25 15 15 25 15 15 25 15 15 25 15 15 25 15 15 25 15 15 25 15 15 25 15 15 25 15 15 25 15 15 25 15 15 25 15 15 25 15 15 25 15 15 25 15 15 25 15 15 25 15 15 25 15 15 25 15 15 25 15 15 25 15 15 25 15 15 25 15 15 25 15 15 25 15 15 25 15 15 25 15 15 25 15 15 25 15 15 25 15 15 25 15 15 25 15 15 25 15 15 25 15 15 25 15 15 25 15 15 25 15 15 25 15 15 25 15 15 25 15 15 25 15 15 25 15 15 25 15 15 25 15 15 25 15 15 25 15 15 25 15 15 25 15 15 25 15 15 25 15 15 25 15 15 25 15 15 25 15 15 25 15 15 25 15 15 25 15 15 25 15 15 25 15 15 25 15 15 25 15 15 25 15 15 25 15 15 25 15 15 25 15 15 25 15 15 25 15 15 25 15 15 25 15 15 25 15 15 25 15 15 25 15 15 25 15 15 25 15 15 25 15 15 25 15 15 25 15 15 25 15 15 25 15 15 25 15 15 25 15 15 25 15 15 25 15 15 25 15 15 25 15 15 25 15 15 25 15 15 25 15 15 25 15 15 25 15 15 25 15 15 25 15 15 25 15 15 25 15 15 25 15 15 25 15 15 25 15 15 25 15 15 25 15 15 25 15 15 25 15 15 25 15 15 25 15 15 25 15 15 25 15 15 25 15 15 25 15 15 25 15 15 25 15 15 25 15 15 25 15 15 25 15 15 25 15 15 25 15 15 25 15 15 25 15 15 25 15 15 25 15 15 25 15 15 25 15 15 25 15 15 25 15 15 25 15 15 25 15 15 25 15 15 25 15 15 25 15 15 25 15 15 25 15 15 25 15 15 25 15 15 25 15 15 25 15 15 25 15 15 25 15 15 25 15 15 25 15 15 25 15 15 25 15 15 25 15 15 25 15 15 25 15 15 25 15 15 25 15 15 25 15 15 25 15 15 25 15 15 25 15 15 25 0 255 0 15 15 25 15 15 25 15 15 25 15 15 25 15 15 25 15 15 25 
15 15 25 15 15 25 15 15 25 15 15 25 15 15 25 15 15 25 15 15 25 255 0 0 15 15 25 15 15 25 15 15 25 15 15 25 15 15 25 15 15 25 15 15 25 15 15 25 15 15 25 15 15 25 15 15 25 15 15 25 15 15 25 15 15 25 15 15 25 15 15 25 15 15 25 15 15 25 15 15 25 15 15 25 15 15 25 15 15 25 15 15 25 15 15 25 15 15 25 15 15 25 15 15 25 15 15 25 15 15 25 15 15 25 15 15 25 15 15 25 15 15 25 15 15 25 15 15 25 15 15 25 15 15 25 15 15 25 15 15 25 15 15 25 15 15 25 15 15 25 15 15 25 15 15 25 15 15 25 15 15 25 15 15 25 15 15 25 15 15 25 15 15 25 15 15 25 15 15 25 15 15 25 15 15 25 15 15 25 15 15 25 15 15 25 15 15 25 15 15 25 15 15 25 15 15 25 15 15 25 15 15 25 15 15 25 15 15 25 15 15 25 15 15 25 15 15 25 15 15 25 15 15 25 15 15 25 15 15 25 15 15 25 15 15 25 15 15 25 15 15 25 15 15 25 15 15 25 15 15 25 15 15 25 15 15 25 15 15 25 15 15 25 15 15 25 15 15 25 15 15 25 15 15 25 15 15 25 15 15 25 15 15 25 15 15 25 15 15 25 15 15 25 15 15 25 15 15 25 15 15 25 15 15 25 15 15 25 15 15 25 15 15 25 15 15 25 15 15 25 15 15 25 15 15 25 15 15 25 15 15 25 15 15 25 15 15 25 15 15 25 15 15 25 15 15 25 15 15 25 15 15 25 15 15 25 15 15 25 15 15 25 15 15 25 15 15 25 15 15 25 15 15 25 15 15 25 15 15 25 15 15 25 15 15 25 15 15 25 15 15 25 15 15 25 15 15 25 15 15 25 15 15 25 15 15 25 15 15 25 15 15 25 15 15 25 15 15 25 15 15 25 15 15 25 15 15 25 15 15 25 15 15 25 15 15 25 15 15 25 15 15 25 15 15 25 15 15 25 15 15 25 15 15 25 15 15 25 15 15 25 15 15 25 15 15 25 15 15 25 15 15 25 15 15 25 15 15 25 15 15 25 15 15 25 15 15 25 15 15 25 15 15 25 15 15 25 15 15 25 15 15 25 15 15 25 15 15 25 15 15 25 15 15 25 15 15 25 15 15 25 15 15 25 15 15 25 15 15 25 15 15 25 15 15 25 15 15 25 15 15 25 15 15 25 15 15 25 15 15 25 15 15 25 15 15 25 15 15 25 15 15 25 15 15 25 15 15 25 15 15 25 15 15 25 15 15 25 15 15 25 15 15 25 15 15 25 15 15 25 15 15 25 15 15 25 15 15 25 15 15 25 15 15 25 15 15 25 15 15 25 15 15 25 15 15 25 15 15 25 15 15 25 15 15 25 15 15 25 15 15 25 15 15 25 15 15 25 15 15 25 15 15 25 15 15 25 15 15 25 15 15 25 15 15 25 15 15 25 15 15 25 15 15 25 15 15 25 15 15 25 15 15 25 15 15 25 15 15 25 15 15 25 15 15 25 15 15 25 15 15 25 15 15 25 15 15 25 15 15 25 15 15 25 15 15 25 15 15 25 15 15 25 15 15 25 15 15 25 15 15 25 15 15 25 15 15 25 15 15 25 15 15 25 0 255 0 15 15 25 15 15 25 15 15 25 15 15 25 15 15 25 15 15 25 15 15 25 
15 15 25 15 15 25 15 15 25 15 15 25 15 15 25 15 15 25 15 15 25 15 15 25 255 0 0 15 15 25 15 15 25 15 15 25 15 15 25 15 15 25 15 15 25 15 15 25 15 15 25 15 15 25 15 15 25 15 15 25 15 15 25 15 15 25 15 15 25 15 15 25 15 15 25 15 15 25 15 15 25 15 15 25 15 15 25 15 15 25 15 15 25 15 15 25 15 15 25 15 15 25 15 15 25 15 15 25 15 15 25 15 15 25 15 15 25 15 15 25 15 15 25 15 15 25 15 15 25 15 15 25 15 15 25 15 15 25 15 15 25 15 15 25 15 15 25 15 15 25 15 15 25 15 15 25 15 15 25 15 15 25 15 15 25 15 15 25 15 15 25 15 15 25 15 15 25 15 15 25 15 15 25 15 15 25 15 15 25 15 15 25 15 15 25 15 15 25 15 15 25 15 15 25 15 15 25 15 15 25 15 15 25 15 15 25 15 15 25 15 15 25 15 15 25 15 15 25 15 15 25 15 15 25 15 15 25 15 15 25 15 15 25 15 15 25 15 15 25 15 15 25 15 15 25 15 15 25 15 15 25 15 15 25 15 15 25 15 15 25 15 15 25 15 15 25 15 15 25 15 15 25 15 15 25 15 15 25 15 15 25 15 15 25 15 15 25 15 15 25 15 15 25 15 15 25 15 15 25 15 15 25 15 15 25 15 15 25 15 15 25 15 15 25 15 15 25 15 15 25 15 15 25 15 15 25 15 15 25 15 15 25 15 15 25 15 15 25 15 15 25 15 15 25 15 15 25 15 15 25 15 15 25 15 15 25 15 15 25 15 15 25 15 15 25 15 15 25 15 15 25 15 15 25 15 15 25 15 15 25 15 15 25 15 15 25 15 15 25 15 15 25 15 15 25 15 15 25 15 15 25 15 15 25 15 15 25 15 15 25 15 15 25 15 15 25 15 15 25 15 15 25 15 15 25 15 15 25 15 15 25 15 15 25 15 15 25 15 15 25 15 15 25 15 15 25 15 15 25 15 15 25 15 15 25 15 15 25 15 15 25 15 15 25 15 15 25 15 15 25 15 15 25 15 15 25 15 15 25 15 15 25 15 15 25 15 15 25 15 15 25 15 15 25 15 15 25 15 15 25 15 15 25 15 15 25 15 15 25 15 15 25 15 15 25 15 15 25 15 15 25 15 15 25 15 15 25 15 15 25 15 15 25 15 15 25 15 15 25 15 15 25 15 15 25 15 15 25 15 15 25 15 15 25 15 15 25 15 15 25 15 15 25 15 15 25 15 15 25 15 15 25 15 15 25 15 15 25 15 15 25 15 15 25 15 15 25 15 15 25 15 15 25 15 15 25 15 15 25 15 15 25 15 15 25 15 15 25 15 15 25 15 15 25 15 15 25 15 15 25 15 15 25 15 15 25 15 15 25 15 15 25 15 15 25 15 15 25 15 15 25 15 15 25 15 15 25 15 15 25 15 15 25 15 15 25 15 15 25 15 15 25 15 15 25 15 15 25 15 15 25 15 15 25 15 15 25 15 15 25 15 15 25 15 15 25 15 15 25 15 15 25 15 15 25 15 15 25 15 15 25 15 15 25 15 15 25 15 15 25 15 15 25 15 15 25 15 15 25 15 15 25 15 15 25 15 15 25 15 15 25 0 255 0 15 15 25 15 15 25 15 15 25 15 15 25 15 15 25 15 15 25 15 15 25 15 15 25 
15 15 25 15 15 25 15 15 25 15 15 25 15 15 25 15 15 25 15 15 25 15 15 25 15 15 25 255 0 0 15 15 25 15 15 25 15 15 25 15 15 25 15 15 25 15 15 25 15 15 25 15 15 25 15 15 25 15 15 25 15 15 25 15 15 25 15 15 25 15 15 25 15 15 25 15 15 25 15 15 25 15 15 25 15 15 25 15 15 25 15 15 25 15 15 25 15 15 25 15 15 25 15 15 25 15 15 25 15 15 25 15 15 25 15 15 25 15 15 25 15 15 25 15 15 25 15 15 25 15 15 25 15 15 25 15 15 25 15 15 25 15 15 25 15 15 25 15 15 25 15 15 25 15 15 25 15 15 25 15 15 25 15 15 25 15 15 25 15 15 25 15 15 25 15 15 25 15 15 25 15 15 25 15 15 25 15 15 25 15 15 25 15 15 25 15 15 25 15 15 25 15 15 25 15 15 25 15 15 25 15 15 25 15 15 25 15 15 25 15 15 25 15 15 25 15 15 25 15 15 25 15 15 25 15 15 25 15 15 25 15 15 25 15 15 25 15 15 25 15 15 25 15 15 25 15 15 25 15 15 25 15 15 25 15 15 25 15 15 25 15 15 25 15 15 25 15 15 25 15 15 25 15 15 25 15 15 25 15 15 25 15 15 25 15 15 25 15 15 25 15 15 25 15 15 25 15 15 25 15 15 25 15 15 25 15 15 25 15 15 25 15 15 25 15 15 25 15 15 25 15 15 25 15 15 25 15 15 25 15 15 25 15 15 25 15 15 25 15 15 25 15 15 25 15 15 25 15 15 25 15 15 25 15 15 25 15 15 25 15 15 25 15 15 25 15 15 25 15 15 25 15 15 25 15 15 25 15 15 25 15 15 25 15 15 25 15 15 25 15 15 25 15 15 25 15 15 25 15 15 25 15 15 25 15 15 25 15 15 25 15 15 25 15 15 25 15 15 25 15 15 25 15 15 25 15 15 25 15 15 25 15 15 25 15 15 25 15 15 25 15 15 25 15 15 25 15 15 25 15 15 25 15 15 25 15 15 25 15 15 25 15 15 25 15 15 25 15 15 25 15 15 25 15 15 25 15 15 25 15 15 25 15 15 25 15 15 25 15 15 25 15 15 25 15 15 25 15 15 25 15 15 25 15 15 25 15 15 25 15 15 25 15 15 25 15 15 25 15 15 25 15 15 25 15 15 25 15 15 25 15 15 25 15 15 25 15 15 25 15 15 25 15 15 25 15 15 25 15 15 25 15 15 25 15 15 25 15 15 25 15 15 25 15 15 25 15 15 25 15 15 25 15 15 25 15 15 25 15 15 25 15 15 25 15 15 25 15 15 25 15 15 25 15 15 25 15 15 25 15 15 25 15 15 25 15 15 25 15 15 25 15 15 25 15 15 25 15 15 25 15 15 25 15 15 25 15 15 25 15 15 25 15 15 25 15 15 25 15 15 25 15 15 25 15 15 25 15 15 25 15 15 25 15 15 25 15 15 25 15 15 25 15 15 25 15 15 25 15 15 25 15 15 25 15 15 25 15 15 25 15 15 25 15 15 25 15 15 25 15 15 25 15 15 25 15 15 25 15 15 25 15 15 25 15 15 25 15 15 25 15 15 25 15 15 25 15 15 25 15 15 25 15 15 25 15 15 25 0 255 0 15 15 25 15 15 25 15 15 25 15 15 25 15 15 25 15 15 25 15 15 25 15 15 25 15 15 25 
15 15 25 15 15 25 15 15 25 15 15 25 15 15 25 15 15 25 15 15 25 15 15 25 15 15 25 15 15 25 255 0 0 15 15 25 15 15 25 15 15 25 15 15 25 15 15 25 15 15 25 15 15 25 15 15 25 15 15 25 15 15 25 15 15 25 15 15 25 15 15 25 15 15 25 15 15 25 15 15 25 15 15 25 15 15 25 15 15 25 15 15 25 15 15 25 15 15 25 15 15 25 15 15 25 15 15 25 15 15 25 15 15 25 15 15 25 15 15 25 15 15 25 15 15 25 15 15 25 15 15 25 15 15 25 15 15 25 15 15 25 15 15 25 15 15 25 15 15 25 15 15 25 15 15 25 15 15 25 15 15 25 15 15 25 15 15 25 15 15 25 15 15 25 15 15 25 15 15 25 15 15 25 15 15 25 15 15 25 15 15 25 15 15 25 15 15 25 15 15 25 15 15 25 15 15 25 15 15 25 15 15 25 15 15 25 15 15 25 15 15 25 15 15 25 15 15 25 15 15 25 15 15 25 15 15 25 15 15 25 15 15 25 15 15 25 15 15 25 15 15 25 15 15 25 15 15 25 15 15 25 15 15 25 15 15 25 15 15 25 15 15 25 15 15 25 15 15 25 15 15 25 15 15 25 15 15 25 15 15 25 15 15 25 15 15 25 15 15 25 15 15 25 15 15 25 15 15 25 15 15 25 15 15 25 15 15 25 15 15 25 15 15 25 15 15 25 15 15 25 15 15 25 15 15 25 15 15 25 15 15 25 15 15 25 15 15 25 15 15 25 15 15 25 15 15 25 15 15 25 15 15 25 15 15 25 15 15 25 15 15 25 15 15 25 15 15 25 15 15 25 15 15 25 15 15 25 15 15 25 15 15 25 15 15 25 15 15 25 15 15 25 15 15 25 15 15 25 15 15 25 15 15 25 15 15 25 15 15 25 15 15 25 15 15 25 15 15 25 15 15 25 15 15 25 15 15 25 15 15 25 15 15 25 15 15 25 15 15 25 15 15 25 15 15 25 15 15 25 15 15 25 15 15 25 15 15 25 15 15 25 15 15 25 15 15 25 15 15 25 15 15 25 15 15 25 15 15 25 15 15 25 15 15 25 15 15 25 15 15 25 15 15 25 15 15 25 15 15 25 15 15 25 15 15 25 15 15 25 15 15 25 15 15 25 15 15 25 15 15 25 15 15 25 15 15 25 15 15 25 15 15 25 15 15 25 15 15 25 15 15 25 15 15 25 15 15 25 15 15 25 15 15 25 15 15 25 15 15 25 15 15 25 15 15 25 15 15 25 15 15 25 15 15 25 15 15 25 15 15 25 15 15 25 15 15 25 15 15 25 15 15 25 15 15 25 15 15 25 15 15 25 15 15 25 15 15 25 15 15 25 15 15 25 15 15 25 15 15 25 15 15 25 15 15 25 15 15 25 15 15 25 15 15 25 15 15 25 15 15 25 15 15 25 15 15 25 15 15 25 15 15 25 15 15 25 15 15 25 15 15 25 15 15 25 15 15 25 15 15 25 15 15 25 15 15 25 15 15 25 15 15 25 15 15 25 15 15 25 15 15 25 15 15 25 15 15 25 15 15 25 15 15 25 15 15 25 15 15 25 15 15 25 15 15 25 15 15 25 15 15 25 15 15 25 0 255 0 15 15 25 15 15 25 15 15 25 15 15 25 15 15 25 15 15 25 15 15 25 15 15 25 15 15 25 15 15 25 
15 15 25 15 15 25 15 15 25 15 15 25 15 15 25 15 15 25 15 15 25 15 15 25 15 15 25 15 15 25 15 15 25 255 0 0 15 15 25 15 15 25 15 15 25 15 15 25 15 15 25 15 15 25 15 15 25 15 15 25 15 15 25 15 15 25 15 15 25 15 15 25 15 15 25 15 15 25 15 15 25 15 15 25 15 15 25 15 15 25 15 15 25 15 15 25 15 15 25 15 15 25 15 15 25 15 15 25 15 15 25 15 15 25 15 15 25 15 15 25 15 15 25 15 15 25 15 15 25 15 15 25 15 15 25 15 15 25 15 15 25 15 15 25 15 15 25 15 15 25 15 15 25 15 15 25 15 15 25 15 15 25 15 15 25 15 15 25 15 15 25 15 15 25 15 15 25 15 15 25 15 15 25 15 15 25 15 15 25 15 15 25 15 15 25 15 15 25 15 15 25 15 15 25 15 15 25 15 15 25 15 15 25 15 15 25 15 15 25 15 15 25 15 15 25 15 15 25 15 15 25 15 15 25 15 15 25 15 15 25 15 15 25 15 15 25 15 15 25 15 15 25 15 15 25 15 15 25 15 15 25 15 15 25 15 15 25 15 15 25 15 15 25 15 15 25 15 15 25 15 15 25 15 15 25 15 15 25 15 15 25 15 15 25 15 15 25 15 15 25 15 15 25 15 15 25 15 15 25 15 15 25 15 15 25 15 15 25 15 15 25 15 15 25 15 15 25 15 15 25 15 15 25 15 15 25 15 15 25 15 15 25 15 15 25 15 15 25 15 15 25 15 15 25 15 15 25 15 15 25 15 15 25 15 15 25 15 15 25 15 15 25 15 15 25 15 15 25 15 15 25 15 15 25 15 15 25 15 15 25 15 15 25 15 15 25 15 15 25 15 15 25 15 15 25 15 15 25 15 15 25 15 15 25 15 15 25 15 15 25 15 15 25 15 15 25 15 15 25 15 15 25 15 15 25 15 15 25 15 15 25 15 15 25 15 15 25 15 15 25 15 15 25 15 15 25 15 15 25 15 15 25 15 15 25 15 15 25 15 15 25 15 15 25 15 15 25 15 15 25 15 15 25 15 15 25 15 15 25 15 15 25 15 15 25 15 15 25 15 15 25 15 15 25 15 15 25 15 15 25 15 15 25 15 15 25 15 15 25 15 15 25 15 15 25 15 15 25 15 15 25 15 15 25 15 15 25 15 15 25 15 15 25 15 15 25 15 15 25 15 15 25 15 15 25 15 15 25 15 15 25 15 15 25 15 15 25 15 15 25 15 15 25 15 15 25 15 15 25 15 15 25 15 15 25 15 15 25 15 15 25 15 15 25 15 15 25 15 15 25 15 15 25 15 15 25 15 15 25 15 15 25 15 15 25 15 15 25 15 15 25 15 15 25 15 15 25 15 15 25 15 15 25 15 15 25 15 15 25 15 15 25 15 15 25 15 15 25 15 15 25 15 15 25 15 15 25 15 15 25 15 15 25 15 15 25 15 15 25 15 15 25 15 15 25 15 15 25 15 15 25 15 15 25 15 15 25 15 15 25 15 15 25 15 15 25 15 15 25 15 15 25 15 15 25 15 15 25 15 15 25 15 15 25 15 15 25 15 15 25 15 15 25 15 15 25 15 15 25 15 15 25 0 255 0 15 15 25 15 15 25 15 15 25 15 15 25 15 15 25 15 15 25 15 15 25 15 15 25 15 15 25 15 15 25 15 15 25 
15 15 25 15 15 25 15 15 25 15 15 25 15 15 25 15 15 25 15 15 25 15 15 25 15 15 25 15 15 25 15 15 25 15 15 25 255 0 0 15 15 25 15 15 25 15 15 25 15 15 25 15 15 25 15 15 25 15 15 25 15 15 25 15 15 25 15 15 25 15 15 25 15 15 25 15 15 25 15 15 25 15 15 25 15 15 25 15 15 25 15 15 25 15 15 25 15 15 25 15 15 25 15 15 25 15 15 25 15 15 25 15 15 25 15 15 25 15 15 25 15 15 25 15 15 25 15 15 25 15 15 25 15 15 25 15 15 25 15 15 25 15 15 25 15 15 25 15 15 25 15 15 25 15 15 25 15 15 25 15 15 25 15 15 25 15 15 25 15 15 25 15 15 25 15 15 25 15 15 25 15 15 25 15 15 25 15 15 25 15 15 25 15 15 25 15 15 25 15 15 25 15 15 25 15 15 25 15 15 25 15 15 25 15 15 25 15 15 25 15 15 25 15 15 25 15 15 25 15 15 25 15 15 25 15 15 25 15 15 25 15 15 25 15 15 25 15 15 25 15 15 25 15 15 25 15 15 25 15 15 25 15 15 25 15 15 25 15 15 25 15 15 25 15 15 25 15 15 25 15 15 25 15 15 25 15 15 25 15 15 25 15 15 25 15 15 25 15 15 25 15 15 25 15 15 25 15 15 25 15 15 25 15 15 25 15 15 25 15 15 25 15 15 25 15 15 25 15 15 25 15 15 25 15 15 25 15 15 25 15 15 25 15 15 25 15 15 25 15 15 25 15 15 25 15 15 25 15 15 25 15 15 25 15 15 25 15 15 25 15 15 25 15 15 25 15 15 25 15 15 25 15 15 25 15 15 25 15 15 25 15 15 25 15 15 25 15 15 25 15 15 25 15 15 25 15 15 25 15 15 25 15 15 25 15 15 25 15 15 25 15 15 25 15 15 25 15 15 25 15 15 25 15 15 25 15 15 25 15 15 25 15 15 25 15 15 25 15 15 25 15 15 25 15 15 25 15 15 25 15 15 25 15 15 25 15 15 25 15 15 25 15 15 25 15 15 25 15 15 25 15 15 25 15 15 25 15 15 25 15 15 25 15 15 25 15 15 25 15 15 25 15 15 25 15 15 25 15 15 25 15 15 25 15 15 25 15 15 25 15 15 25 15 15 25 15 15 25 15 15 25 15 15 25 15 15 25 15 15 25 15 15 25 15 15 25 15 15 25 15 15 25 15 15 25 15 15 25 15 15 25 15 15 25 15 15 25 15 15 25 15 15 25 15 15 25 15 15 25 15 15 25 15 15 25 15 15 25 15 15 25 15 15 25 15 15 25 15 15 25 15 15 25 15 15 25 15 15 25 15 15 25 15 15 25 15 15 25 15 15 25 15 15 25 15 15 25 15 15 25 15 15 25 15 15 25 15 15 25 15 15 25 15 15 25 15 15 25 15 15 25 15 15 25 15 15 25 15 15 25 15 15 25 15 15 25 15 15 25 15 15 25 15 15 25 15 15 25 15 15 25 15 15 25 15 15 25 15 15 25 15 15 25 15 15 25 15 15 25 15 15 25 15 15 25 15 15 25 15 15 25 15 15 25 15 15 25 15 15 25 15 15 25 15 15 25 15 15 25 0 255 0 15 15 25 15 15 25 15 15 25 15 15 25 15 15 25 15 15 25 15 15 25 15 15 25 15 15 25 15 15 25 15 15 25 15 15 25 
15 15 25 15 15 25 15 15 25 15 15 25 15 15 25 15 15 25 15 15 25 15 15 25 15 15 25 15 15 25 15 15 25 15 15 25 15 15 25 255 0 0 15 15 25 15 15 25 15 15 25 15 15 25 15 15 25 15 15 25 15 15 25 15 15 25 15 15 25 15 15 25 15 15 25 15 15 25 15 15 25 15 15 25 15 15 25 15 15 25 15 15 25 15 15 25 15 15 25 15 15 25 15 15 25 15 15 25 15 15 25 15 15 25 15 15 25 15 15 25 15 15 25 15 15 25 15 15 25 15 15 25 15 15 25 15 15 25 15 15 25 15 15 25 15 15 25 15 15 25 15 15 25 15 15 25 15 15 25 15 15 25 15 15 25 15 15 25 15 15 25 15 15 25 15 15 25 15 15 25 15 15 25 15 15 25 15 15 25 15 15 25 15 15 25 15 15 25 15 15 25 15 15 25 15 15 25 15 15 25 15 15 25 15 15 25 15 15 25 15 15 25 15 15 25 15 15 25 15 15 25 15 15 25 15 15 25 15 15 25 15 15 25 15 15 25 15 15 25 15 15 25 15 15 25 15 15 25 15 15 25 15 15 25 15 15 25 15 15 25 15 15 25 15 15 25 15 15 25 15 15 25 15 15 25 15 15 25 15 15 25 15 15 25 15 15 25 15 15 25 15 15 25 15 15 25 15 15 25 15 15 25 15 15 25 15 15 25 15 15 25 15 15 25 15 15 25 15 15 25 15 15 25 15 15 25 15 15 25 15 15 25 15 15 25 15 15 25 15 15 25 15 15 25 15 15 25 15 15 25 15 15 25 15 15 25 15 15 25 15 15 25 15 15 25 15 15 25 15 15 25 15 15 25 15 15 25 15 15 25 15 15 25 15 15 25 15 15 25 15 15 25 15 15 25 15 15 25 15 15 25 15 15 25 15 15 25 15 15 25 15 15 25 15 15 25 15 15 25 15 15 25 15 15 25 15 15 25 15 15 25 15 15 25 15 15 25 15 15 25 15 15 25 15 15 25 15 15 25 15 15 25 15 15 25 15 15 25 15 15 25 15 15 25 15 15 25 15 15 25 15 15 25 15 15 25 15 15 25 15 15 25 15 15 25 15 15 25 15 15 25 15 15 25 15 15 25 15 15 25 15 15 25 15 15 25 15 15 25 15 15 25 15 15 25 15 15 25 15 15 25 15 15 25 15 15 25 15 15 25 15 15 25 15 15 25 15 15 25 15 15 25 15 15 25 15 15 25 15 15 25 15 15 25 15 15 25 15 15 25 15 15 25 15 15 25 15 15 25 15 15 25 15 15 25 15 15 25 15 15 25 15 15 25 15 15 25 15 15 25 15 15 25 15 15 25 15 15 25 15 15 25 15 15 25 15 15 25 15 15 25 15 15 25 15 15 25 15 15 25 15 15 25 15 15 25 15 15 25 15 15 25 15 15 25 15 15 25 15 15 25 15 15 25 15 15 25 15 15 25 15 15 25 15 15 25 15 15 25 15 15 25 15 15 25 15 15 25 15 15 25 15 15 25 15 15 25 15 15 25 15 15 25 15 15 25 15 15 25 15 15 25 15 15 25 15 15 25 15 15 25 15 15 25 15 15 25 15 15 25 15 15 25 15 15 25 0 255 0 15 15 25 15 15 25 15 15 25 15 15 25 15 15 25 15 15 25 15 15 25 15 15 25 15 15 25 15 15 25 15 15 25 15 15 25 15 15 25 
15 15 25 15 15 25 15 15 25 15 15 25 15 15 25 15 15 25 15 15 25 15 15 25 15 15 25 15 15 25 15 15 25 15 15 25 15 15 25 15 15 25 255 0 0 15 15 25 15 15 25 15 15 25 15 15 25 15 15 25 15 15 25 15 15 25 15 15 25 15 15 25 15 15 25 15 15 25 15 15 25 15 15 25 15 15 25 15 15 25 15 15 25 15 15 25 15 15 25 15 15 25 15 15 25 15 15 25 15 15 25 15 15 25 15 15 25 15 15 25 15 15 25 15 15 25 15 15 25 15 15 25 15 15 25 15 15 25 15 15 25 15 15 25 15 15 25 15 15 25 15 15 25 15 15 25 15 15 25 15 15 25 15 15 25 15 15 25 15 15 25 15 15 25 15 15 25 15 15 25 15 15 25 15 15 25 15 15 25 15 15 25 15 15 25 15 15 25 15 15 25 15 15 25 15 15 25 15 15 25 15 15 25 15 15 25 15 15 25 15 15 25 15 15 25 15 15 25 15 15 25 15 15 25 15 15 25 15 15 25 15 15 25 15 15 25 15 15 25 15 15 25 15 15 25 15 15 25 15 15 25 15 15 25 15 15 25 15 15 25 15 15 25 15 15 25 15 15 25 15 15 25 15 15 25 15 15 25 15 15 25 15 15 25 15 15 25 15 15 25 15 15 25 15 15 25 15 15 25 15 15 25 15 15 25 15 15 25 15 15 25 15 15 25 15 15 25 15 15 25 15 15 25 15 15 25 15 15 25 15 15 25 15 15 25 15 15 25 15 15 25 15 15 25 15 15 25 15 15 25 15 15 25 15 15 25 15 15 25 15 15 25 15 15 25 15 15 25 15 15 25 15 15 25 15 15 25 15 15 25 15 15 25 15 15 25 15 15 25 15 15 25 15 15 25 15 15 25 15 15 25 15 15 25 15 15 25 15 15 25 15 15 25 15 15 25 15 15 25 15 15 25 15 15 25 15 15 25 15 15 25 15 15 25 15 15 25 15 15 25 15 15 25 15 15 25 15 15 25 15 15 25 15 15 25 15 15 25 15 15 25 15 15 25 15 15 25 15 15 25 15 15 25 15 15 25 15 15 25 15 15 25 15 15 25 15 15 25 15 15 25 15 15 25 15 15 25 15 15 25 15 15 25 15 15 25 15 15 25 15 15 25 15 15 25 15 15 25 15 15 25 15 15 25 15 15 25 15 15 25 15 15 25 15 15 25 15 15 25 15 15 25 15 15 25 15 15 25 15 15 25 15 15 25 15 15 25 15 15 25 15 15 25 15 15 25 15 15 25 15 15 25 15 15 25 15 15 25 15 15 25 15 15 25 15 15 25 15 15 25 15 15 25 15 15 25 15 15 25 15 15 25 15 15 25 15 15 25 15 15 25 15 15 25 15 15 25 15 15 25 15 15 25 15 15 25 15 15 25 15 15 25 15 15 25 15 15 25 15 15 25 15 15 25 15 15 25 15 15 25 15 15 25 15 15 25 15 15 25 15 15 25 15 15 25 15 15 25 15 15 25 15 15 25 15 15 25 15 15 25 15 15 25 15 15 25 15 15 25 15 15 25 15 15 25 15 15 25 15 15 25 15 15 25 15 15 25 15 15 25 15 15 25 0 255 0 15 15 25 15 15 25 15 15 25 15 15 25 15 15 25 15 15 25 15 15 25 15 15 25 15 15 25 15 15 25 15 15 25 15 15 25 15 15 25 15 15 25 
15 15 25 15 15 25 15 15 25 15 15 25 15 15 25 15 15 25 15 15 25 15 15 25 15 15 25 15 15 25 15 15 25 15 15 25 15 15 25 15 15 25 15 15 25 255 0 0 15 15 25 15 15 25 15 15 25 15 15 25 15 15 25 15 15 25 15 15 25 15 15 25 15 15 25 15 15 25 15 15 25 15 15 25 15 15 25 15 15 25 15 15 25 15 15 25 15 15 25 15 15 25 15 15 25 15 15 25 15 15 25 15 15 25 15 15 25 15 15 25 15 15 25 15 15 25 15 15 25 15 15 25 15 15 25 15 15 25 15 15 25 15 15 25 15 15 25 15 15 25 15 15 25 15 15 25 15 15 25 15 15 25 15 15 25 15 15 25 15 15 25 15 15 25 15 15 25 15 15 25 15 15 25 15 15 25 15 15 25 15 15 25 15 15 25 15 15 25 15 15 25 15 15 25 15 15 25 15 15 25 15 15 25 15 15 25 15 15 25 15 15 25 15 15 25 15 15 25 15 15 25 15 15 25 15 15 25 15 15 25 15 15 25 15 15 25 15 15 25 15 15 25 15 15 25 15 15 25 15 15 25 15 15 25 15 15 25 15 15 25 15 15 25 15 15 25 15 15 25 15 15 25 15 15 25 15 15 25 15 15 25 15 15 25 15 15 25 15 15 25 15 15 25 15 15 25 15 15 25 15 15 25 15 15 25 15 15 25 15 15 25 15 15 25 15 15 25 15 15 25 15 15 25 15 15 25 15 15 25 15 15 25 15 15 25 15 15 25 15 15 25 15 15 25 15 15 25 15 15 25 15 15 25 15 15 25 15 15 25 15 15 25 15 15 25 15 15 25 15 15 25 15 15 25 15 15 25 15 15 25 15 15 25 15 15 25 15 15 25 15 15 25 15 15 25 15 15 25 15 15 25 15 15 25 15 15 25 15 15 25 15 15 25 15 15 25 15 15 25 15 15 25 15 15 25 15 15 25 15 15 25 15 15 25 15 15 25 15 15 25 15 15 25 15 15 25 15 15 25 15 15 25 15 15 25 15 15 25 15 15 25 15 15 25 15 15 25 15 15 25 15 15 25 15 15 25 15 15 25 15 15 25 15 15 25 15 15 25 15 15 25 15 15 25 15 15 25 15 15 25 15 15 25 15 15 25 15 15 25 15 15 25 15 15 25 15 15 25 15 15 25 15 15 25 15 15 25 15 15 25 15 15 25 15 15 25 15 15 25 15 15 25 15 15 25 15 15 25 15 15 25 15 15 25 15 15 25 15 15 25 15 15 25 15 15 25 15 15 25 15 15 25 15 15 25 15 15 25 15 15 25 15 15 25 15 15 25 15 15 25 15 15 25 15 15 25 15 15 25 15 15 25 15 15 25 15 15 25 15 15 25 15 15 25 15 15 25 15 15 25 15 15 25 15 15 25 15 15 25 15 15 25 15 15 25 15 15 25 15 15 25 15 15 25 15 15 25 15 15 25 15 15 25 15 15 25 15 15 25 15 15 25 15 15 25 15 15 25 15 15 25 15 15 25 15 15 25 15 15 25 15 15 25 15 15 25 15 15 25 15 15 25 15 15 25 15 15 25 15 15 25 15 15 25 15 15 25 15 15 25 0 255 0 15 15 25 15 15 25 15 15 25 15 15 25 15 15 25 15 15 25 15 15 25 15 15 25 15 15 25 15 15 25 15 15 25 15 15 25 15 15 25 15 15 25 15 15 25 
15 15 25 15 15 25 15 15 25 15 15 25 15 15 25 15 15 25 15 15 25 15 15 25 15 15 25 15 15 25 15 15 25 15 15 25 15 15 25 15 15 25 15 15 25 15 15 25 255 0 0 15 15 25 15 15 25 15 15 25 15 15 25 15 15 25 15 15 25 15 15 25 15 15 25 15 15 25 15 15 25 15 15 25 15 15 25 15 15 25 15 15 25 15 15 25 15 15 25 15 15 25 15 15 25 15 15 25 15 15 25 15 15 25 15 15 25 15 15 25 15 15 25 15 15 25 15 15 25 15 15 25 15 15 25 15 15 25 15 15 25 15 15 25 15 15 25 15 15 25 15 15 25 15 15 25 15 15 25 15 15 25 15 15 25 15 15 25 15 15 25 15 15 25 15 15 25 15 15 25 15 15 25 15 15 25 15 15 25 15 15 25 15 15 25 15 15 25 15 15 25 15 15 25 15 15 25 15 15 25 15 15 25 15 15 25 15 15 25 15 15 25 15 15 25 15 15 25 15 15 25 15 15 25 15 15 25 15 15 25 15 15 25 15 15 25 15 15 25 15 15 25 15 15 25 15 15 25 15 15 25 15 15 25 15 15 25 15 15 25 15 15 25 15 15 25 15 15 25 15 15 25 15 15 25 15 15 25 15 15 25 15 15 25 15 15 25 15 15 25 15 15 25 15 15 25 15 15 25 15 15 25 15 15 25 15 15 25 15 15 25 15 15 25 15 15 25 15 15 25 15 15 25 15 15 25 15 15 25 15 15 25 15 15 25 15 15 25 15 15 25 15 15 25 15 15 25 15 15 25 15 15 25 15 15 25 15 15 25 15 15 25 15 15 25 15 15 25 15 15 25 15 15 25 15 15 25 15 15 25 15 15 25 15 15 25 15 15 25 15 15 25 15 15 25 15 15 25 15 15 25 15 15 25 15 15 25 15 15 25 15 15 25 15 15 25 15 15 25 15 15 25 15 15 25 15 15 25 15 15 25 15 15 25 15 15 25 15 15 25 15 15 25 15 15 25 15 15 25 15 15 25 15 15 25 15 15 25 15 15 25 15 15 25 15 15 25 15 15 25 15 15 25 15 15 25 15 15 25 15 15 25 15 15 25 15 15 25 15 15 25 15 15 25 15 15 25 15 15 25 15 15 25 15 15 25 15 15 25 15 15 25 15 15 25 15 15 25 15 15 25 15 15 25 15 15 25 15 15 25 15 15 25 15 15 25 15 15 25 15 15 25 15 15 25 15 15 25 15 15 25 15 15 25 15 15 25 15 15 25 15 15 25 15 15 25 15 15 25 15 15 25 15 15 25 15 15 25 15 15 25 15 15 25 15 15 25 15 15 25 15 15 25 15 15 25 15 15 25 15 15 25 15 15 25 15 15 25 15 15 25 15 15 25 15 15 25 15 15 25 15 15 25 15 15 25 15 15 25 15 15 25 15 15 25 15 15 25 15 15 25 15 15 25 15 15 25 15 15 25 15 15 25 15 15 25 15 15 25 15 15 25 15 15 25 15 15 25 15 15 25 15 15 25 15 15 25 15 15 25 15 15 25 15 15 25 15 15 25 15 15 25 15 15 25 15 15 25 15 15 25 15 15 25 15 15 25 0 255 0 15 15 25 15 15 25 15 15 25 15 15 25 15 15 25 15 15 25 15 15 25 15 15 25 15 15 25 15 15 25 15 15 25 15 15 25 15 15 25 15 15 25 15 15 25 15 15 25 
15 15 25 15 15 25 15 15 25 15 15 25 15 15 25 15 15 25 15 15 25 15 15 25 15 15 25 15 15 25 15 15 25 15 15 25 15 15 25 15 15 25 15 15 25 15 15 25 15 15 25 255 0 0 15 15 25 15 15 25 15 15 25 15 15 25 15 15 25 15 15 25 15 15 25 15 15 25 15 15 25 15 15 25 15 15 25 15 15 25 15 15 25 15 15 25 15 15 25 15 15 25 15 15 25 15 15 25 15 15 25 15 15 25 15 15 25 15 15 25 15 15 25 15 15 25 15 15 25 15 15 25 15 15 25 15 15 25 15 15 25 15 15 25 15 15 25 15 15 25 15 15 25 15 15 25 15 15 25 15 15 25 15 15 25 15 15 25 15 15 25 15 15 25 15 15 25 15 15 25 15 15 25 15 15 25 15 15 25 15 15 25 15 15 25 15 15 25 15 15 25 15 15 25 15 15 25 15 15 25 15 15 25 15 15 25 15 15 25 15 15 25 15 15 25 15 15 25 15 15 25 15 15 25 15 15 25 15 15 25 15 15 25 15 15 25 15 15 25 15 15 25 15 15 25 15 15 25 15 15 25 15 15 25 15 15 25 15 15 25 15 15 25 15 15 25 15 15 25 15 15 25 15 15 25 15 15 25 15 15 25 15 15 25 15 15 25 15 15 25 15 15 25 15 15 25 15 15 25 15 15 25 15 15 25 15 15 25 15 15 25 15 15 25 15 15 25 15 15 25 15 15 25 15 15 25 15 15 25 15 15 25 15 15 25 15 15 25 15 15 25 15 15 25 15 15 25 15 15 25 15 15 25 15 15 25 15 15 25 15 15 25 15 15 25 15 15 25 15 15 25 15 15 25 15 15 25 15 15 25 15 15 25 15 15 25 15 15 25 15 15 25 15 15 25 15 15 25 15 15 25 15 15 25 15 15 25 15 15 25 15 15 25 15 15 25 15 15 25 15 15 25 15 15 25 15 15 25 15 15 25 15 15 25 15 15 25 15 15 25 15 15 25 15 15 25 15 15 25 15 15 25 15 15 25 15 15 25 15 15 25 15 15 25 15 15 25 15 15 25 15 15 25 15 15 25 15 15 25 15 15 25 15 15 25 15 15 25 15 15 25 15 15 25 15 15 25 15 15 25 15 15 25 15 15 25 15 15 25 15 15 25 15 15 25 15 15 25 15 15 25 15 15 25 15 15 25 15 15 25 15 15 25 15 15 25 15 15 25 15 15 25 15 15 25 15 15 25 15 15 25 15 15 25 15 15 25 15 15 25 15 15 25 15 15 25 15 15 25 15 15 25 15 15 25 15 15 25 15 15 25 15 15 25 15 15 25 15 15 25 15 15 25 15 15 25 15 15 25 15 15 25 15 15 25 15 15 25 15 15 25 15 15 25 15 15 25 15 15 25 15 15 25 15 15 25 15 15 25 15 15 25 15 15 25 15 15 25 15 15 25 15 15 25 15 15 25 15 15 25 15 15 25 15 15 25 15 15 25 15 15 25 15 15 25 15 15 25 15 15 25 15 15 25 15 15 25 15 15 25 15 15 25 15 15 25 15 15 25 15 15 25 15 15 25 15 15 25 15 15 25 15 15 25 0 255 0 15 15 25 15 15 25 15 15 25 15 15 25 15 15 25 15 15 25 15 15 25 15 15 25 15 15 25 15 15 25 15 15 25 15 15 25 15 15 25 15 15 25 15 15 25 15 15 25 15 15 25 
15 15 25 15 15 25 15 15 25 15 15 25 15 15 25 15 15 25 15 15 25 15 15 25 15 15 25 15 15 25 15 15 25 15 15 25 15 15 25 15 15 25 15 15 25 15 15 25 15 15 25 15 15 25 255 0 0 15 15 25 15 15 25 15 15 25 15 15 25 15 15 25 15 15 25 15 15 25 15 15 25 15 15 25 15 15 25 15 15 25 15 15 25 15 15 25 15 15 25 15 15 25 15 15 25 15 15 25 15 15 25 15 15 25 15 15 25 15 15 25 15 15 25 15 15 25 15 15 25 15 15 25 15 15 25 15 15 25 15 15 25 15 15 25 15 15 25 15 15 25 15 15 25 15 15 25 15 15 25 15 15 25 15 15 25 15 15 25 15 15 25 15 15 25 15 15 25 15 15 25 15 15 25 15 15 25 15 15 25 15 15 25 15 15 25 15 15 25 15 15 25 15 15 25 15 15 25 15 15 25 15 15 25 15 15 25 15 15 25 15 15 25 15 15 25 15 15 25 15 15 25 15 15 25 15 15 25 15 15 25 15 15 25 15 15 25 15 15 25 15 15 25 15 15 25 15 15 25 15 15 25 15 15 25 15 15 25 15 15 25 15 15 25 15 15 25 15 15 25 15 15 25 15 15 25 15 15 25 15 15 25 15 15 25 15 15 25 15 15 25 15 15 25 15 15 25 15 15 25 15 15 25 15 15 25 15 15 25 15 15 25 15 15 25 15 15 25 15 15 25 15 15 25 15 15 25 15 15 25 15 15 25 15 15 25 15 15 25 15 15 25 15 15 25 15 15 25 15 15 25 15 15 25 15 15 25 15 15 25 15 15 25 15 15 25 15 15 25 15 15 25 15 15 25 15 15 25 15 15 25 15 15 25 15 15 25 15 15 25 15 15 25 15 15 25 15 15 25 15 15 25 15 15 25 15 15 25 15 15 25 15 15 25 15 15 25 15 15 25 15 15 25 15 15 25 15 15 25 15 15 25 15 15 25 15 15 25 15 15 25 15 15 25 15 15 25 15 15 25 15 15 25 15 15 25 15 15 25 15 15 25 15 15 25 15 15 25 15 15 25 15 15 25 15 15 25 15 15 25 15 15 25 15 15 25 15 15 25 15 15 25 15 15 25 15 15 25 15 15 25 15 15 25 15 15 25 15 15 25 15 15 25 15 15 25 15 15 25 15 15 25 15 15 25 15 15 25 15 15 25 15 15 25 15 15 25 15 15 25 15 15 25 15 15 25 15 15 25 15 15 25 15 15 25 15 15 25 15 15 25 15 15 25 15 15 25 15 15 25 15 15 25 15 15 25 15 15 25 15 15 25 15 15 25 15 15 25 15 15 25 15 15 25 15 15 25 15 15 25 15 15 25 15 15 25 15 15 25 15 15 25 15 15 25 15 15 25 15 15 25 15 15 25 15 15 25 15 15 25 15 15 25 15 15 25 15 15 25 15 15 25 15 15 25 15 15 25 15 15 25 15 15 25 15 15 25 15 15 25 15 15 25 15 15 25 15 15 25 15 15 25 15 15 25 15 15 25 15 15 25 15 15 25 15 15 25 15 15 25 15 15 25 15 15 25 15 15 25 15 15 25 0 255 0 15 15 25 15 15 25 15 15 25 15 15 25 15 15 25 15 15 25 15 15 25 15 15 25 15 15 25 15 15 25 15 15 25 15 15 25 15 15 25 15 15 25 15 15 25 15 15 25 15 15 25 15 15 25 
15 15 25 15 15 25 15 15 25 15 15 25 15 15 25 15 15 25 15 15 25 15 15 25 15 15 25 15 15 25 15 15 25 15 15 25 15 15 25 15 15 25 15 15 25 15 15 25 15 15 25 15 15 25 15 15 25 255 0 0 15 15 25 15 15 25 15 15 25 15 15 25 15 15 25 15 15 25 15 15 25 15 15 25 15 15 25 15 15 25 15 15 25 15 15 25 15 15 25 15 15 25 15 15 25 15 15 25 15 15 25 15 15 25 15 15 25 15 15 25 15 15 25 15 15 25 15 15 25 15 15 25 15 15 25 15 15 25 15 15 25 15 15 25 15 15 25 15 15 25 15 15 25 15 15 25 15 15 25 15 15 25 15 15 25 15 15 25 15 15 25 15 15 25 15 15 25 15 15 25 15 15 25 15 15 25 15 15 25 15 15 25 15 15 25 15 15 25 15 15 25 15 15 25 15 15 25 15 15 25 15 15 25 15 15 25 15 15 25 15 15 25 15 15 25 15 15 25 15 15 25 15 15 25 15 15 25 15 15 25 15 15 25 15 15 25 15 15 25 15 15 25 15 15 25 15 15 25 15 15 25 15 15 25 15 15 25 15 15 25 15 15 25 15 15 25 15 15 25 15 15 25 15 15 25 15 15 25 15 15 25 15 15 25 15 15 25 15 15 25 15 15 25 15 15 25 15 15 25 15 15 25 15 15 25 15 15 25 15 15 25 15 15 25 15 15 25 15 15 25 15 15 25 15 15 25 15 15 25 15 15 25 15 15 25 15 15 25 15 15 25 15 15 25 15 15 25 15 15 25 15 15 25 15 15 25 15 15 25 15 15 25 15 15 25 15 15 25 15 15 25 15 15 25 15 15 25 15 15 25 15 15 25 15 15 25 15 15 25 15 15 25 15 15 25 15 15 25 15 15 25 15 15 25 15 15 25 15 15 25 15 15 25 15 15 25 15 15 25 15 15 25 15 15 25 15 15 25 15 15 25 15 15 25 15 15 25 15 15 25 15 15 25 15 15 25 15 15 25 15 15 25 15 15 25 15 15 25 15 15 25 15 15 25 15 15 25 15 15 25 15 15 25 15 15 25 15 15 25 15 15 25 15 15 25 15 15 25 15 15 25 15 15 25 15 15 25 15 15 25 15 15 25 15 15 25 15 15 25 15 15 25 15 15 25 15 15 25 15 15 25 15 15 25 15 15 25 15 15 25 15 15 25 15 15 25 15 15 25 15 15 25 15 15 25 15 15 25 15 15 25 15 15 25 15 15 25 15 15 25 15 15 25 15 15 25 15 15 25 15 15 25 15 15 25 15 15 25 15 15 25 15 15 25 15 15 25 15 15 25 15 15 25 15 15 25 15 15 25 15 15 25 15 15 25 15 15 25 15 15 25 15 15 25 15 15 25 15 15 25 15 15 25 15 15 25 15 15 25 15 15 25 15 15 25 15 15 25 15 15 25 15 15 25 15 15 25 15 15 25 15 15 25 15 15 25 15 15 25 15 15 25 15 15 25 15 15 25 15 15 25 15 15 25 15 15 25 15 15 25 15 15 25 15 15 25 15 15 25 15 15 25 15 15 25 15 15 25 0 255 0 15 15 25 15 15 25 15 15 25 15 15 25 15 15 25 15 15 25 15 15 25 15 15 25 15 15 25 15 15 25 15 15 25 15 15 25 15 15 25 15 15 25 15 15 25 15 15 25 15 15 25 15 15 25 15 15 25 
15 15 25 15 15 25 15 15 25 15 15 25 15 15 25 15 15 25 15 15 25 15 15 25 15 15 25 15 15 25 15 15 25 15 15 25 15 15 25 15 15 25 15 15 25 15 15 25 15 15 25 15 15 25 15 15 25 15 15 25 255 255 0 255 255 0 255 255 0 255 255 0 255 255 0 255 255 0 255 255 0 255 255 0 255 255 0 255 255 0 255 255 0 255 255 0 255 255 0 255 255 0 255 255 0 255 255 0 255 255 0 255 255 0 255 255 0 255 255 0 255 255 0 255 255 0 255 255 0 255 255 0 255 255 0 255 255 0 255 255 0 255 255 0 255 255 0 255 255 0 255 255 0 255 255 0 255 255 0 255 255 0 255 255 0 255 255 0 255 255 0 255 255 0 255 255 0 255 255 0 255 255 0 255 255 0 255 255 0 255 255 0 255 255 0 255 255 0 255 255 0 255 255 0 255 255 0 255 255 0 255 255 0 255 255 0 255 255 0 255 255 0 255 255 0 255 255 0 255 255 0 255 255 0 255 255 0 255 255 0 255 255 0 255 255 0 255 255 0 255 255 0 255 255 0 255 255 0 255 255 0 255 255 0 255 255 0 255 255 0 255 255 0 255 255 0 255 255 0 255 255 0 255 255 0 255 255 0 255 255 0 255 255 0 255 255 0 255 255 0 255 255 0 15 15 25 15 15 25 15 15 25 15 15 25 15 15 25 15 15 25 15 15 25 15 15 25 15 15 25 15 15 25 15 15 25 15 15 25 15 15 25 15 15 25 15 15 25 15 15 25 15 15 25 15 15 25 15 15 25 15 15 25 15 15 25 15 15 25 15 15 25 15 15 25 15 15 25 15 15 25 15 15 25 15 15 25 15 15 25 15 15 25 15 15 25 15 15 25 15 15 25 15 15 25 15 15 25 15 15 25 15 15 25 15 15 25 15 15 25 15 15 25 15 15 25 15 15 25 15 15 25 15 15 25 15 15 25 15 15 25 15 15 25 15 15 25 15 15 25 15 15 25 15 15 25 15 15 25 15 15 25 15 15 25 15 15 25 15 15 25 15 15 25 15 15 25 15 15 25 15 15 25 15 15 25 15 15 25 15 15 25 15 15 25 15 15 25 15 15 25 15 15 25 15 15 25 15 15 25 15 15 25 15 15 25 15 15 25 15 15 25 15 15 25 15 15 25 15 15 25 15 15 25 15 15 25 15 15 25 15 15 25 15 15 25 15 15 25 15 15 25 15 15 25 15 15 25 15 15 25 15 15 25 15 15 25 15 15 25 15 15 25 15 15 25 15 15 25 15 15 25 15 15 25 15 15 25 15 15 25 15 15 25 15 15 25 15 15 25 15 15 25 15 15 25 15 15 25 15 15 25 15 15 25 15 15 25 15 15 25 15 15 25 15 15 25 15 15 25 15 15 25 15 15 25 15 15 25 15 15 25 15 15 25 15 15 25 15 15 25 15 15 25 15 15 25 15 15 25 15 15 25 15 15 25 15 15 25 15 15 25 15 15 25 15 15 25 15 15 25 15 15 25 15 15 25 15 15 25 15 15 25 15 15 25 15 15 25 15 15 25 15 15 25 0 255 0 15 15 25 15 15 25 15 15 25 15 15 25 15 15 25 15 15 25 15 15 25 15 15 25 15 15 25 15 15 25 15 15 25 15 15 25 15 15 25 15 15 25 15 15 25 15 15 25 15 15 25 15 15 25 15 15 25 15 15 25 
15 15 25 15 15 25 15 15 25 15 15 25 15 15 25 15 15 25 15 15 25 15 15 25 15 15 25 15 15 25 15 15 25 15 15 25 15 15 25 15 15 25 15 15 25 15 15 25 15 15 25 15 15 25 15 15 25 15 15 25 255 255 0 255 0 0 15 15 25 15 15 25 15 15 25 15 15 25 15 15 25 15 15 25 15 15 25 15 15 25 15 15 25 15 15 25 15 15 25 15 15 25 15 15 25 15 15 25 15 15 25 15 15 25 15 15 25 15 15 25 15 15 25 15 15 25 15 15 25 15 15 25 15 15 25 15 15 25 15 15 25 15 15 25 15 15 25 15 15 25 15 15 25 15 15 25 15 15 25 15 15 25 15 15 25 15 15 25 15 15 25 15 15 25 15 15 25 15 15 25 15 15 25 15 15 25 15 15 25 15 15 25 15 15 25 15 15 25 15 15 25 15 15 25 15 15 25 15 15 25 15 15 25 15 15 25 15 15 25 15 15 25 15 15 25 15 15 25 15 15 25 15 15 25 15 15 25 15 15 25 15 15 25 15 15 25 15 15 25 15 15 25 15 15 25 15 15 25 15 15 25 15 15 25 15 15 25 15 15 25 15 15 25 15 15 25 15 15 25 15 15 25 15 15 25 15 15 25 15 15 25 15 15 25 15 15 25 15 15 25 255 255 0 15 15 25 15 15 25 15 15 25 15 15 25 15 15 25 15 15 25 15 15 25 15 15 25 15 15 25 15 15 25 15 15 25 15 15 25 15 15 25 15 15 25 15 15 25 15 15 25 15 15 25 15 15 25 15 15 25 15 15 25 15 15 25 15 15 25 15 15 25 15 15 25 15 15 25 15 15 25 15 15 25 15 15 25 15 15 25 15 15 25 15 15 25 15 15 25 15 15 25 15 15 25 15 15 25 15 15 25 15 15 25 15 15 25 15 15 25 15 15 25 15 15 25 15 15 25 15 15 25 15 15 25 15 15 25 15 15 25 15 15 25 15 15 25 15 15 25 15 15 25 15 15 25 15 15 25 15 15 25 15 15 25 15 15 25 15 15 25 15 15 25 15 15 25 15 15 25 15 15 25 15 15 25 15 15 25 15 15 25 15 15 25 15 15 25 15 15 25 15 15 25 15 15 25 15 15 25 15 15 25 15 15 25 15 15 25 15 15 25 15 15 25 15 15 25 15 15 25 15 15 25 15 15 25 15 15 25 15 15 25 15 15 25 15 15 25 15 15 25 15 15 25 15 15 25 15 15 25 15 15 25 15 15 25 15 15 25 15 15 25 15 15 25 15 15 25 15 15 25 15 15 25 15 15 25 15 15 25 15 15 25 15 15 25 15 15 25 15 15 25 15 15 25 15 15 25 15 15 25 15 15 25 15 15 25 15 15 25 15 15 25 15 15 25 15 15 25 15 15 25 15 15 25 15 15 25 15 15 25 15 15 25 15 15 25 15 15 25 15 15 25 15 15 25 15 15 25 15 15 25 15 15 25 15 15 25 15 15 25 15 15 25 15 15 25 15 15 25 15 15 25 15 15 25 15 15 25 15 15 25 15 15 25 15 15 25 15 15 25 0 255 0 15 15 25 15 15 25 15 15 25 15 15 25 15 15 25 15 15 25 15 15 25 15 15 25 15 15 25 15 15 25 15 15 25 15 15 25 15 15 25 15 15 25 15 15 25 15 15 25 15 15 25 15 15 25 15 15 25 15 15 25 15 15 25 
15 15 25 15 15 25 15 15 25 15 15 25 15 15 25 15 15 25 15 15 25 15 15 25 15 15 25 15 15 25 15 15 25 15 15 25 15 15 25 15 15 25 15 15 25 15 15 25 15 15 25 15 15 25 15 15 25 15 15 25 255 255 0 15 15 25 255 0 0 15 15 25 15 15 25 15 15 25 15 15 25 15 15 25 15 15 25 15 15 25 15 15 25 15 15 25 15 15 25 15 15 25 15 15 25 15 15 25 15 15 25 15 15 25 15 15 25 15 15 25 15 15 25 15 15 25 15 15 25 15 15 25 15 15 25 15 15 25 15 15 25 15 15 25 15 15 25 15 15 25 15 15 25 15 15 25 15 15 25 15 15 25 15 15 25 15 15 25 15 15 25 15 15 25 15 15 25 15 15 25 15 15 25 15 15 25 15 15 25 15 15 25 15 15 25 15 15 25 15 15 25 15 15 25 15 15 25 15 15 25 15 15 25 15 15 25 15 15 25 15 15 25 15 15 25 15 15 25 15 15 25 15 15 25 15 15 25 15 15 25 15 15 25 15 15 25 15 15 25 15 15 25 15 15 25 15 15 25 15 15 25 15 15 25 15 15 25 15 15 25 15 15 25 15 15 25 15 15 25 15 15 25 15 15 25 15 15 25 15 15 25 15 15 25 15 15 25 15 15 25 255 255 0 15 15 25 15 15 25 15 15 25 15 15 25 15 15 25 15 15 25 15 15 25 15 15 25 15 15 25 15 15 25 15 15 25 15 15 25 15 15 25 15 15 25 15 15 25 15 15 25 15 15 25 15 15 25 15 15 25 15 15 25 15 15 25 15 15 25 15 15 25 15 15 25 15 15 25 15 15 25 15 15 25 15 15 25 15 15 25 15 15 25 15 15 25 15 15 25 15 15 25 15 15 25 15 15 25 15 15 25 15 15 25 15 15 25 15 15 25 15 15 25 15 15 25 15 15 25 15 15 25 15 15 25 15 15 25 15 15 25 15 15 25 15 15 25 15 15 25 15 15 25 15 15 25 15 15 25 15 15 25 15 15 25 15 15 25 15 15 25 15 15 25 15 15 25 15 15 25 15 15 25 15 15 25 15 15 25 15 15 25 15 15 25 15 15 25 15 15 25 15 15 25 15 15 25 15 15 25 15 15 25 15 15 25 15 15 25 15 15 25 15 15 25 15 15 25 15 15 25 15 15 25 15 15 25 15 15 25 15 15 25 15 15 25 15 15 25 15 15 25 15 15 25 15 15 25 15 15 25 15 15 25 15 15 25 15 15 25 15 15 25 15 15 25 15 15 25 15 15 25 15 15 25 15 15 25 15 15 25 15 15 25 15 15 25 15 15 25 15 15 25 15 15 25 15 15 25 15 15 25 15 15 25 15 15 25 15 15 25 15 15 25 15 15 25 15 15 25 15 15 25 15 15 25 15 15 25 15 15 25 15 15 25 15 15 25 15 15 25 15 15 25 15 15 25 15 15 25 15 15 25 15 15 25 15 15 25 15 15 25 15 15 25 15 15 25 15 15 25 15 15 25 15 15 25 15 15 25 15 15 25 15 15 25 15 15 25 0 255 0 15 15 25 15 15 25 15 15 25 15 15 25 15 15 25 15 15 25 15 15 25 15 15 25 15 15 25 15 15 25 15 15 25 15 15 25 15 15 25 15 15 25 15 15 25 15 15 25 15 15 25 15 15 25 15 15 25 15 15 25 15 15 25 15 15 25 
15 15 25 15 15 25 15 15 25 15 15 25 15 15 25 15 15 25 15 15 25 15 15 25 15 15 25 15 15 25 15 15 25 15 15 25 15 15 25 15 15 25 15 15 25 15 15 25 15 15 25 15 15 25 15 15 25 15 15 25 255 255 0 15 15 25 15 15 25 255 0 0 15 15 25 15 15 25 15 15 25 15 15 25 15 15 25 15 15 25 15 15 25 15 15 25 15 15 25 15 15 25 15 15 25 15 15 25 15 15 25 15 15 25 15 15 25 15 15 25 15 15 25 15 15 25 15 15 25 15 15 25 15 15 25 15 15 25 15 15 25 15 15 25 15 15 25 15 15 25 15 15 25 15 15 25 15 15 25 15 15 25 15 15 25 15 15 25 15 15 25 15 15 25 15 15 25 15 15 25 15 15 25 15 15 25 15 15 25 15 15 25 15 15 25 15 15 25 15 15 25 15 15 25 15 15 25 15 15 25 15 15 25 15 15 25 15 15 25 15 15 25 15 15 25 15 15 25 15 15 25 15 15 25 15 15 25 15 15 25 15 15 25 15 15 25 15 15 25 15 15 25 15 15 25 15 15 25 15 15 25 15 15 25 15 15 25 15 15 25 15 15 25 15 15 25 15 15 25 15 15 25 15 15 25 15 15 25 15 15 25 15 15 25 15 15 25 15 15 25 255 255 0 15 15 25 15 15 25 15 15 25 15 15 25 15 15 25 15 15 25 15 15 25 15 15 25 15 15 25 15 15 25 15 15 25 15 15 25 15 15 25 15 15 25 15 15 25 15 15 25 15 15 25 15 15 25 15 15 25 15 15 25 15 15 25 15 15 25 15 15 25 15 15 25 15 15 25 15 15 25 15 15 25 15 15 25 15 15 25 15 15 25 15 15 25 15 15 25 15 15 25 15 15 25 15 15 25 15 15 25 15 15 25 15 15 25 15 15 25 15 15 25 15 15 25 15 15 25 15 15 25 15 15 25 15 15 25 15 15 25 15 15 25 15 15 25 15 15 25 15 15 25 15 15 25 15 15 25 15 15 25 15 15 25 15 15 25 15 15 25 15 15 25 15 15 25 15 15 25 15 15 25 15 15 25 15 15 25 15 15 25 15 15 25 15 15 25 15 15 25 15 15 25 15 15 25 15 15 25 15 15 25 15 15 25 15 15 25 15 15 25 15 15 25 15 15 25 15 15 25 15 15 25 15 15 25 15 15 25 15 15 25 15 15 25 15 15 25 15 15 25 15 15 25 15 15 25 15 15 25 15 15 25 15 15 25 15 15 25 15 15 25 15 15 25 15 15 25 15 15 25 15 15 25 15 15 25 15 15 25 15 15 25 15 15 25 15 15 25 15 15 25 15 15 25 15 15 25 15 15 25 15 15 25 15 15 25 15 15 25 15 15 25 15 15 25 15 15 25 15 15 25 15 15 25 15 15 25 15 15 25 15 15 25 15 15 25 15 15 25 15 15 25 15 15 25 15 15 25 15 15 25 15 15 25 15 15 25 15 15 25 15 15 25 15 15 25 15 15 25 15 15 25 15 15 25 15 15 25 15 15 25 15 15 25 0 255 0 15 15 25 15 15 25 15 15 25 15 15 25 15 15 25 15 15 25 15 15 25 15 15 25 15 15 25 15 15 25 15 15 25 15 15 25 15 15 25 15 15 25 15 15 25 15 15 25 15 15 25 15 15 25 15 15 25 15 15 25 15 15 25 15 15 25 15 15 25 
15 15 25 15 15 25 15 15 25 15 15 25 15 15 25 15 15 25 15 15 25 15 15 25 15 15 25 15 15 25 15 15 25 15 15 25 15 15 25 15 15 25 15 15 25 15 15 25 15 15 25 15 15 25 15 15 25 15 15 25 255 255 0 15 15 25 15 15 25 15 15 25 255 0 0 15 15 25 15 15 25 15 15 25 15 15 25 15 15 25 15 15 25 15 15 25 15 15 25 15 15 25 15 15 25 15 15 25 15 15 25 15 15 25 15 15 25 15 15 25 15 15 25 15 15 25 15 15 25 15 15 25 15 15 25 15 15 25 15 15 25 15 15 25 15 15 25 15 15 25 15 15 25 15 15 25 15 15 25 15 15 25 15 15 25 15 15 25 15 15 25 15 15 25 15 15 25 15 15 25 15 15 25 15 15 25 15 15 25 15 15 25 15 15 25 15 15 25 15 15 25 15 15 25 15 15 25 15 15 25 15 15 25 15 15 25 15 15 25 15 15 25 15 15 25 15 15 25 15 15 25 15 15 25 15 15 25 15 15 25 15 15 25 15 15 25 15 15 25 15 15 25 15 15 25 15 15 25 15 15 25 15 15 25 15 15 25 15 15 25 15 15 25 15 15 25 15 15 25 15 15 25 15 15 25 15 15 25 15 15 25 15 15 25 15 15 25 15 15 25 255 255 0 15 15 25 15 15 25 15 15 25 15 15 25 15 15 25 15 15 25 15 15 25 15 15 25 15 15 25 15 15 25 15 15 25 15 15 25 15 15 25 15 15 25 15 15 25 15 15 25 15 15 25 15 15 25 15 15 25 15 15 25 15 15 25 15 15 25 15 15 25 15 15 25 15 15 25 15 15 25 15 15 25 15 15 25 15 15 25 15 15 25 15 15 25 15 15 25 15 15 25 15 15 25 15 15 25 15 15 25 15 15 25 15 15 25 15 15 25 15 15 25 15 15 25 15 15 25 15 15 25 15 15 25 15 15 25 15 15 25 15 15 25 15 15 25 15 15 25 15 15 25 15 15 25 15 15 25 15 15 25 15 15 25 15 15 25 15 15 25 15 15 25 15 15 25 15 15 25 15 15 25 15 15 25 15 15 25 15 15 25 15 15 25 15 15 25 15 15 25 15 15 25 15 15 25 15 15 25 15 15 25 15 15 25 15 15 25 15 15 25 15 15 25 15 15 25 15 15 25 15 15 25 15 15 25 15 15 25 15 15 25 15 15 25 15 15 25 15 15 25 15 15 25 15 15 25 15 15 25 15 15 25 15 15 25 15 15 25 15 15 25 15 15 25 15 15 25 15 15 25 15 15 25 15 15 25 15 15 25 15 15 25 15 15 25 15 15 25 15 15 25 15 15 25 15 15 25 15 15 25 15 15 25 15 15 25 15 15 25 15 15 25 15 15 25 15 15 25 15 15 25 15 15 25 15 15 25 15 15 25 15 15 25 15 15 25 15 15 25 15 15 25 15 15 25 15 15 25 15 15 25 15 15 25 15 15 25 15 15 25 15 15 25 15 15 25 15 15 25 15 15 25 15 15 25 15 15 25 15 15 25 0 255 0 15 15 25 15 15 25 15 15 25 15 15 25 15 15 25 15 15 25 15 15 25 15 15 25 15 15 25 15 15 25 15 15 25 15 15 25 15 15 25 15 15 25 15 15 25 15 15 25 15 15 25 15 15 25 15 15 25 15 15 25 15 15 25 15 15 25 15 15 25 15 15 25 
15 15 25 15 15 25 15 15 25 15 15 25 15 15 25 15 15 25 15 15 25 15 15 25 15 15 25 15 15 25 15 15 25 15 15 25 15 15 25 15 15 25 15 15 25 15 15 25 15 15 25 15 15 25 15 15 25 15 15 25 255 255 0 15 15 25 15 15 25 15 15 25 15 15 25 255 0 0 15 15 25 15 15 25 15 15 25 15 15 25 15 15 25 15 15 25 15 15 25 15 15 25 15 15 25 15 15 25 15 15 25 15 15 25 15 15 25 15 15 25 15 15 25 15 15 25 15 15 25 15 15 25 15 15 25 15 15 25 15 15 25 15 15 25 15 15 25 15 15 25 15 15 25 15 15 25 15 15 25 15 15 25 15 15 25 15 15 25 15 15 25 15 15 25 15 15 25 15 15 25 15 15 25 15 15 25 15 15 25 15 15 25 15 15 25 15 15 25 15 15 25 15 15 25 15 15 25 15 15 25 15 15 25 15 15 25 15 15 25 15 15 25 15 15 25 15 15 25 15 15 25 15 15 25 15 15 25 15 15 25 15 15 25 15 15 25 15 15 25 15 15 25 15 15 25 15 15 25 15 15 25 15 15 25 15 15 25 15 15 25 15 15 25 15 15 25 15 15 25 15 15 25 15 15 25 15 15 25 15 15 25 15 15 25 15 15 25 15 15 25 255 255 0 15 15 25 15 15 25 15 15 25 15 15 25 15 15 25 15 15 25 15 15 25 15 15 25 15 15 25 15 15 25 15 15 25 15 15 25 15 15 25 15 15 25 15 15 25 15 15 25 15 15 25 15 15 25 15 15 25 15 15 25 15 15 25 15 15 25 15 15 25 15 15 25 15 15 25 15 15 25 15 15 25 15 15 25 15 15 25 15 15 25 15 15 25 15 15 25 15 15 25 15 15 25 15 15 25 15 15 25 15 15 25 15 15 25 15 15 25 15 15 25 15 15 25 15 15 25 15 15 25 15 15 25 15 15 25 15 15 25 15 15 25 15 15 25 15 15 25 15 15 25 15 15 25 15 15 25 15 15 25 15 15 25 15 15 25 15 15 25 15 15 25 15 15 25 15 15 25 15 15 25 15 15 25 15 15 25 15 15 25 15 15 25 15 15 25 15 15 25 15 15 25 15 15 25 15 15 25 15 15 25 15 15 25 15 15 25 15 15 25 15 15 25 15 15 25 15 15 25 15 15 25 15 15 25 15 15 25 15 15 25 15 15 25 15 15 25 15 15 25 15 15 25 15 15 25 15 15 25 15 15 25 15 15 25 15 15 25 15 15 25 15 15 25 15 15 25 15 15 25 15 15 25 15 15 25 15 15 25 15 15 25 15 15 25 15 15 25 15 15 25 15 15 25 15 15 25 15 15 25 15 15 25 15 15 25 15 15 25 15 15 25 15 15 25 15 15 25 15 15 25 15 15 25 15 15 25 15 15 25 15 15 25 15 15 25 15 15 25 15 15 25 15 15 25 15 15 25 15 15 25 15 15 25 15 15 25 15 15 25 15 15 25 15 15 25 15 15 25 15 15 25 15 15 25 15 15 25 0 255 0 15 15 25 15 15 25 15 15 25 15 15 25 15 15 25 15 15 25 15 15 25 15 15 25 15 15 25 15 15 25 15 15 25 15 15 25 15 15 25 15 15 25 15 15 25 15 15 25 15 15 25 15 15 25 15 15 25 15 15 25 15 15 25 15 15 25 15 15 25 15 15 25 15 15 25 
15 15 25 15 15 25 15 15 25 15 15 25 15 15 25 15 15 25 15 15 25 15 15 25 15 15 25 15 15 25 15 15 25 15 15 25 15 15 25 15 15 25 15 15 25 15 15 25 15 15 25 15 15 25 15 15 25 15 15 25 255 255 0 15 15 25 15 15 25 15 15 25 15 15 25 15 15 25 255 0 0 15 15 25 15 15 25 15 15 25 15 15 25 15 15 25 15 15 25 15 15 25 15 15 25 15 15 25 15 15 25 15 15 25 15 15 25 15 15 25 15 15 25 15 15 25 15 15 25 15 15 25 15 15 25 15 15 25 15 15 25 15 15 25 15 15 25 15 15 25 15 15 25 15 15 25 15 15 25 15 15 25 15 15 25 15 15 25 15 15 25 15 15 25 15 15 25 15 15 25 15 15 25 15 15 25 15 15 25 15 15 25 15 15 25 15 15 25 15 15 25 15 15 25 15 15 25 15 15 25 15 15 25 15 15 25 15 15 25 15 15 25 15 15 25 15 15 25 15 15 25 15 15 25 15 15 25 15 15 25 15 15 25 15 15 25 15 15 25 15 15 25 15 15 25 15 15 25 15 15 25 15 15 25 15 15 25 15 15 25 15 15 25 15 15 25 15 15 25 15 15 25 15 15 25 15 15 25 15 15 25 15 15 25 15 15 25 15 15 25 255 255 0 15 15 25 15 15 25 15 15 25 15 15 25 15 15 25 15 15 25 15 15 25 15 15 25 15 15 25 15 15 25 15 15 25 15 15 25 15 15 25 15 15 25 15 15 25 15 15 25 15 15 25 15 15 25 15 15 25 15 15 25 15 15 25 15 15 25 15 15 25 15 15 25 15 15 25 15 15 25 15 15 25 15 15 25 15 15 25 15 15 25 15 15 25 15 15 25 15 15 25 15 15 25 15 15 25 15 15 25 15 15 25 15 15 25 15 15 25 15 15 25 15 15 25 15 15 25 15 15 25 15 15 25 15 15 25 15 15 25 15 15 25 15 15 25 15 15 25 15 15 25 15 15 25 15 15 25 15 15 25 15 15 25 15 15 25 15 15 25 15 15 25 15 15 25 15 15 25 15 15 25 15 15 25 15 15 25 15 15 25 15 15 25 15 15 25 15 15 25 15 15 25 15 15 25 15 15 25 15 15 25 15 15 25 15 15 25 15 15 25 15 15 25 15 15 25 15 15 25 15 15 25 15 15 25 15 15 25 15 15 25 15 15 25 15 15 25 15 15 25 15 15 25 15 15 25 15 15 25 15 15 25 15 15 25 15 15 25 15 15 25 15 15 25 15 15 25 15 15 25 15 15 25 15 15 25 15 15 25 15 15 25 15 15 25 15 15 25 15 15 25 15 15 25 15 15 25 15 15 25 15 15 25 15 15 25 15 15 25 15 15 25 15 15 25 15 15 25 15 15 25 15 15 25 15 15 25 15 15 25 15 15 25 15 15 25 15 15 25 15 15 25 15 15 25 15 15 25 15 15 25 15 15 25 15 15 25 15 15 25 15 15 25 15 15 25 15 15 25 15 15 25 15 15 25 0 255 0 15 15 25 15 15 25 15 15 25 15 15 25 15 15 25 15 15 25 15 15 25 15 15 25 15 15 25 15 15 25 15 15 25 15 15 25 15 15 25 15 15 25 15 15 25 15 15 25 15 15 25 15 15 25 15 15 25 15 15 25 15 15 25 15 15 25 15 15 25 15 15 25 15 15 25 15 15 25 
15 15 25 15 15 25 15 15 25 15 15 25 15 15 25 15 15 25 15 15 25 15 15 25 15 15 25 15 15 25 15 15 25 15 15 25 15 15 25 15 15 25 15 15 25 15 15 25 15 15 25 15 15 25 15 15 25 15 15 25 255 255 0 15 15 25 15 15 25 15 15 25 15 15 25 15 15 25 15 15 25 255 0 0 15 15 25 15 15 25 15 15 25 15 15 25 15 15 25 15 15 25 15 15 25 15 15 25 15 15 25 15 15 25 15 15 25 15 15 25 15 15 25 15 15 25 15 15 25 15 15 25 15 15 25 15 15 25 15 15 25 15 15 25 15 15 25 15 15 25 15 15 25 15 15 25 15 15 25 15 15 25 15 15 25 15 15 25 15 15 25 15 15 25 15 15 25 15 15 25 15 15 25 15 15 25 15 15 25 15 15 25 15 15 25 15 15 25 15 15 25 15 15 25 15 15 25 15 15 25 15 15 25 15 15 25 15 15 25 15 15 25 15 15 25 15 15 25 15 15 25 15 15 25 15 15 25 15 15 25 15 15 25 15 15 25 15 15 25 15 15 25 15 15 25 15 15 25 15 15 25 15 15 25 15 15 25 15 15 25 15 15 25 15 15 25 15 15 25 15 15 25 15 15 25 15 15 25 15 15 25 15 15 25 15 15 25 15 15 25 255 255 0 15 15 25 15 15 25 15 15 25 15 15 25 15 15 25 15 15 25 15 15 25 15 15 25 15 15 25 15 15 25 15 15 25 15 15 25 15 15 25 15 15 25 15 15 25 15 15 25 15 15 25 15 15 25 15 15 25 15 15 25 15 15 25 15 15 25 15 15 25 15 15 25 15 15 25 15 15 25 15 15 25 15 15 25 15 15 25 15 15 25 15 15 25 15 15 25 15 15 25 15 15 25 15 15 25 15 15 25 15 15 25 15 15 25 15 15 25 15 15 25 15 15 25 15 15 25 15 15 25 15 15 25 15 15 25 15 15 25 15 15 25 15 15 25 15 15 25 15 15 25 15 15 25 15 15 25 15 15 25 15 15 25 15 15 25 15 15 25 15 15 25 15 15 25 15 15 25 15 15 25 15 15 25 15 15 25 15 15 25 15 15 25 15 15 25 15 15 25 15 15 25 15 15 25 15 15 25 15 15 25 15 15 25 15 15 25 15 15 25 15 15 25 15 15 25 15 15 25 15 15 25 15 15 25 15 15 25 15 15 25 15 15 25 15 15 25 15 15 25 15 15 25 15 15 25 15 15 25 15 15 25 15 15 25 15 15 25 15 15 25 15 15 25 15 15 25 15 15 25 15 15 25 15 15 25 15 15 25 15 15 25 15 15 25 15 15 25 15 15 25 15 15 25 15 15 25 15 15 25 15 15 25 15 15 25 15 15 25 15 15 25 15 15 25 15 15 25 15 15 25 15 15 25 15 15 25 15 15 25 15 15 25 15 15 25 15 15 25 15 15 25 15 15 25 15 15 25 15 15 25 15 15 25 15 15 25 15 15 25 15 15 25 15 15 25 15 15 25 15 15 25 0 255 0 15 15 25 15 15 25 15 15 25 15 15 25 15 15 25 15 15 25 15 15 25 15 15 25 15 15 25 15 15 25 15 15 25 15 15 25 15 15 25 15 15 25 15 15 25 15 15 25 15 15 25 15 15 25 15 15 25 15 15 25 15 15 25 15 15 25 15 15 25 15 15 25 15 15 25 15 15 25 15 15 25 
15 15 25 15 15 25 15 15 25 15 15 25 15 15 25 15 15 25 15 15 25 15 15 25 15 15 25 15 15 25 15 15 25 15 15 25 15 15 25 15 15 25 15 15 25 15 15 25 15 15 25 15 15 25 15 15 25 15 15 25 255 255 0 15 15 25 15 15 25 15 15 25 15 15 25 15 15 25 15 15 25 15 15 25 255 0 0 15 15 25 15 15 25 15 15 25 15 15 25 15 15 25 15 15 25 15 15 25 15 15 25 15 15 25 15 15 25 15 15 25 15 15 25 15 15 25 15 15 25 15 15 25 15 15 25 15 15 25 15 15 25 15 15 25 15 15 25 15 15 25 15 15 25 15 15 25 15 15 25 15 15 25 15 15 25 15 15 25 15 15 25 15 15 25 15 15 25 15 15 25 15 15 25 15 15 25 15 15 25 15 15 25 15 15 25 15 15 25 15 15 25 15 15 25 15 15 25 15 15 25 15 15 25 15 15 25 15 15 25 15 15 25 15 15 25 15 15 25 15 15 25 15 15 25 15 15 25 15 15 25 15 15 25 15 15 25 15 15 25 15 15 25 15 15 25 15 15 25 15 15 25 15 15 25 15 15 25 15 15 25 15 15 25 15 15 25 15 15 25 15 15 25 15 15 25 15 15 25 15 15 25 15 15 25 15 15 25 15 15 25 255 255 0 15 15 25 15 15 25 15 15 25 15 15 25 15 15 25 15 15 25 15 15 25 15 15 25 15 15 25 15 15 25 15 15 25 15 15 25 15 15 25 15 15 25 15 15 25 15 15 25 15 15 25 15 15 25 15 15 25 15 15 25 15 15 25 15 15 25 15 15 25 15 15 25 15 15 25 15 15 25 15 15 25 15 15 25 15 15 25 15 15 25 15 15 25 15 15 25 15 15 25 15 15 25 15 15 25 15 15 25 15 15 25 15 15 25 15 15 25 15 15 25 15 15 25 15 15 25 15 15 25 15 15 25 15 15 25 15 15 25 15 15 25 15 15 25 15 15 25 15 15 25 15 15 25 15 15 25 15 15 25 15 15 25 15 15 25 15 15 25 15 15 25 15 15 25 15 15 25 15 15 25 15 15 25 15 15 25 15 15 25 15 15 25 15 15 25 15 15 25 15 15 25 15 15 25 15 15 25 15 15 25 15 15 25 15 15 25 15 15 25 15 15 25 15 15 25 15 15 25 15 15 25 15 15 25 15 15 25 15 15 25 15 15 25 15 15 25 15 15 25 15 15 25 15 15 25 15 15 25 15 15 25 15 15 25 15 15 25 15 15 25 15 15 25 15 15 25 15 15 25 15 15 25 15 15 25 15 15 25 15 15 25 15 15 25 15 15 25 15 15 25 15 15 25 15 15 25 15 15 25 15 15 25 15 15 25 15 15 25 15 15 25 15 15 25 15 15 25 15 15 25 15 15 25 15 15 25 15 15 25 15 15 25 15 15 25 15 15 25 15 15 25 15 15 25 15 15 25 15 15 25 15 15 25 15 15 25 15 15 25 15 15 25 15 15 25 15 15 25 0 255 0 15 15 25 15 15 25 15 15 25 15 15 25 15 15 25 15 15 25 15 15 25 15 15 25 15 15 25 15 15 25 15 15 25 15 15 25 15 15 25 15 15 25 15 15 25 15 15 25 15 15 25 15 15 25 15 15 25 15 15 25 15 15 25 15 15 25 15 15 25 15 15 25 15 15 25 15 15 25 15 15 25 15 15 25 
15 15 25 15 15 25 15 15 25 15 15 25 15 15 25 15 15 25 15 15 25 15 15 25 15 15 25 15 15 25 15 15 25 15 15 25 15 15 25 15 15 25 15 15 25 15 15 25 15 15 25 15 15 25 15 15 25 15 15 25 255 255 0 15 15 25 15 15 25 15 15 25 15 15 25 15 15 25 15 15 25 15 15 25 15 15 25 255 0 0 15 15 25 15 15 25 15 15 25 15 15 25 15 15 25 15 15 25 15 15 25 15 15 25 15 15 25 15 15 25 15 15 25 15 15 25 15 15 25 15 15 25 15 15 25 15 15 25 15 15 25 15 15 25 15 15 25 15 15 25 15 15 25 15 15 25 15 15 25 15 15 25 15 15 25 15 15 25 15 15 25 15 15 25 15 15 25 15 15 25 15 15 25 15 15 25 15 15 25 15 15 25 15 15 25 15 15 25 15 15 25 15 15 25 15 15 25 15 15 25 15 15 25 15 15 25 15 15 25 15 15 25 15 15 25 15 15 25 15 15 25 15 15 25 15 15 25 15 15 25 15 15 25 15 15 25 15 15 25 15 15 25 15 15 25 15 15 25 15 15 25 15 15 25 15 15 25 15 15 25 15 15 25 15 15 25 15 15 25 15 15 25 15 15 25 15 15 25 15 15 25 15 15 25 15 15 25 15 15 25 255 255 0 15 15 25 15 15 25 15 15 25 15 15 25 15 15 25 15 15 25 15 15 25 15 15 25 15 15 25 15 15 25 15 15 25 15 15 25 15 15 25 15 15 25 15 15 25 15 15 25 15 15 25 15 15 25 15 15 25 15 15 25 15 15 25 15 15 25 15 15 25 15 15 25 15 15 25 15 15 25 15 15 25 15 15 25 15 15 25 15 15 25 15 15 25 15 15 25 15 15 25 15 15 25 15 15 25 15 15 25 15 15 25 15 15 25 15 15 25 15 15 25 15 15 25 15 15 25 15 15 25 15 15 25 15 15 25 15 15 25 15 15 25 15 15 25 15 15 25 15 15 25 15 15 25 15 15 25 15 15 25 15 15 25 15 15 25 15 15 25 15 15 25 15 15 25 15 15 25 15 15 25 15 15 25 15 15 25 15 15 25 15 15 25 15 15 25 15 15 25 15 15 25 15 15 25 15 15 25 15 15 25 15 15 25 15 15 25 15 15 25 15 15 25 15 15 25 15 15 25 15 15 25 15 15 25 15 15 25 15 15 25 15 15 25 15 15 25 15 15 25 15 15 25 15 15 25 15 15 25 15 15 25 15 15 25 15 15 25 15 15 25 15 15 25 15 15 25 15 15 25 15 15 25 15 15 25 15 15 25 15 15 25 15 15 25 15 15 25 15 15 25 15 15 25 15 15 25 15 15 25 15 15 25 15 15 25 15 15 25 15 15 25 15 15 25 15 15 25 15 15 25 15 15 25 15 15 25 15 15 25 15 15 25 15 15 25 15 15 25 15 15 25 15 15 25 15 15 25 15 15 25 15 15 25 15 15 25 15 15 25 15 15 25 15 15 25 0 255 0 15 15 25 15 15 25 15 15 25 15 15 25 15 15 25 15 15 25 15 15 25 15 15 25 15 15 25 15 15 25 15 15 25 15 15 25 15 15 25 15 15 25 15 15 25 15 15 25 15 15 25 15 15 25 15 15 25 15 15 25 15 15 25 15 15 25 15 15 25 15 15 25 15 15 25 15 15 25 15 15 25 15 15 25 15 15 25 
15 15 25 15 15 25 15 15 25 15 15 25 15 15 25 15 15 25 15 15 25 15 15 25 15 15 25 15 15 25 15 15 25 15 15 25 15 15 25 15 15 25 15 15 25 15 15 25 15 15 25 15 15 25 15 15 25 15 15 25 255 255 0 15 15 25 15 15 25 15 15 25 15 15 25 15 15 25 15 15 25 15 15 25 15 15 25 15 15 25 60 60 255 60 60 255 60 60 255 60 60 255 60 60 255 60 60 255 60 60 255 60 60 255 60 60 255 60 60 255 60 60 255 60 60 255 60 60 255 60 60 255 60 60 255 60 60 255 60 60 255 60 60 255 60 60 255 60 60 255 60 60 255 60 60 255 60 60 255 60 60 255 60 60 255 60 60 255 60 60 255 60 60 255 60 60 255 60 60 255 60 60 255 60 60 255 60 60 255 60 60 255 60 60 255 60 60 255 60 60 255 60 60 255 60 60 255 60 60 255 60 60 255 60 60 255 60 60 255 60 60 255 60 60 255 60 60 255 60 60 255 60 60 255 60 60 255 60 60 255 60 60 255 60 60 255 60 60 255 60 60 255 60 60 255 60 60 255 60 60 255 60 60 255 60 60 255 60 60 255 15 15 25 15 15 25 15 15 25 15 15 25 15 15 25 15 15 25 15 15 25 15 15 25 15 15 25 15 15 25 255 255 0 15 15 25 15 15 25 15 15 25 15 15 25 15 15 25 15 15 25 15 15 25 15 15 25 15 15 25 15 15 25 15 15 25 15 15 25 15 15 25 15 15 25 15 15 25 15 15 25 15 15 25 15 15 25 15 15 25 15 15 25 15 15 25 15 15 25 15 15 25 15 15 25 15 15 25 15 15 25 15 15 25 15 15 25 15 15 25 15 15 25 15 15 25 15 15 25 15 15 25 15 15 25 15 15 25 15 15 25 15 15 25 15 15 25 15 15 25 15 15 25 15 15 25 15 15 25 15 15 25 15 15 25 15 15 25 15 15 25 15 15 25 15 15 25 15 15 25 15 15 25 15 15 25 15 15 25 15 15 25 15 15 25 15 15 25 15 15 25 15 15 25 15 15 25 15 15 25 15 15 25 15 15 25 15 15 25 15 15 25 15 15 25 15 15 25 15 15 25 15 15 25 15 15 25 15 15 25 15 15 25 15 15 25 15 15 25 15 15 25 255 0 255 255 0 255 255 0 255 255 0 255 255 0 255 255 0 255 255 0 255 255 0 255 255 0 255 255 0 255 255 0 255 255 0 255 255 0 255 15 15 25 15 15 25 15 15 25 15 15 25 15 15 25 15 15 25 15 15 25 15 15 25 15 15 25 15 15 25 15 15 25 15 15 25 15 15 25 15 15 25 15 15 25 15 15 25 15 15 25 15 15 25 15 15 25 15 15 25 15 15 25 15 15 25 15 15 25 15 15 25 15 15 25 15 15 25 15 15 25 15 15 25 15 15 25 15 15 25 15 15 25 15 15 25 15 15 25 15 15 25 15 15 25 15 15 25 15 15 25 15 15 25 0 255 0 15 15 25 15 15 25 15 15 25 15 15 25 15 15 25 15 15 25 15 15 25 15 15 25 15 15 25 15 15 25 15 15 25 15 15 25 15 15 25 15 15 25 15 15 25 15 15 25 15 15 25 15 15 25 15 15 25 15 15 25 15 15 25 15 15 25 15 15 25 15 15 25 15 15 25 15 15 25 15 15 25 15 15 25 15 15 25 15 15 25 
15 15 25 15 15 25 15 15 25 15 15 25 15 15 25 15 15 25 15 15 25 15 15 25 15 15 25 15 15 25 15 15 25 15 15 25 15 15 25 15 15 25 15 15 25 15 15 25 15 15 25 15 15 25 15 15 25 15 15 25 255 255 0 15 15 25 15 15 25 15 15 25 15 15 25 15 15 25 15 15 25 15 15 25 15 15 25 15 15 25 60 60 255 60 60 255 60 60 255 60 60 255 60 60 255 60 60 255 60 60 255 60 60 255 60 60 255 60 60 255 60 60 255 60 60 255 60 60 255 60 60 255 60 60 255 60 60 255 60 60 255 60 60 255 60 60 255 60 60 255 60 60 255 60 60 255 60 60 255 60 60 255 60 60 255 60 60 255 60 60 255 60 60 255 60 60 255 60 60 255 60 60 255 60 60 255 60 60 255 60 60 255 60 60 255 60 60 255 60 60 255 60 60 255 60 60 255 60 60 255 60 60 255 60 60 255 60 60 255 60 60 255 60 60 255 60 60 255 60 60 255 60 60 255 60 60 255 60 60 255 60 60 255 60 60 255 60 60 255 60 60 255 60 60 255 60 60 255 60 60 255 60 60 255 60 60 255 60 60 255 15 15 25 15 15 25 15 15 25 15 15 25 15 15 25 15 15 25 15 15 25 15 15 25 15 15 25 15 15 25 255 255 0 15 15 25 15 15 25 15 15 25 15 15 25 15 15 25 15 15 25 15 15 25 15 15 25 15 15 25 15 15 25 15 15 25 15 15 25 15 15 25 15 15 25 15 15 25 15 15 25 15 15 25 15 15 25 15 15 25 15 15 25 15 15 25 15 15 25 15 15 25 15 15 25 15 15 25 15 15 25 15 15 25 15 15 25 15 15 25 15 15 25 15 15 25 15 15 25 15 15 25 15 15 25 15 15 25 15 15 25 15 15 25 15 15 25 15 15 25 15 15 25 15 15 25 15 15 25 15 15 25 15 15 25 15 15 25 15 15 25 15 15 25 15 15 25 15 15 25 15 15 25 15 15 25 15 15 25 15 15 25 15 15 25 15 15 25 15 15 25 15 15 25 15 15 25 15 15 25 15 15 25 15 15 25 15 15 25 15 15 25 15 15 25 15 15 25 15 15 25 15 15 25 15 15 25 15 15 25 255 0 255 255 0 255 255 0 255 255 0 255 15 15 25 15 15 25 15 15 25 15 15 25 15 15 25 15 15 25 15 15 25 15 15 25 15 15 25 15 15 25 15 15 25 15 15 25 15 15 25 255 0 255 255 0 255 255 0 255 255 0 255 15 15 25 15 15 25 15 15 25 15 15 25 15 15 25 15 15 25 15 15 25 15 15 25 15 15 25 15 15 25 15 15 25 15 15 25 15 15 25 15 15 25 15 15 25 15 15 25 15 15 25 15 15 25 15 15 25 15 15 25 15 15 25 15 15 25 15 15 25 15 15 25 15 15 25 15 15 25 15 15 25 15 15 25 15 15 25 15 15 25 15 15 25 15 15 25 15 15 25 0 255 0 15 15 25 15 15 25 15 15 25 15 15 25 15 15 25 15 15 25 15 15 25 15 15 25 15 15 25 15 15 25 15 15 25 15 15 25 15 15 25 15 15 25 15 15 25 15 15 25 15 15 25 15 15 25 15 15 25 15 15 25 15 15 25 15 15 25 15 15 25 15 15 25 15 15 25 15 15 25 15 15 25 15 15 25 15 15 25 15 15 25 15 15 25 
15 15 25 15 15 25 15 15 25 15 15 25 15 15 25 15 15 25 15 15 25 15 15 25 15 15 25 15 15 25 15 15 25 15 15 25 15 15 25 15 15 25 15 15 25 15 15 25 15 15 25 15 15 25 15 15 25 15 15 25 255 255 0 15 15 25 15 15 25 15 15 25 15 15 25 15 15 25 15 15 25 15 15 25 15 15 25 15 15 25 60 60 255 60 60 255 60 60 255 60 60 255 60 60 255 60 60 255 60 60 255 60 60 255 60 60 255 60 60 255 60 60 255 60 60 255 60 60 255 60 60 255 60 60 255 60 60 255 60 60 255 60 60 255 60 60 255 60 60 255 60 60 255 60 60 255 60 60 255 60 60 255 60 60 255 60 60 255 60 60 255 60 60 255 60 60 255 60 60 255 60 60 255 60 60 255 60 60 255 60 60 255 60 60 255 60 60 255 60 60 255 60 60 255 60 60 255 60 60 255 60 60 255 60 60 255 60 60 255 60 60 255 60 60 255 60 60 255 60 60 255 60 60 255 60 60 255 60 60 255 60 60 255 60 60 255 60 60 255 60 60 255 60 60 255 60 60 255 60 60 255 60 60 255 60 60 255 60 60 255 15 15 25 15 15 25 15 15 25 15 15 25 15 15 25 15 15 25 15 15 25 15 15 25 15 15 25 15 15 25 255 255 0 15 15 25 15 15 25 15 15 25 15 15 25 15 15 25 15 15 25 15 15 25 15 15 25 15 15 25 15 15 25 15 15 25 15 15 25 15 15 25 15 15 25 15 15 25 15 15 25 15 15 25 15 15 25 15 15 25 15 15 25 15 15 25 15 15 25 15 15 25 15 15 25 15 15 25 15 15 25 15 15 25 15 15 25 15 15 25 15 15 25 15 15 25 15 15 25 15 15 25 15 15 25 15 15 25 15 15 25 15 15 25 15 15 25 15 15 25 15 15 25 15 15 25 15 15 25 15 15 25 15 15 25 15 15 25 15 15 25 15 15 25 15 15 25 15 15 25 15 15 25 15 15 25 15 15 25 15 15 25 15 15 25 15 15 25 15 15 25 15 15 25 15 15 25 15 15 25 15 15 25 15 15 25 15 15 25 15 15 25 15 15 25 15 15 25 15 15 25 255 0 255 255 0 255 255 0 255 15 15 25 15 15 25 15 15 25 15 15 25 15 15 25 15 15 25 15 15 25 15 15 25 15 15 25 15 15 25 15 15 25 15 15 25 15 15 25 15 15 25 15 15 25 15 15 25 15 15 25 15 15 25 15 15 25 15 15 25 15 15 25 255 0 255 255 0 255 255 0 255 15 15 25 15 15 25 15 15 25 15 15 25 15 15 25 15 15 25 15 15 25 15 15 25 15 15 25 15 15 25 15 15 25 15 15 25 15 15 25 15 15 25 15 15 25 15 15 25 15 15 25 15 15 25 15 15 25 15 15 25 15 15 25 15 15 25 15 15 25 15 15 25 15 15 25 15 15 25 15 15 25 15 15 25 15 15 25 0 255 0 15 15 25 15 15 25 15 15 25 15 15 25 15 15 25 15 15 25 15 15 25 15 15 25 15 15 25 15 15 25 15 15 25 15 15 25 15 15 25 15 15 25 15 15 25 15 15 25 15 15 25 15 15 25 15 15 25 15 15 25 15 15 25 15 15 25 15 15 25 15 15 25 15 15 25 15 15 25 15 15 25 15 15 25 15 15 25 15 15 25 15 15 25 15 15 25 
15 15 25 15 15 25 15 15 25 15 15 25 15 15 25 15 15 25 15 15 25 15 15 25 15 15 25 15 15 25 15 15 25 15 15 25 15 15 25 15 15 25 15 15 25 15 15 25 15 15 25 15 15 25 15 15 25 15 15 25 255 255 0 15 15 25 15 15 25 15 15 25 15 15 25 15 15 25 15 15 25 15 15 25 15 15 25 15 15 25 60 60 255 60 60 255 60 60 255 60 60 255 60 60 255 60 60 255 60 60 255 60 60 255 60 60 255 60 60 255 60 60 255 60 60 255 60 60 255 60 60 255 60 60 255 60 60 255 60 60 255 60 60 255 60 60 255 60 60 255 60 60 255 60 60 255 60 60 255 60 60 255 60 60 255 60 60 255 60 60 255 60 60 255 60 60 255 60 60 255 60 60 255 60 60 255 60 60 255 60 60 255 60 60 255 60 60 255 60 60 255 60 60 255 60 60 255 60 60 255 60 60 255 60 60 255 60 60 255 60 60 255 60 60 255 60 60 255 60 60 255 60 60 255 60 60 255 60 60 255 60 60 255 60 60 255 60 60 255 60 60 255 60 60 255 60 60 255 60 60 255 60 60 255 60 60 255 60 60 255 15 15 25 15 15 25 15 15 25 15 15 25 15 15 25 15 15 25 15 15 25 15 15 25 15 15 25 15 15 25 255 255 0 15 15 25 15 15 25 15 15 25 15 15 25 15 15 25 15 15 25 15 15 25 15 15 25 15 15 25 15 15 25 15 15 25 15 15 25 15 15 25 15 15 25 15 15 25 15 15 25 15 15 25 15 15 25 15 15 25 15 15 25 15 15 25 15 15 25 15 15 25 15 15 25 15 15 25 15 15 25 15 15 25 15 15 25 15 15 25 15 15 25 15 15 25 15 15 25 15 15 25 15 15 25 15 15 25 15 15 25 15 15 25 15 15 25 15 15 25 15 15 25 15 15 25 15 15 25 15 15 25 15 15 25 15 15 25 15 15 25 15 15 25 15 15 25 15 15 25 15 15 25 15 15 25 15 15 25 15 15 25 15 15 25 15 15 25 15 15 25 15 15 25 15 15 25 15 15 25 15 15 25 15 15 25 15 15 25 15 15 25 255 0 255 255 0 255 255 0 255 15 15 25 15 15 25 15 15 25 15 15 25 15 15 25 15 15 25 15 15 25 15 15 25 15 15 25 15 15 25 15 15 25 15 15 25 15 15 25 15 15 25 15 15 25 15 15 25 15 15 25 15 15 25 15 15 25 15 15 25 15 15 25 15 15 25 15 15 25 15 15 25 15 15 25 15 15 25 15 15 25 255 0 255 255 0 255 255 0 255 15 15 25 15 15 25 15 15 25 15 15 25 15 15 25 15 15 25 15 15 25 15 15 25 15 15 25 15 15 25 15 15 25 15 15 25 15 15 25 15 15 25 15 15 25 15 15 25 15 15 25 15 15 25 15 15 25 15 15 25 15 15 25 15 15 25 15 15 25 15 15 25 15 15 25 0 255 0 15 15 25 15 15 25 15 15 25 15 15 25 15 15 25 15 15 25 15 15 25 15 15 25 15 15 25 15 15 25 15 15 25 15 15 25 15 15 25 15 15 25 15 15 25 15 15 25 15 15 25 15 15 25 15 15 25 15 15 25 15 15 25 15 15 25 15 15 25 15 15 25 15 15 25 15 15 25 15 15 25 15 15 25 15 15 25 15 15 25 15 15 25 15 15 25 15 15 25 
15 15 25 15 15 25 15 15 25 15 15 25 15 15 25 15 15 25 15 15 25 15 15 25 15 15 25 15 15 25 15 15 25 15 15 25 15 15 25 15 15 25 15 15 25 15 15 25 15 15 25 15 15 25 15 15 25 15 15 25 255 255 0 15 15 25 15 15 25 15 15 25 15 15 25 15 15 25 15 15 25 15 15 25 15 15 25 15 15 25 60 60 255 60 60 255 60 60 255 60 60 255 60 60 255 60 60 255 60 60 255 60 60 255 60 60 255 60 60 255 60 60 255 60 60 255 60 60 255 60 60 255 60 60 255 60 60 255 60 60 255 60 60 255 60 60 255 60 60 255 60 60 255 60 60 255 60 60 255 60 60 255 60 60 255 60 60 255 60 60 255 60 60 255 60 60 255 60 60 255 60 60 255 60 60 255 60 60 255 60 60 255 60 60 255 60 60 255 60 60 255 60 60 255 60 60 255 60 60 255 60 60 255 60 60 255 60 60 255 60 60 255 60 60 255 60 60 255 60 60 255 60 60 255 60 60 255 60 60 255 60 60 255 60 60 255 60 60 255 60 60 255 60 60 255 60 60 255 60 60 255 60 60 255 60 60 255 60 60 255 15 15 25 15 15 25 15 15 25 15 15 25 15 15 25 15 15 25 15 15 25 15 15 25 15 15 25 15 15 25 255 255 0 15 15 25 15 15 25 15 15 25 15 15 25 15 15 25 15 15 25 15 15 25 15 15 25 15 15 25 15 15 25 15 15 25 15 15 25 15 15 25 15 15 25 15 15 25 15 15 25 15 15 25 15 15 25 15 15 25 15 15 25 15 15 25 15 15 25 15 15 25 15 15 25 15 15 25 15 15 25 15 15 25 15 15 25 15 15 25 15 15 25 15 15 25 15 15 25 15 15 25 15 15 25 15 15 25 15 15 25 15 15 25 15 15 25 15 15 25 15 15 25 15 15 25 15 15 25 15 15 25 15 15 25 15 15 25 15 15 25 15 15 25 15 15 25 15 15 25 15 15 25 15 15 25 15 15 25 15 15 25 15 15 25 15 15 25 15 15 25 15 15 25 15 15 25 15 15 25 15 15 25 15 15 25 255 0 255 255 0 255 15 15 25 15 15 25 15 15 25 15 15 25 15 15 25 15 15 25 15 15 25 15 15 25 15 15 25 15 15 25 15 15 25 15 15 25 15 15 25 15 15 25 15 15 25 15 15 25 15 15 25 15 15 25 15 15 25 15 15 25 15 15 25 15 15 25 15 15 25 15 15 25 15 15 25 15 15 25 15 15 25 15 15 25 15 15 25 15 15 25 15 15 25 15 15 25 15 15 25 255 0 255 255 0 255 15 15 25 15 15 25 15 15 25 15 15 25 15 15 25 15 15 25 15 15 25 15 15 25 15 15 25 15 15 25 15 15 25 15 15 25 15 15 25 15 15 25 15 15 25 15 15 25 15 15 25 15 15 25 15 15 25 15 15 25 15 15 25 15 15 25 0 255 0 15 15 25 15 15 25 15 15 25 15 15 25 15 15 25 15 15 25 15 15 25 15 15 25 15 15 25 15 15 25 15 15 25 15 15 25 15 15 25 15 15 25 15 15 25 15 15 25 15 15 25 15 15 25 15 15 25 15 15 25 15 15 25 15 15 25 15 15 25 15 15 25 15 15 25 15 15 25 15 15 25 15 15 25 15 15 25 15 15 25 15 15 25 15 15 25 15 15 25 15 15 25 
15 15 25 15 15 25 15 15 25 15 15 25 15 15 25 15 15 25 15 15 25 15 15 25 15 15 25 15 15 25 15 15 25 15 15 25 15 15 25 15 15 25 15 15 25 15 15 25 15 15 25 15 15 25 15 15 25 15 15 25 255 255 0 15 15 25 15 15 25 15 15 25 15 15 25 15 15 25 15 15 25 15 15 25 15 15 25 15 15 25 60 60 255 60 60 255 60 60 255 60 60 255 60 60 255 60 60 255 60 60 255 60 60 255 60 60 255 60 60 255 60 60 255 60 60 255 60 60 255 60 60 255 60 60 255 60 60 255 60 60 255 60 60 255 60 60 255 60 60 255 60 60 255 60 60 255 60 60 255 60 60 255 60 60 255 60 60 255 60 60 255 60 60 255 60 60 255 60 60 255 60 60 255 60 60 255 60 60 255 60 60 255 60 60 255 60 60 255 60 60 255 60 60 255 60 60 255 60 60 255 60 60 255 60 60 255 60 60 255 60 60 255 60 60 255 60 60 255 60 60 255 60 60 255 60 60 255 60 60 255 60 60 255 60 60 255 60 60 255 60 60 255 60 60 255 60 60 255 60 60 255 60 60 255 60 60 255 60 60 255 15 15 25 15 15 25 15 15 25 15 15 25 15 15 25 15 15 25 15 15 25 15 15 25 15 15 25 15 15 25 255 255 0 15 15 25 15 15 25 15 15 25 15 15 25 15 15 25 15 15 25 15 15 25 15 15 25 15 15 25 15 15 25 15 15 25 15 15 25 15 15 25 15 15 25 15 15 25 15 15 25 15 15 25 15 15 25 15 15 25 15 15 25 15 15 25 15 15 25 15 15 25 15 15 25 15 15 25 15 15 25 15 15 25 15 15 25 15 15 25 15 15 25 15 15 25 15 15 25 15 15 25 15 15 25 15 15 25 15 15 25 15 15 25 15 15 25 15 15 25 15 15 25 15 15 25 15 15 25 15 15 25 15 15 25 15 15 25 15 15 25 15 15 25 15 15 25 15 15 25 15 15 25 15 15 25 15 15 25 15 15 25 15 15 25 15 15 25 15 15 25 15 15 25 15 15 25 15 15 25 255 0 255 255 0 255 15 15 25 15 15 25 15 15 25 15 15 25 15 15 25 15 15 25 15 15 25 15 15 25 15 15 25 15 15 25 15 15 25 15 15 25 15 15 25 15 15 25 15 15 25 15 15 25 15 15 25 15 15 25 15 15 25 15 15 25 15 15 25 15 15 25 15 15 25 15 15 25 15 15 25 15 15 25 15 15 25 15 15 25 15 15 25 15 15 25 15 15 25 15 15 25 15 15 25 15 15 25 15 15 25 15 15 25 15 15 25 255 0 255 255 0 255 15 15 25 15 15 25 15 15 25 15 15 25 15 15 25 15 15 25 15 15 25 15 15 25 15 15 25 15 15 25 15 15 25 15 15 25 15 15 25 15 15 25 15 15 25 15 15 25 15 15 25 15 15 25 15 15 25 0 255 0 15 15 25 15 15 25 15 15 25 15 15 25 15 15 25 15 15 25 15 15 25 15 15 25 15 15 25 15 15 25 15 15 25 15 15 25 15 15 25 15 15 25 15 15 25 15 15 25 15 15 25 15 15 25 15 15 25 15 15 25 15 15 25 15 15 25 15 15 25 15 15 25 15 15 25 15 15 25 15 15 25 15 15 25 15 15 25 15 15 25 15 15 25 15 15 25 15 15 25 15 15 25 15 15 25 
15 15 25 15 15 25 15 15 25 15 15 25 15 15 25 15 15 25 15 15 25 15 15 25 15 15 25 15 15 25 15 15 25 15 15 25 15 15 25 15 15 25 15 15 25 15 15 25 15 15 25 15 15 25 15 15 25 15 15 25 255 255 0 15 15 25 15 15 25 15 15 25 15 15 25 15 15 25 15 15 25 15 15 25 15 15 25 15 15 25 60 60 255 60 60 255 60 60 255 60 60 255 60 60 255 60 60 255 60 60 255 60 60 255 60 60 255 60 60 255 60 60 255 60 60 255 60 60 255 60 60 255 60 60 255 60 60 255 60 60 255 60 60 255 60 60 255 60 60 255 60 60 255 60 60 255 60 60 255 60 60 255 60 60 255 60 60 255 60 60 255 60 60 255 60 60 255 60 60 255 60 60 255 60 60 255 60 60 255 60 60 255 60 60 255 60 60 255 60 60 255 60 60 255 60 60 255 60 60 255 60 60 255 60 60 255 60 60 255 60 60 255 60 60 255 60 60 255 60 60 255 60 60 255 60 60 255 60 60 255 60 60 255 60 60 255 60 60 255 60 60 255 60 60 255 60 60 255 60 60 255 60 60 255 60 60 255 60 60 255 15 15 25 15 15 25 15 15 25 15 15 25 15 15 25 15 15 25 15 15 25 15 15 25 15 15 25 15 15 25 255 255 0 15 15 25 15 15 25 15 15 25 15 15 25 15 15 25 15 15 25 15 15 25 15 15 25 15 15 25 15 15 25 15 15 25 15 15 25 15 15 25 15 15 25 15 15 25 15 15 25 15 15 25 15 15 25 15 15 25 15 15 25 15 15 25 15 15 25 15 15 25 15 15 25 15 15 25 15 15 25 15 15 25 15 15 25 15 15 25 15 15 25 15 15 25 15 15 25 15 15 25 15 15 25 15 15 25 15 15 25 15 15 25 15 15 25 15 15 25 15 15 25 15 15 25 15 15 25 15 15 25 15 15 25 15 15 25 15 15 25 15 15 25 15 15 25 15 15 25 15 15 25 15 15 25 15 15 25 15 15 25 15 15 25 15 15 25 15 15 25 15 15 25 15 15 25 255 0 255 15 15 25 15 15 25 15 15 25 15 15 25 15 15 25 15 15 25 15 15 25 15 15 25 15 15 25 15 15 25 15 15 25 15 15 25 15 15 25 15 15 25 15 15 25 15 15 25 15 15 25 15 15 25 15 15 25 15 15 25 15 15 25 15 15 25 15 15 25 15 15 25 15 15 25 15 15 25 15 15 25 15 15 25 15 15 25 15 15 25 15 15 25 15 15 25 15 15 25 15 15 25 15 15 25 15 15 25 15 15 25 15 15 25 15 15 25 15 15 25 15 15 25 255 0 255 15 15 25 15 15 25 15 15 25 15 15 25 15 15 25 15 15 25 15 15 25 15 15 25 15 15 25 15 15 25 15 15 25 15 15 25 15 15 25 15 15 25 15 15 25 15 15 25 15 15 25 0 255 0 15 15 25 15 15 25 15 15 25 15 15 25 15 15 25 15 15 25 15 15 25 15 15 25 15 15 25 15 15 25 15 15 25 15 15 25 15 15 25 15 15 25 15 15 25 15 15 25 15 15 25 15 15 25 15 15 25 15 15 25 15 15 25 15 15 25 15 15 25 15 15 25 15 15 25 15 15 25 15 15 25 15 15 25 15 15 25 15 15 25 15 15 25 15 15 25 15 15 25 15 15 25 15 15 25 15 15 25 
15 15 25 15 15 25 15 15 25 15 15 25 15 15 25 15 15 25 15 15 25 15 15 25 15 15 25 15 15 25 15 15 25 15 15 25 15 15 25 15 15 25 15 15 25 15 15 25 15 15 25 15 15 25 15 15 25 15 15 25 255 255 0 15 15 25 15 15 25 15 15 25 15 15 25 15 15 25 15 15 25 15 15 25 15 15 25 15 15 25 60 60 255 60 60 255 60 60 255 60 60 255 60 60 255 60 60 255 60 60 255 60 60 255 60 60 255 60 60 255 60 60 255 60 60 255 60 60 255 60 60 255 60 60 255 60 60 255 60 60 255 60 60 255 60 60 255 60 60 255 60 60 255 60 60 255 60 60 255 60 60 255 60 60 255 60 60 255 60 60 255 60 60 255 60 60 255 60 60 255 60 60 255 60 60 255 60 60 255 60 60 255 60 60 255 60 60 255 60 60 255 60 60 255 60 60 255 60 60 255 60 60 255 60 60 255 60 60 255 60 60 255 60 60 255 60 60 255 60 60 255 60 60 255 60 60 255 60 60 255 60 60 255 60 60 255 60 60 255 60 60 255 60 60 255 60 60 255 60 60 255 60 60 255 60 60 255 60 60 255 15 15 25 15 15 25 15 15 25 15 15 25 15 15 25 15 15 25 15 15 25 15 15 25 15 15 25 15 15 25 255 255 0 15 15 25 15 15 25 15 15 25 15 15 25 15 15 25 15 15 25 15 15 25 15 15 25 15 15 25 15 15 25 15 15 25 15 15 25 15 15 25 15 15 25 15 15 25 15 15 25 15 15 25 15 15 25 15 15 25 15 15 25 15 15 25 15 15 25 15 15 25 15 15 25 15 15 25 15 15 25 15 15 25 15 15 25 15 15 25 15 15 25 15 15 25 15 15 25 15 15 25 15 15 25 15 15 25 15 15 25 15 15 25 15 15 25 15 15 25 15 15 25 15 15 25 15 15 25 15 15 25 15 15 25 15 15 25 15 15 25 15 15 25 15 15 25 15 15 25 15 15 25 15 15 25 15 15 25 15 15 25 15 15 25 15 15 25 15 15 25 255 0 255 255 0 255 15 15 25 15 15 25 15 15 25 15 15 25 15 15 25 15 15 25 15 15 25 15 15 25 15 15 25 15 15 25 15 15 25 15 15 25 15 15 25 15 15 25 15 15 25 15 15 25 15 15 25 15 15 25 15 15 25 15 15 25 15 15 25 15 15 25 15 15 25 15 15 25 15 15 25 15 15 25 15 15 25 15 15 25 15 15 25 15 15 25 15 15 25 15 15 25 15 15 25 15 15 25 15 15 25 15 15 25 15 15 25 15 15 25 15 15 25 15 15 25 15 15 25 15 15 25 15 15 25 255 0 255 255 0 255 15 15 25 15 15 25 15 15 25 15 15 25 15 15 25 15 15 25 15 15 25 15 15 25 15 15 25 15 15 25 15 15 25 15 15 25 15 15 25 15 15 25 0 255 0 15 15 25 15 15 25 15 15 25 15 15 25 15 15 25 15 15 25 15 15 25 15 15 25 15 15 25 15 15 25 15 15 25 15 15 25 15 15 25 15 15 25 15 15 25 15 15 25 15 15 25 15 15 25 15 15 25 15 15 25 15 15 25 15 15 25 15 15 25 15 15 25 15 15 25 15 15 25 15 15 25 15 15 25 15 15 25 15 15 25 15 15 25 15 15 25 15 15 25 15 15 25 15 15 25 15 15 25 15 15 25 
15 15 25 15 15 25 15 15 25 15 15 25 15 15 25 15 15 25 15 15 25 15 15 25 15 15 25 15 15 25 15 15 25 15 15 25 15 15 25 15 15 25 15 15 25 15 15 25 15 15 25 15 15 25 15 15 25 15 15 25 255 255 0 15 15 25 15 15 25 15 15 25 15 15 25 15 15 25 15 15 25 15 15 25 15 15 25 15 15 25 60 60 255 60 60 255 60 60 255 60 60 255 60 60 255 60 60 255 60 60 255 60 60 255 60 60 255 60 60 255 60 60 255 60 60 255 60 60 255 60 60 255 60 60 255 60 60 255 60 60 255 60 60 255 60 60 255 60 60 255 60 60 255 60 60 255 60 60 255 60 60 255 60 60 255 60 60 255 60 60 255 60 60 255 60 60 255 60 60 255 60 60 255 60 60 255 60 60 255 60 60 255 60 60 255 60 60 255 60 60 255 60 60 255 60 60 255 60 60 255 60 60 255 60 60 255 60 60 255 60 60 255 60 60 255 60 60 255 60 60 255 60 60 255 60 60 255 60 60 255 60 60 255 60 60 255 60 60 255 60 60 255 60 60 255 60 60 255 60 60 255 60 60 255 60 60 255 60 60 255 15 15 25 15 15 25 15 15 25 15 15 25 15 15 25 15 15 25 15 15 25 15 15 25 15 15 25 15 15 25 255 255 0 15 15 25 15 15 25 15 15 25 15 15 25 15 15 25 15 15 25 15 15 25 15 15 25 15 15 25 15 15 25 15 15 25 15 15 25 15 15 25 15 15 25 15 15 25 15 15 25 15 15 25 15 15 25 15 15 25 15 15 25 15 15 25 15 15 25 15 15 25 15 15 25 15 15 25 15 15 25 15 15 25 15 15 25 15 15 25 15 15 25 15 15 25 15 15 25 15 15 25 15 15 25 15 15 25 15 15 25 15 15 25 15 15 25 15 15 25 15 15 25 15 15 25 15 15 25 15 15 25 15 15 25 15 15 25 15 15 25 15 15 25 15 15 25 15 15 25 15 15 25 15 15 25 15 15 25 15 15 25 15 15 25 15 15 25 255 0 255 15 15 25 15 15 25 15 15 25 15 15 25 15 15 25 15 15 25 15 15 25 15 15 25 15 15 25 15 15 25 15 15 25 15 15 25 15 15 25 15 15 25 15 15 25 15 15 25 15 15 25 15 15 25 15 15 25 15 15 25 15 15 25 15 15 25 15 15 25 15 15 25 15 15 25 15 15 25 15 15 25 15 15 25 15 15 25 15 15 25 15 15 25 15 15 25 15 15 25 15 15 25 15 15 25 15 15 25 15 15 25 15 15 25 15 15 25 15 15 25 15 15 25 15 15 25 15 15 25 15 15 25 15 15 25 15 15 25 15 15 25 255 0 255 15 15 25 15 15 25 15 15 25 15 15 25 15 15 25 15 15 25 15 15 25 15 15 25 15 15 25 15 15 25 15 15 25 15 15 25 0 255 0 15 15 25 15 15 25 15 15 25 15 15 25 15 15 25 15 15 25 15 15 25 15 15 25 15 15 25 15 15 25 15 15 25 15 15 25 15 15 25 15 15 25 15 15 25 15 15 25 15 15 25 15 15 25 15 15 25 15 15 25 15 15 25 15 15 25 15 15 25 15 15 25 15 15 25 15 15 25 15 15 25 15 15 25 15 15 25 15 15 25 15 15 25 15 15 25 15 15 25 15 15 25 15 15 25 15 15 25 15 15 25 15 15 25 
15 15 25 15 15 25 15 15 25 15 15 25 15 15 25 15 15 25 15 15 25 15 15 25 15 15 25 15 15 25 15 15 25 15 15 25 15 15 25 15 15 25 15 15 25 15 15 25 15 15 25 15 15 25 15 15 25 15 15 25 255 255 0 15 15 25 15 15 25 15 15 25 15 15 25 15 15 25 15 15 25 15 15 25 15 15 25 15 15 25 60 60 255 60 60 255 60 60 255 60 60 255 60 60 255 60 60 255 60 60 255 60 60 255 60 60 255 60 60 255 60 60 255 60 60 255 60 60 255 60 60 255 60 60 255 60 60 255 60 60 255 60 60 255 60 60 255 60 60 255 60 60 255 60 60 255 60 60 255 60 60 255 60 60 255 60 60 255 60 60 255 60 60 255 60 60 255 60 60 255 60 60 255 60 60 255 60 60 255 60 60 255 60 60 255 60 60 255 60 60 255 60 60 255 60 60 255 60 60 255 60 60 255 60 60 255 60 60 255 60 60 255 60 60 255 60 60 255 60 60 255 60 60 255 60 60 255 60 60 255 60 60 255 60 60 255 60 60 255 60 60 255 60 60 255 60 60 255 60 60 255 60 60 255 60 60 255 60 60 255 15 15 25 15 15 25 15 15 25 15 15 25 15 15 25 15 15 25 15 15 25 15 15 25 15 15 25 15 15 25 255 255 0 15 15 25 15 15 25 15 15 25 15 15 25 15 15 25 15 15 25 15 15 25 15 15 25 15 15 25 15 15 25 15 15 25 15 15 25 15 15 25 15 15 25 15 15 25 15 15 25 15 15 25 15 15 25 15 15 25 15 15 25 15 15 25 15 15 25 15 15 25 15 15 25 15 15 25 15 15 25 15 15 25 15 15 25 15 15 25 15 15 25 15 15 25 15 15 25 15 15 25 15 15 25 15 15 25 15 15 25 15 15 25 15 15 25 15 15 25 15 15 25 15 15 25 15 15 25 15 15 25 15 15 25 15 15 25 15 15 25 15 15 25 15 15 25 15 15 25 15 15 25 15 15 25 15 15 25 15 15 25 15 15 25 255 0 255 15 15 25 15 15 25 15 15 25 15 15 25 15 15 25 15 15 25 15 15 25 15 15 25 15 15 25 15 15 25 15 15 25 15 15 25 15 15 25 15 15 25 15 15 25 15 15 25 15 15 25 15 15 25 15 15 25 15 15 25 15 15 25 15 15 25 15 15 25 15 15 25 15 15 25 15 15 25 15 15 25 15 15 25 15 15 25 15 15 25 15 15 25 15 15 25 15 15 25 15 15 25 15 15 25 15 15 25 15 15 25 15 15 25 15 15 25 15 15 25 15 15 25 15 15 25 15 15 25 15 15 25 15 15 25 15 15 25 15 15 25 15 15 25 15 15 25 255 0 255 15 15 25 15 15 25 15 15 25 15 15 25 15 15 25 15 15 25 15 15 25 15 15 25 15 15 25 15 15 25 0 255 0 15 15 25 15 15 25 15 15 25 15 15 25 15 15 25 15 15 25 15 15 25 15 15 25 15 15 25 15 15 25 15 15 25 15 15 25 15 15 25 15 15 25 15 15 25 15 15 25 15 15 25 15 15 25 15 15 25 15 15 25 15 15 25 15 15 25 15 15 25 15 15 25 15 15 25 15 15 25 15 15 25 15 15 25 15 15 25 15 15 25 15 15 25 15 15 25 15 15 25 15 15 25 15 15 25 15 15 25 15 15 25 15 15 25 15 15 25 
15 15 25 15 15 25 15 15 25 15 15 25 15 15 25 15 15 25 15 15 25 15 15 25 15 15 25 15 15 25 15 15 25 15 15 25 15 15 25 15 15 25 15 15 25 15 15 25 15 15 25 15 15 25 15 15 25 15 15 25 255 255 0 15 15 25 15 15 25 15 15 25 15 15 25 15 15 25 15 15 25 15 15 25 15 15 25 15 15 25 60 60 255 60 60 255 60 60 255 60 60 255 60 60 255 60 60 255 60 60 255 60 60 255 60 60 255 60 60 255 60 60 255 60 60 255 60 60 255 60 60 255 60 60 255 60 60 255 60 60 255 60 60 255 60 60 255 60 60 255 60 60 255 60 60 255 60 60 255 60 60 255 60 60 255 60 60 255 60 60 255 60 60 255 60 60 255 60 60 255 60 60 255 60 60 255 60 60 255 60 60 255 60 60 255 60 60 255 60 60 255 60 60 255 60 60 255 60 60 255 60 60 255 60 60 255 60 60 255 60 60 255 60 60 255 60 60 255 60 60 255 60 60 255 60 60 255 60 60 255 60 60 255 60 60 255 60 60 255 60 60 255 60 60 255 60 60 255 60 60 255 60 60 255 60 60 255 60 60 255 15 15 25 15 15 25 15 15 25 15 15 25 15 15 25 15 15 25 15 15 25 15 15 25 15 15 25 15 15 25 255 255 0 15 15 25 15 15 25 15 15 25 15 15 25 15 15 25 15 15 25 15 15 25 15 15 25 15 15 25 15 15 25 15 15 25 15 15 25 15 15 25 15 15 25 15 15 25 15 15 25 15 15 25 15 15 25 15 15 25 15 15 25 15 15 25 15 15 25 15 15 25 15 15 25 15 15 25 15 15 25 15 15 25 15 15 25 15 15 25 15 15 25 15 15 25 15 15 25 15 15 25 15 15 25 15 15 25 15 15 25 15 15 25 15 15 25 15 15 25 15 15 25 15 15 25 15 15 25 15 15 25 15 15 25 15 15 25 15 15 25 15 15 25 15 15 25 15 15 25 15 15 25 15 15 25 15 15 25 255 0 255 255 0 255 15 15 25 15 15 25 15 15 25 15 15 25 15 15 25 15 15 25 15 15 25 15 15 25 15 15 25 15 15 25 15 15 25 15 15 25 15 15 25 15 15 25 15 15 25 15 15 25 15 15 25 15 15 25 15 15 25 15 15 25 15 15 25 15 15 25 15 15 25 15 15 25 15 15 25 15 15 25 15 15 25 15 15 25 15 15 25 15 15 25 15 15 25 15 15 25 15 15 25 15 15 25 15 15 25 15 15 25 15 15 25 15 15 25 15 15 25 15 15 25 15 15 25 15 15 25 15 15 25 15 15 25 15 15 25 15 15 25 15 15 25 15 15 25 15 15 25 15 15 25 15 15 25 255 0 255 255 0 255 15 15 25 15 15 25 15 15 25 15 15 25 15 15 25 15 15 25 15 15 25 0 255 0 15 15 25 15 15 25 15 15 25 15 15 25 15 15 25 15 15 25 15 15 25 15 15 25 15 15 25 15 15 25 15 15 25 15 15 25 15 15 25 15 15 25 15 15 25 15 15 25 15 15 25 15 15 25 15 15 25 15 15 25 15 15 25 15 15 25 15 15 25 15 15 25 15 15 25 15 15 25 15 15 25 15 15 25 15 15 25 15 15 25 15 15 25 15 15 25 15 15 25 15 15 25 15 15 25 15 15 25 15 15 25 15 15 25 15 15 25 15 15 25 
15 15 25 15 15 25 15 15 25 15 15 25 15 15 25 15 15 25 15 15 25 15 15 25 15 15 25 15 15 25 15 15 25 15 15 25 15 15 25 15 15 25 15 15 25 15 15 25 15 15 25 15 15 25 15 15 25 15 15 25 255 255 0 15 15 25 15 15 25 15 15 25 15 15 25 15 15 25 15 15 25 15 15 25 15 15 25 15 15 25 60 60 255 60 60 255 60 60 255 60 60 255 60 60 255 60 60 255 60 60 255 60 60 255 60 60 255 60 60 255 60 60 255 60 60 255 60 60 255 60 60 255 60 60 255 60 60 255 60 60 255 60 60 255 60 60 255 60 60 255 60 60 255 60 60 255 60 60 255 60 60 255 60 60 255 60 60 255 60 60 255 60 60 255 60 60 255 60 60 255 60 60 255 60 60 255 60 60 255 60 60 255 60 60 255 60 60 255 60 60 255 60 60 255 60 60 255 60 60 255 60 60 255 60 60 255 60 60 255 60 60 255 60 60 255 60 60 255 60 60 255 60 60 255 60 60 255 60 60 255 60 60 255 60 60 255 60 60 255 60 60 255 60 60 255 60 60 255 60 60 255 60 60 255 60 60 255 60 60 255 15 15 25 15 15 25 15 15 25 15 15 25 15 15 25 15 15 25 15 15 25 15 15 25 15 15 25 15 15 25 255 255 0 15 15 25 15 15 25 15 15 25 15 15 25 15 15 25 15 15 25 15 15 25 15 15 25 15 15 25 15 15 25 15 15 25 15 15 25 15 15 25 15 15 25 15 15 25 15 15 25 15 15 25 15 15 25 15 15 25 15 15 25 15 15 25 15 15 25 15 15 25 15 15 25 15 15 25 15 15 25 15 15 25 15 15 25 15 15 25 15 15 25 15 15 25 15 15 25 15 15 25 15 15 25 15 15 25 15 15 25 15 15 25 15 15 25 15 15 25 15 15 25 15 15 25 15 15 25 15 15 25 15 15 25 15 15 25 15 15 25 15 15 25 15 15 25 15 15 25 15 15 25 15 15 25 255 0 255 15 15 25 15 15 25 15 15 25 15 15 25 15 15 25 15 15 25 15 15 25 15 15 25 15 15 25 15 15 25 15 15 25 15 15 25 15 15 25 15 15 25 15 15 25 15 15 25 15 15 25 15 15 25 15 15 25 15 15 25 15 15 25 15 15 25 15 15 25 15 15 25 15 15 25 15 15 25 15 15 25 15 15 25 15 15 25 15 15 25 15 15 25 15 15 25 15 15 25 15 15 25 15 15 25 15 15 25 15 15 25 15 15 25 15 15 25 15 15 25 15 15 25 15 15 25 15 15 25 15 15 25 15 15 25 15 15 25 15 15 25 15 15 25 15 15 25 15 15 25 15 15 25 15 15 25 15 15 25 15 15 25 15 15 25 255 0 255 15 15 25 15 15 25 15 15 25 15 15 25 15 15 25 0 255 0 15 15 25 15 15 25 15 15 25 15 15 25 15 15 25 15 15 25 15 15 25 15 15 25 15 15 25 15 15 25 15 15 25 15 15 25 15 15 25 15 15 25 15 15 25 15 15 25 15 15 25 15 15 25 15 15 25 15 15 25 15 15 25 15 15 25 15 15 25 15 15 25 15 15 25 15 15 25 15 15 25 15 15 25 15 15 25 15 15 25 15 15 25 15 15 25 15 15 25 15 15 25 15 15 25 15 15 25 15 15 25 15 15 25 15 15 25 15 15 25 15 15 25 
15 15 25 15 15 25 15 15 25 15 15 25 15 15 25 15 15 25 15 15 25 15 15 25 15 15 25 15 15 25 15 15 25 15 15 25 15 15 25 15 15 25 15 15 25 15 15 25 15 15 25 15 15 25 15 15 25 15 15 25 255 255 0 15 15 25 15 15 25 15 15 25 15 15 25 15 15 25 15 15 25 15 15 25 15 15 25 15 15 25 60 60 255 60 60 255 60 60 255 60 60 255 60 60 255 60 60 255 60 60 255 60 60 255 60 60 255 60 60 255 60 60 255 60 60 255 60 60 255 60 60 255 60 60 255 60 60 255 60 60 255 60 60 255 60 60 255 60 60 255 60 60 255 60 60 255 60 60 255 60 60 255 60 60 255 60 60 255 60 60 255 60 60 255 60 60 255 60 60 255 60 60 255 60 60 255 60 60 255 60 60 255 60 60 255 60 60 255 60 60 255 60 60 255 60 60 255 60 60 255 60 60 255 60 60 255 60 60 255 60 60 255 60 60 255 60 60 255 60 60 255 60 60 255 60 60 255 60 60 255 60 60 255 60 60 255 60 60 255 60 60 255 60 60 255 60 60 255 60 60 255 60 60 255 60 60 255 60 60 255 15 15 25 15 15 25 15 15 25 15 15 25 15 15 25 15 15 25 15 15 25 15 15 25 15 15 25 15 15 25 255 255 0 15 15 25 15 15 25 15 15 25 15 15 25 15 15 25 15 15 25 15 15 25 15 15 25 15 15 25 15 15 25 15 15 25 15 15 25 15 15 25 15 15 25 15 15 25 15 15 25 15 15 25 15 15 25 15 15 25 15 15 25 15 15 25 15 15 25 15 15 25 15 15 25 15 15 25 15 15 25 15 15 25 15 15 25 15 15 25 15 15 25 15 15 25 15 15 25 15 15 25 15 15 25 15 15 25 15 15 25 15 15 25 15 15 25 15 15 25 15 15 25 15 15 25 15 15 25 15 15 25 15 15 25 15 15 25 15 15 25 15 15 25 15 15 25 15 15 25 15 15 25 255 0 255 15 15 25 15 15 25 15 15 25 15 15 25 15 15 25 15 15 25 15 15 25 15 15 25 15 15 25 15 15 25 15 15 25 15 15 25 15 15 25 15 15 25 15 15 25 15 15 25 15 15 25 15 15 25 15 15 25 15 15 25 15 15 25 15 15 25 15 15 25 15 15 25 15 15 25 15 15 25 15 15 25 15 15 25 15 15 25 15 15 25 15 15 25 15 15 25 15 15 25 15 15 25 15 15 25 15 15 25 15 15 25 15 15 25 15 15 25 15 15 25 15 15 25 15 15 25 15 15 25 15 15 25 15 15 25 15 15 25 15 15 25 15 15 25 15 15 25 15 15 25 15 15 25 15 15 25 15 15 25 15 15 25 15 15 25 15 15 25 15 15 25 255 0 255 15 15 25 15 15 25 15 15 25 0 255 0 15 15 25 15 15 25 15 15 25 15 15 25 15 15 25 15 15 25 15 15 25 15 15 25 15 15 25 15 15 25 15 15 25 15 15 25 15 15 25 15 15 25 15 15 25 15 15 25 15 15 25 15 15 25 15 15 25 15 15 25 15 15 25 15 15 25 15 15 25 15 15 25 15 15 25 15 15 25 15 15 25 15 15 25 15 15 25 15 15 25 15 15 25 15 15 25 15 15 25 15 15 25 15 15 25 15 15 25 15 15 25 15 15 25 15 15 25 15 15 25 15 15 25 15 15 25 
15 15 25 15 15 25 15 15 25 15 15 25 15 15 25 15 15 25 15 15 25 15 15 25 15 15 25 15 15 25 15 15 25 15 15 25 15 15 25 15 15 25 15 15 25 15 15 25 15 15 25 15 15 25 15 15 25 15 15 25 255 255 0 15 15 25 15 15 25 15 15 25 15 15 25 15 15 25 15 15 25 15 15 25 15 15 25 15 15 25 60 60 255 60 60 255 60 60 255 60 60 255 60 60 255 60 60 255 60 60 255 60 60 255 60 60 255 60 60 255 60 60 255 60 60 255 60 60 255 60 60 255 60 60 255 60 60 255 60 60 255 60 60 255 60 60 255 60 60 255 60 60 255 60 60 255 60 60 255 60 60 255 60 60 255 60 60 255 60 60 255 60 60 255 60 60 255 60 60 255 60 60 255 60 60 255 60 60 255 60 60 255 60 60 255 60 60 255 60 60 255 60 60 255 60 60 255 60 60 255 60 60 255 60 60 255 60 60 255 60 60 255 60 60 255 60 60 255 60 60 255 60 60 255 60 60 255 60 60 255 60 60 255 60 60 255 60 60 255 60 60 255 60 60 255 60 60 255 60 60 255 60 60 255 60 60 255 60 60 255 15 15 25 15 15 25 15 15 25 15 15 25 15 15 25 15 15 25 15 15 25 15 15 25 15 15 25 15 15 25 255 255 0 15 15 25 15 15 25 15 15 25 15 15 25 15 15 25 15 15 25 15 15 25 15 15 25 15 15 25 15 15 25 15 15 25 15 15 25 15 15 25 15 15 25 15 15 25 15 15 25 15 15 25 15 15 25 15 15 25 15 15 25 15 15 25 15 15 25 15 15 25 15 15 25 15 15 25 15 15 25 15 15 25 15 15 25 15 15 25 15 15 25 15 15 25 15 15 25 15 15 25 15 15 25 15 15 25 15 15 25 15 15 25 15 15 25 15 15 25 15 15 25 15 15 25 15 15 25 15 15 25 15 15 25 15 15 25 15 15 25 15 15 25 15 15 25 15 15 25 255 0 255 15 15 25 15 15 25 15 15 25 15 15 25 15 15 25 15 15 25 15 15 25 15 15 25 15 15 25 15 15 25 15 15 25 15 15 25 15 15 25 15 15 25 15 15 25 15 15 25 15 15 25 15 15 25 15 15 25 15 15 25 15 15 25 15 15 25 15 15 25 15 15 25 15 15 25 15 15 25 15 15 25 15 15 25 15 15 25 15 15 25 15 15 25 15 15 25 15 15 25 15 15 25 15 15 25 15 15 25 15 15 25 15 15 25 15 15 25 15 15 25 15 15 25 15 15 25 15 15 25 15 15 25 15 15 25 15 15 25 15 15 25 15 15 25 15 15 25 15 15 25 15 15 25 15 15 25 15 15 25 15 15 25 15 15 25 15 15 25 15 15 25 15 15 25 15 15 25 255 0 255 15 15 25 0 255 0 15 15 25 15 15 25 15 15 25 15 15 25 15 15 25 15 15 25 15 15 25 15 15 25 15 15 25 15 15 25 15 15 25 15 15 25 15 15 25 15 15 25 15 15 25 15 15 25 15 15 25 15 15 25 15 15 25 15 15 25 15 15 25 15 15 25 15 15 25 15 15 25 15 15 25 15 15 25 15 15 25 15 15 25 15 15 25 15 15 25 15 15 25 15 15 25 15 15 25 15 15 25 15 15 25 15 15 25 15 15 25 15 15 25 15 15 25 15 15 25 15 15 25 15 15 25 15 15 25 
15 15 25 15 15 25 15 15 25 15 15 25 15 15 25 15 15 25 15 15 25 15 15 25 15 15 25 15 15 25 15 15 25 15 15 25 15 15 25 15 15 25 15 15 25 15 15 25 15 15 25 15 15 25 15 15 25 15 15 25 255 255 0 15 15 25 15 15 25 15 15 25 15 15 25 15 15 25 15 15 25 15 15 25 15 15 25 15 15 25 60 60 255 60 60 255 60 60 255 60 60 255 60 60 255 60 60 255 60 60 255 60 60 255 60 60 255 60 60 255 60 60 255 60 60 255 60 60 255 60 60 255 60 60 255 60 60 255 60 60 255 60 60 255 60 60 255 60 60 255 60 60 255 60 60 255 60 60 255 60 60 255 60 60 255 60 60 255 60 60 255 60 60 255 60 60 255 60 60 255 60 60 255 60 60 255 60 60 255 60 60 255 60 60 255 60 60 255 60 60 255 60 60 255 60 60 255 60 60 255 60 60 255 60 60 255 60 60 255 60 60 255 60 60 255 60 60 255 60 60 255 60 60 255 60 60 255 60 60 255 60 60 255 60 60 255 60 60 255 60 60 255 60 60 255 60 60 255 60 60 255 60 60 255 60 60 255 60 60 255 15 15 25 15 15 25 15 15 25 15 15 25 15 15 25 15 15 25 15 15 25 15 15 25 15 15 25 15 15 25 255 255 0 15 15 25 15 15 25 15 15 25 15 15 25 15 15 25 15 15 25 15 15 25 15 15 25 15 15 25 15 15 25 15 15 25 15 15 25 15 15 25 15 15 25 15 15 25 15 15 25 15 15 25 15 15 25 15 15 25 15 15 25 15 15 25 15 15 25 15 15 25 15 15 25 15 15 25 15 15 25 15 15 25 15 15 25 15 15 25 15 15 25 15 15 25 15 15 25 15 15 25 15 15 25 15 15 25 15 15 25 15 15 25 15 15 25 15 15 25 15 15 25 15 15 25 15 15 25 15 15 25 15 15 25 15 15 25 15 15 25 15 15 25 15 15 25 15 15 25 255 0 255 15 15 25 15 15 25 15 15 25 15 15 25 15 15 25 15 15 25 15 15 25 15 15 25 15 15 25 15 15 25 15 15 25 15 15 25 15 15 25 15 15 25 15 15 25 15 15 25 15 15 25 15 15 25 15 15 25 15 15 25 15 15 25 15 15 25 15 15 25 15 15 25 15 15 25 15 15 25 15 15 25 15 15 25 15 15 25 15 15 25 15 15 25 15 15 25 15 15 25 15 15 25 15 15 25 15 15 25 15 15 25 15 15 25 15 15 25 15 15 25 15 15 25 15 15 25 15 15 25 15 15 25 15 15 25 15 15 25 15 15 25 15 15 25 15 15 25 15 15 25 15 15 25 15 15 25 15 15 25 15 15 25 15 15 25 15 15 25 15 15 25 15 15 25 15 15 25 255 0 255 0 255 0 15 15 25 15 15 25 15 15 25 15 15 25 15 15 25 15 15 25 15 15 25 15 15 25 15 15 25 15 15 25 15 15 25 15 15 25 15 15 25 15 15 25 15 15 25 15 15 25 15 15 25 15 15 25 15 15 25 15 15 25 15 15 25 15 15 25 15 15 25 15 15 25 15 15 25 15 15 25 15 15 25 15 15 25 15 15 25 15 15 25 15 15 25 15 15 25 15 15 25 15 15 25 15 15 25 15 15 25 15 15 25 15 15 25 15 15 25 15 15 25 15 15 25 15 15 25 15 15 25 15 15 25 
15 15 25 15 15 25 15 15 25 15 15 25 15 15 25 15 15 25 15 15 25 15 15 25 15 15 25 15 15 25 15 15 25 15 15 25 15 15 25 15 15 25 15 15 25 15 15 25 15 15 25 15 15 25 15 15 25 15 15 25 255 255 0 15 15 25 15 15 25 15 15 25 15 15 25 15 15 25 15 15 25 15 15 25 15 15 25 15 15 25 60 60 255 60 60 255 60 60 255 60 60 255 60 60 255 60 60 255 60 60 255 60 60 255 60 60 255 60 60 255 60 60 255 60 60 255 60 60 255 60 60 255 60 60 255 60 60 255 60 60 255 60 60 255 60 60 255 60 60 255 60 60 255 60 60 255 60 60 255 60 60 255 60 60 255 60 60 255 60 60 255 60 60 255 60 60 255 60 60 255 60 60 255 60 60 255 60 60 255 60 60 255 60 60 255 60 60 255 60 60 255 60 60 255 60 60 255 60 60 255 60 60 255 60 60 255 60 60 255 60 60 255 60 60 255 60 60 255 60 60 255 60 60 255 60 60 255 60 60 255 60 60 255 60 60 255 60 60 255 60 60 255 60 60 255 60 60 255 60 60 255 60 60 255 60 60 255 60 60 255 15 15 25 15 15 25 15 15 25 15 15 25 15 15 25 15 15 25 15 15 25 15 15 25 15 15 25 15 15 25 255 255 0 15 15 25 15 15 25 15 15 25 15 15 25 15 15 25 15 15 25 15 15 25 15 15 25 15 15 25 15 15 25 15 15 25 15 15 25 15 15 25 15 15 25 15 15 25 15 15 25 15 15 25 15 15 25 15 15 25 15 15 25 15 15 25 15 15 25 15 15 25 15 15 25 15 15 25 15 15 25 15 15 25 15 15 25 15 15 25 15 15 25 15 15 25 15 15 25 15 15 25 15 15 25 15 15 25 15 15 25 15 15 25 15 15 25 15 15 25 15 15 25 15 15 25 15 15 25 15 15 25 15 15 25 15 15 25 15 15 25 15 15 25 15 15 25 255 0 255 15 15 25 15 15 25 15 15 25 15 15 25 15 15 25 15 15 25 15 15 25 15 15 25 15 15 25 15 15 25 15 15 25 15 15 25 15 15 25 15 15 25 15 15 25 15 15 25 15 15 25 15 15 25 15 15 25 15 15 25 15 15 25 15 15 25 15 15 25 15 15 25 15 15 25 15 15 25 15 15 25 15 15 25 15 15 25 15 15 25 15 15 25 15 15 25 15 15 25 15 15 25 15 15 25 15 15 25 15 15 25 15 15 25 15 15 25 15 15 25 15 15 25 15 15 25 15 15 25 15 15 25 15 15 25 15 15 25 15 15 25 15 15 25 15 15 25 15 15 25 15 15 25 15 15 25 15 15 25 15 15 25 15 15 25 15 15 25 15 15 25 15 15 25 15 15 25 15 15 25 0 255 0 255 0 255 15 15 25 15 15 25 15 15 25 15 15 25 15 15 25 15 15 25 15 15 25 15 15 25 15 15 25 15 15 25 15 15 25 15 15 25 15 15 25 15 15 25 15 15 25 15 15 25 15 15 25 15 15 25 15 15 25 15 15 25 15 15 25 15 15 25 15 15 25 15 15 25 15 15 25 15 15 25 15 15 25 15 15 25 15 15 25 15 15 25 15 15 25 15 15 25 15 15 25 15 15 25 15 15 25 15 15 25 15 15 25 15 15 25 15 15 25 15 15 25 15 15 25 15 15 25 15 15 25 15 15 25 
15 15 25 15 15 25 15 15 25 15 15 25 15 15 25 15 15 25 15 15 25 15 15 25 15 15 25 15 15 25 15 15 25 15 15 25 15 15 25 15 15 25 15 15 25 15 15 25 15 15 25 15 15 25 15 15 25 15 15 25 255 255 0 15 15 25 15 15 25 15 15 25 15 15 25 15 15 25 15 15 25 15 15 25 15 15 25 15 15 25 60 60 255 60 60 255 60 60 255 60 60 255 60 60 255 60 60 255 60 60 255 60 60 255 60 60 255 60 60 255 60 60 255 60 60 255 60 60 255 60 60 255 60 60 255 60 60 255 60 60 255 60 60 255 60 60 255 60 60 255 60 60 255 60 60 255 60 60 255 60 60 255 60 60 255 60 60 255 60 60 255 60 60 255 60 60 255 60 60 255 60 60 255 60 60 255 60 60 255 60 60 255 60 60 255 60 60 255 60 60 255 60 60 255 60 60 255 60 60 255 60 60 255 60 60 255 60 60 255 60 60 255 60 60 255 60 60 255 60 60 255 60 60 255 60 60 255 60 60 255 60 60 255 60 60 255 60 60 255 60 60 255 60 60 255 60 60 255 60 60 255 60 60 255 60 60 255 60 60 255 15 15 25 15 15 25 15 15 25 15 15 25 15 15 25 15 15 25 15 15 25 15 15 25 15 15 25 15 15 25 255 255 0 15 15 25 15 15 25 15 15 25 15 15 25 15 15 25 15 15 25 15 15 25 15 15 25 15 15 25 15 15 25 15 15 25 15 15 25 15 15 25 15 15 25 15 15 25 15 15 25 15 15 25 15 15 25 15 15 25 15 15 25 15 15 25 15 15 25 15 15 25 15 15 25 15 15 25 15 15 25 15 15 25 15 15 25 15 15 25 15 15 25 15 15 25 15 15 25 15 15 25 15 15 25 15 15 25 15 15 25 15 15 25 15 15 25 15 15 25 15 15 25 15 15 25 15 15 25 15 15 25 15 15 25 15 15 25 15 15 25 15 15 25 255 0 255 15 15 25 15 15 25 15 15 25 15 15 25 15 15 25 15 15 25 15 15 25 15 15 25 15 15 25 15 15 25 15 15 25 15 15 25 15 15 25 15 15 25 15 15 25 15 15 25 15 15 25 15 15 25 15 15 25 15 15 25 15 15 25 15 15 25 15 15 25 15 15 25 15 15 25 15 15 25 15 15 25 15 15 25 15 15 25 15 15 25 15 15 25 15 15 25 15 15 25 15 15 25 15 15 25 15 15 25 15 15 25 15 15 25 15 15 25 15 15 25 15 15 25 15 15 25 15 15 25 15 15 25 15 15 25 15 15 25 15 15 25 15 15 25 15 15 25 15 15 25 15 15 25 15 15 25 15 15 25 15 15 25 15 15 25 15 15 25 15 15 25 15 15 25 15 15 25 15 15 25 0 255 0 15 15 25 15 15 25 255 0 255 15 15 25 15 15 25 15 15 25 15 15 25 15 15 25 15 15 25 15 15 25 15 15 25 15 15 25 15 15 25 15 15 25 15 15 25 15 15 25 15 15 25 15 15 25 15 15 25 15 15 25 15 15 25 15 15 25 15 15 25 15 15 25 15 15 25 15 15 25 15 15 25 15 15 25 15 15 25 15 15 25 15 15 25 15 15 25 15 15 25 15 15 25 15 15 25 15 15 25 15 15 25 15 15 25 15 15 25 15 15 25 15 15 25 15 15 25 15 15 25 15 15 25 15 15 25 15 15 25 
15 15 25 15 15 25 15 15 25 15 15 25 15 15 25 15 15 25 15 15 25 15 15 25 15 15 25 15 15 25 15 15 25 15 15 25 15 15 25 15 15 25 15 15 25 15 15 25 15 15 25 15 15 25 15 15 25 15 15 25 255 255 0 15 15 25 15 15 25 15 15 25 15 15 25 15 15 25 15 15 25 15 15 25 15 15 25 15 15 25 60 60 255 60 60 255 60 60 255 60 60 255 60 60 255 60 60 255 60 60 255 60 60 255 60 60 255 60 60 255 60 60 255 60 60 255 60 60 255 60 60 255 60 60 255 60 60 255 60 60 255 60 60 255 60 60 255 60 60 255 60 60 255 60 60 255 60 60 255 60 60 255 60 60 255 60 60 255 60 60 255 60 60 255 60 60 255 60 60 255 60 60 255 60 60 255 60 60 255 60 60 255 60 60 255 60 60 255 60 60 255 60 60 255 60 60 255 60 60 255 60 60 255 60 60 255 60 60 255 60 60 255 60 60 255 60 60 255 60 60 255 60 60 255 60 60 255 60 60 255 60 60 255 60 60 255 60 60 255 60 60 255 60 60 255 60 60 255 60 60 255 60 60 255 60 60 255 60 60 255 15 15 25 15 15 25 15 15 25 15 15 25 15 15 25 15 15 25 15 15 25 15 15 25 15 15 25 15 15 25 255 255 0 15 15 25 15 15 25 15 15 25 15 15 25 15 15 25 15 15 25 15 15 25 15 15 25 15 15 25 15 15 25 15 15 25 15 15 25 15 15 25 15 15 25 15 15 25 15 15 25 15 15 25 15 15 25 15 15 25 15 15 25 15 15 25 15 15 25 15 15 25 15 15 25 15 15 25 15 15 25 15 15 25 15 15 25 15 15 25 15 15 25 15 15 25 15 15 25 15 15 25 15 15 25 15 15 25 15 15 25 15 15 25 15 15 25 15 15 25 15 15 25 15 15 25 15 15 25 15 15 25 15 15 25 15 15 25 15 15 25 255 0 255 15 15 25 15 15 25 15 15 25 15 15 25 15 15 25 15 15 25 15 15 25 15 15 25 15 15 25 15 15 25 15 15 25 15 15 25 15 15 25 15 15 25 15 15 25 15 15 25 15 15 25 15 15 25 15 15 25 15 15 25 15 15 25 15 15 25 15 15 25 15 15 25 15 15 25 15 15 25 15 15 25 15 15 25 15 15 25 15 15 25 15 15 25 15 15 25 15 15 25 15 15 25 15 15 25 15 15 25 15 15 25 15 15 25 15 15 25 15 15 25 15 15 25 15 15 25 15 15 25 15 15 25 15 15 25 15 15 25 15 15 25 15 15 25 15 15 25 15 15 25 15 15 25 15 15 25 15 15 25 15 15 25 15 15 25 15 15 25 15 15 25 15 15 25 15 15 25 15 15 25 0 255 0 15 15 25 15 15 25 15 15 25 15 15 25 255 0 255 15 15 25 15 15 25 15 15 25 15 15 25 15 15 25 15 15 25 15 15 25 15 15 25 15 15 25 15 15 25 15 15 25 15 15 25 15 15 25 15 15 25 15 15 25 15 15 25 15 15 25 15 15 25 15 15 25 15 15 25 15 15 25 15 15 25 15 15 25 15 15 25 15 15 25 15 15 25 15 15 25 15 15 25 15 15 25 15 15 25 15 15 25 15 15 25 15 15 25 15 15 25 15 15 25 15 15 25 15 15 25 15 15 25 15 15 25 15 15 25 15 15 25 15 15 25 
15 15 25 15 15 25 15 15 25 15 15 25 15 15 25 15 15 25 15 15 25 15 15 25 15 15 25 15 15 25 15 15 25 15 15 25 15 15 25 15 15 25 15 15 25 15 15 25 15 15 25 15 15 25 15 15 25 15 15 25 255 255 0 15 15 25 15 15 25 15 15 25 15 15 25 15 15 25 15 15 25 15 15 25 15 15 25 15 15 25 60 60 255 60 60 255 60 60 255 60 60 255 60 60 255 60 60 255 60 60 255 60 60 255 60 60 255 60 60 255 60 60 255 60 60 255 60 60 255 60 60 255 60 60 255 60 60 255 60 60 255 60 60 255 60 60 255 60 60 255 60 60 255 60 60 255 60 60 255 60 60 255 60 60 255 60 60 255 60 60 255 60 60 255 60 60 255 60 60 255 60 60 255 60 60 255 60 60 255 60 60 255 60 60 255 60 60 255 60 60 255 60 60 255 60 60 255 60 60 255 60 60 255 60 60 255 60 60 255 60 60 255 60 60 255 60 60 255 60 60 255 60 60 255 60 60 255 60 60 255 60 60 255 60 60 255 60 60 255 60 60 255 60 60 255 60 60 255 60 60 255 60 60 255 60 60 255 60 60 255 15 15 25 15 15 25 15 15 25 15 15 25 15 15 25 15 15 25 15 15 25 15 15 25 15 15 25 15 15 25 255 255 0 15 15 25 15 15 25 15 15 25 15 15 25 15 15 25 15 15 25 15 15 25 15 15 25 15 15 25 15 15 25 15 15 25 15 15 25 15 15 25 15 15 25 15 15 25 15 15 25 15 15 25 15 15 25 15 15 25 15 15 25 15 15 25 15 15 25 15 15 25 15 15 25 15 15 25 15 15 25 15 15 25 15 15 25 15 15 25 15 15 25 15 15 25 15 15 25 15 15 25 15 15 25 15 15 25 15 15 25 15 15 25 15 15 25 15 15 25 15 15 25 15 15 25 15 15 25 15 15 25 15 15 25 15 15 25 15 15 25 255 0 255 15 15 25 15 15 25 15 15 25 15 15 25 15 15 25 15 15 25 15 15 25 15 15 25 15 15 25 15 15 25 15 15 25 15 15 25 15 15 25 15 15 25 15 15 25 15 15 25 15 15 25 15 15 25 15 15 25 15 15 25 15 15 25 15 15 25 15 15 25 15 15 25 15 15 25 15 15 25 15 15 25 15 15 25 15 15 25 15 15 25 15 15 25 15 15 25 15 15 25 15 15 25 15 15 25 15 15 25 15 15 25 15 15 25 15 15 25 15 15 25 15 15 25 15 15 25 15 15 25 15 15 25 15 15 25 15 15 25 15 15 25 15 15 25 15 15 25 15 15 25 15 15 25 15 15 25 15 15 25 15 15 25 15 15 25 15 15 25 15 15 25 15 15 25 15 15 25 0 255 0 15 15 25 15 15 25 15 15 25 15 15 25 15 15 25 255 0 255 15 15 25 15 15 25 15 15 25 15 15 25 15 15 25 15 15 25 15 15 25 15 15 25 15 15 25 15 15 25 15 15 25 15 15 25 15 15 25 15 15 25 15 15 25 15 15 25 15 15 25 15 15 25 15 15 25 15 15 25 15 15 25 15 15 25 15 15 25 15 15 25 15 15 25 15 15 25 15 15 25 15 15 25 15 15 25 15 15 25 15 15 25 15 15 25 15 15 25 15 15 25 15 15 25 15 15 25 15 15 25 15 15 25 15 15 25 15 15 25 15 15 25 15 15 25 
15 15 25 15 15 25 15 15 25 15 15 25 15 15 25 15 15 25 15 15 25 15 15 25 15 15 25 15 15 25 15 15 25 15 15 25 15 15 25 15 15 25 15 15 25 15 15 25 15 15 25 15 15 25 15 15 25 15 15 25 255 255 0 15 15 25 15 15 25 15 15 25 15 15 25 15 15 25 15 15 25 15 15 25 15 15 25 15 15 25 60 60 255 60 60 255 60 60 255 60 60 255 60 60 255 60 60 255 60 60 255 60 60 255 60 60 255 60 60 255 60 60 255 60 60 255 60 60 255 60 60 255 60 60 255 60 60 255 60 60 255 60 60 255 60 60 255 60 60 255 60 60 255 60 60 255 60 60 255 60 60 255 60 60 255 60 60 255 60 60 255 60 60 255 60 60 255 60 60 255 60 60 255 60 60 255 60 60 255 60 60 255 60 60 255 60 60 255 60 60 255 60 60 255 60 60 255 60 60 255 60 60 255 60 60 255 60 60 255 60 60 255 60 60 255 60 60 255 60 60 255 60 60 255 60 60 255 60 60 255 60 60 255 60 60 255 60 60 255 60 60 255 60 60 255 60 60 255 60 60 255 60 60 255 60 60 255 60 60 255 15 15 25 15 15 25 15 15 25 15 15 25 15 15 25 15 15 25 15 15 25 15 15 25 15 15 25 15 15 25 255 255 0 15 15 25 15 15 25 15 15 25 15 15 25 15 15 25 15 15 25 15 15 25 15 15 25 15 15 25 15 15 25 15 15 25 15 15 25 15 15 25 15 15 25 15 15 25 15 15 25 15 15 25 15 15 25 15 15 25 15 15 25 15 15 25 15 15 25 15 15 25 15 15 25 15 15 25 15 15 25 15 15 25 15 15 25 15 15 25 15 15 25 15 15 25 15 15 25 15 15 25 15 15 25 15 15 25 15 15 25 15 15 25 15 15 25 15 15 25 15 15 25 15 15 25 15 15 25 15 15 25 15 15 25 15 15 25 255 0 255 15 15 25 15 15 25 15 15 25 15 15 25 15 15 25 15 15 25 15 15 25 15 15 25 15 15 25 15 15 25 15 15 25 15 15 25 15 15 25 15 15 25 15 15 25 15 15 25 15 15 25 15 15 25 15 15 25 15 15 25 15 15 25 15 15 25 15 15 25 15 15 25 15 15 25 15 15 25 15 15 25 15 15 25 15 15 25 15 15 25 15 15 25 15 15 25 15 15 25 15 15 25 15 15 25 15 15 25 15 15 25 15 15 25 15 15 25 15 15 25 15 15 25 15 15 25 15 15 25 15 15 25 15 15 25 15 15 25 15 15 25 15 15 25 15 15 25 15 15 25 15 15 25 15 15 25 15 15 25 15 15 25 15 15 25 15 15 25 15 15 25 15 15 25 15 15 25 0 255 0 15 15 25 15 15 25 15 15 25 15 15 25 15 15 25 15 15 25 15 15 25 255 0 255 15 15 25 15 15 25 15 15 25 15 15 25 15 15 25 15 15 25 15 15 25 15 15 25 15 15 25 15 15 25 15 15 25 15 15 25 15 15 25 15 15 25 15 15 25 15 15 25 15 15 25 15 15 25 15 15 25 15 15 25 15 15 25 15 15 25 15 15 25 15 15 25 15 15 25 15 15 25 15 15 25 15 15 25 15 15 25 15 15 25 15 15 25 15 15 25 15 15 25 15 15 25 15 15 25 15 15 25 15 15 25 15 15 25 15 15 25 15 15 25 15 15 25 
15 15 25 15 15 25 15 15 25 15 15 25 15 15 25 15 15 25 15 15 25 15 15 25 15 15 25 15 15 25 15 15 25 15 15 25 15 15 25 15 15 25 15 15 25 15 15 25 15 15 25 15 15 25 15 15 25 15 15 25 255 255 0 15 15 25 15 15 25 15 15 25 15 15 25 15 15 25 15 15 25 15 15 25 15 15 25 15 15 25 60 60 255 60 60 255 60 60 255 60 60 255 60 60 255 60 60 255 60 60 255 60 60 255 60 60 255 60 60 255 60 60 255 60 60 255 60 60 255 60 60 255 60 60 255 60 60 255 60 60 255 60 60 255 60 60 255 60 60 255 60 60 255 60 60 255 60 60 255 60 60 255 60 60 255 60 60 255 60 60 255 60 60 255 60 60 255 60 60 255 60 60 255 60 60 255 60 60 255 60 60 255 60 60 255 60 60 255 60 60 255 60 60 255 60 60 255 60 60 255 60 60 255 60 60 255 60 60 255 60 60 255 60 60 255 60 60 255 60 60 255 60 60 255 60 60 255 60 60 255 60 60 255 60 60 255 60 60 255 60 60 255 60 60 255 60 60 255 60 60 255 60 60 255 60 60 255 60 60 255 15 15 25 15 15 25 15 15 25 15 15 25 15 15 25 15 15 25 15 15 25 15 15 25 15 15 25 15 15 25 255 255 0 15 15 25 15 15 25 15 15 25 15 15 25 15 15 25 15 15 25 15 15 25 15 15 25 15 15 25 15 15 25 15 15 25 15 15 25 15 15 25 15 15 25 15 15 25 15 15 25 15 15 25 15 15 25 15 15 25 15 15 25 15 15 25 15 15 25 15 15 25 15 15 25 15 15 25 15 15 25 15 15 25 15 15 25 15 15 25 15 15 25 15 15 25 15 15 25 15 15 25 15 15 25 15 15 25 15 15 25 15 15 25 15 15 25 15 15 25 15 15 25 15 15 25 15 15 25 15 15 25 15 15 25 255 0 255 15 15 25 15 15 25 15 15 25 15 15 25 15 15 25 15 15 25 15 15 25 15 15 25 15 15 25 15 15 25 15 15 25 15 15 25 15 15 25 15 15 25 15 15 25 15 15 25 15 15 25 15 15 25 15 15 25 15 15 25 15 15 25 15 15 25 15 15 25 15 15 25 15 15 25 15 15 25 15 15 25 15 15 25 15 15 25 15 15 25 0 255 255 0 255 255 0 255 255 0 255 255 0 255 255 0 255 255 0 255 255 0 255 255 0 255 255 15 15 25 15 15 25 15 15 25 15 15 25 15 15 25 15 15 25 15 15 25 15 15 25 15 15 25 15 15 25 15 15 25 15 15 25 15 15 25 15 15 25 15 15 25 15 15 25 15 15 25 15 15 25 15 15 25 15 15 25 0 255 0 15 15 25 15 15 25 15 15 25 15 15 25 15 15 25 15 15 25 15 15 25 15 15 25 15 15 25 255 0 255 15 15 25 15 15 25 15 15 25 15 15 25 15 15 25 15 15 25 15 15 25 15 15 25 15 15 25 15 15 25 15 15 25 15 15 25 15 15 25 15 15 25 15 15 25 15 15 25 15 15 25 15 15 25 15 15 25 15 15 25 15 15 25 15 15 25 15 15 25 15 15 25 15 15 25 15 15 25 15 15 25 15 15 25 15 15 25 15 15 25 15 15 25 15 15 25 15 15 25 15 15 25 15 15 25 15 15 25 15 15 25 15 15 25 15 15 25 15 15 25 
15 15 25 15 15 25 15 15 25 15 15 25 15 15 25 15 15 25 15 15 25 15 15 25 15 15 25 15 15 25 15 15 25 15 15 25 15 15 25 15 15 25 15 15 25 15 15 25 15 15 25 15 15 25 15 15 25 15 15 25 255 255 0 15 15 25 15 15 25 15 15 25 15 15 25 15 15 25 15 15 25 15 15 25 15 15 25 15 15 25 60 60 255 60 60 255 60 60 255 60 60 255 60 60 255 60 60 255 60 60 255 60 60 255 60 60 255 60 60 255 60 60 255 60 60 255 60 60 255 60 60 255 60 60 255 60 60 255 60 60 255 60 60 255 60 60 255 60 60 255 60 60 255 60 60 255 60 60 255 60 60 255 60 60 255 60 60 255 60 60 255 60 60 255 60 60 255 60 60 255 60 60 255 60 60 255 60 60 255 60 60 255 60 60 255 60 60 255 60 60 255 60 60 255 60 60 255 60 60 255 60 60 255 60 60 255 60 60 255 60 60 255 60 60 255 60 60 255 60 60 255 60 60 255 60 60 255 60 60 255 60 60 255 60 60 255 60 60 255 60 60 255 60 60 255 60 60 255 60 60 255 60 60 255 60 60 255 60 60 255 15 15 25 15 15 25 15 15 25 15 15 25 15 15 25 15 15 25 15 15 25 15 15 25 15 15 25 15 15 25 255 255 0 15 15 25 15 15 25 15 15 25 15 15 25 15 15 25 15 15 25 15 15 25 15 15 25 15 15 25 15 15 25 15 15 25 15 15 25 15 15 25 15 15 25 15 15 25 15 15 25 15 15 25 15 15 25 15 15 25 15 15 25 15 15 25 15 15 25 15 15 25 15 15 25 15 15 25 15 15 25 15 15 25 15 15 25 15 15 25 15 15 25 15 15 25 15 15 25 15 15 25 15 15 25 15 15 25 15 15 25 15 15 25 15 15 25 15 15 25 15 15 25 15 15 25 15 15 25 15 15 25 15 15 25 255 0 255 15 15 25 15 15 25 15 15 25 15 15 25 15 15 25 15 15 25 15 15 25 15 15 25 15 15 25 15 15 25 15 15 25 15 15 25 15 15 25 15 15 25 15 15 25 15 15 25 15 15 25 15 15 25 15 15 25 15 15 25 15 15 25 15 15 25 15 15 25 15 15 25 15 15 25 15 15 25 15 15 25 0 255 255 0 255 255 0 255 255 15 15 25 15 15 25 15 15 25 15 15 25 15 15 25 15 15 25 15 15 25 15 15 25 15 15 25 0 255 255 0 255 255 0 255 255 15 15 25 15 15 25 15 15 25 15 15 25 15 15 25 15 15 25 15 15 25 15 15 25 15 15 25 15 15 25 15 15 25 15 15 25 15 15 25 15 15 25 15 15 25 15 15 25 0 255 0 15 15 25 15 15 25 15 15 25 15 15 25 15 15 25 15 15 25 15 15 25 15 15 25 15 15 25 15 15 25 255 0 255 15 15 25 15 15 25 15 15 25 15 15 25 15 15 25 15 15 25 15 15 25 15 15 25 15 15 25 15 15 25 15 15 25 15 15 25 15 15 25 15 15 25 15 15 25 15 15 25 15 15 25 15 15 25 15 15 25 15 15 25 15 15 25 15 15 25 15 15 25 15 15 25 15 15 25 15 15 25 15 15 25 15 15 25 15 15 25 15 15 25 15 15 25 15 15 25 15 15 25 15 15 25 15 15 25 15 15 25 15 15 25 15 15 25 15 15 25 15 15 25 
15 15 25 15 15 25 15 15 25 15 15 25 15 15 25 15 15 25 15 15 25 15 15 25 15 15 25 15 15 25 15 15 25 15 15 25 15 15 25 15 15 25 15 15 25 15 15 25 15 15 25 15 15 25 15 15 25 15 15 25 255 255 0 15 15 25 15 15 25 15 15 25 15 15 25 15 15 25 15 15 25 15 15 25 15 15 25 15 15 25 60 60 255 60 60 255 60 60 255 60 60 255 60 60 255 60 60 255 60 60 255 60 60 255 60 60 255 60 60 255 60 60 255 60 60 255 60 60 255 60 60 255 60 60 255 60 60 255 60 60 255 60 60 255 60 60 255 60 60 255 60 60 255 60 60 255 60 60 255 60 60 255 60 60 255 60 60 255 60 60 255 60 60 255 60 60 255 60 60 255 60 60 255 60 60 255 60 60 255 60 60 255 60 60 255 60 60 255 60 60 255 60 60 255 60 60 255 60 60 255 60 60 255 60 60 255 60 60 255 60 60 255 60 60 255 60 60 255 60 60 255 60 60 255 60 60 255 60 60 255 60 60 255 60 60 255 60 60 255 60 60 255 60 60 255 60 60 255 60 60 255 60 60 255 60 60 255 60 60 255 15 15 25 15 15 25 15 15 25 15 15 25 15 15 25 15 15 25 15 15 25 15 15 25 15 15 25 15 15 25 255 255 0 15 15 25 15 15 25 15 15 25 15 15 25 15 15 25 15 15 25 15 15 25 15 15 25 15 15 25 15 15 25 15 15 25 15 15 25 15 15 25 15 15 25 15 15 25 15 15 25 15 15 25 15 15 25 15 15 25 15 15 25 15 15 25 15 15 25 15 15 25 15 15 25 15 15 25 15 15 25 15 15 25 15 15 25 15 15 25 15 15 25 15 15 25 15 15 25 15 15 25 15 15 25 15 15 25 15 15 25 15 15 25 15 15 25 15 15 25 15 15 25 15 15 25 15 15 25 15 15 25 255 0 255 15 15 25 15 15 25 15 15 25 15 15 25 15 15 25 15 15 25 15 15 25 15 15 25 15 15 25 15 15 25 15 15 25 15 15 25 15 15 25 15 15 25 15 15 25 15 15 25 15 15 25 15 15 25 15 15 25 15 15 25 15 15 25 15 15 25 15 15 25 15 15 25 15 15 25 15 15 25 0 255 255 0 255 255 15 15 25 15 15 25 15 15 25 15 15 25 15 15 25 15 15 25 15 15 25 15 15 25 15 15 25 15 15 25 15 15 25 15 15 25 15 15 25 15 15 25 15 15 25 0 255 255 0 255 255 15 15 25 15 15 25 15 15 25 15 15 25 15 15 25 15 15 25 15 15 25 15 15 25 15 15 25 15 15 25 15 15 25 15 15 25 15 15 25 0 255 0 15 15 25 15 15 25 15 15 25 15 15 25 15 15 25 15 15 25 15 15 25 15 15 25 15 15 25 15 15 25 15 15 25 15 15 25 255 0 255 15 15 25 15 15 25 15 15 25 15 15 25 15 15 25 15 15 25 15 15 25 15 15 25 15 15 25 15 15 25 15 15 25 15 15 25 15 15 25 15 15 25 15 15 25 15 15 25 15 15 25 15 15 25 15 15 25 15 15 25 15 15 25 15 15 25 15 15 25 15 15 25 15 15 25 15 15 25 15 15 25 15 15 25 15 15 25 15 15 25 15 15 25 15 15 25 15 15 25 15 15 25 15 15 25 15 15 25 15 15 25 15 15 25 15 15 25 
15 15 25 15 15 25 15 15 25 15 15 25 15 15 25 15 15 25 15 15 25 15 15 25 15 15 25 15 15 25 15 15 25 15 15 25 15 15 25 15 15 25 15 15 25 15 15 25 15 15 25 15 15 25 15 15 25 15 15 25 255 255 0 15 15 25 15 15 25 15 15 25 15 15 25 15 15 25 15 15 25 15 15 25 15 15 25 15 15 25 60 60 255 60 60 255 60 60 255 60 60 255 60 60 255 60 60 255 60 60 255 60 60 255 60 60 255 60 60 255 60 60 255 60 60 255 60 60 255 60 60 255 60 60 255 60 60 255 60 60 255 60 60 255 60 60 255 60 60 255 60 60 255 60 60 255 60 60 255 60 60 255 60 60 255 60 60 255 60 60 255 60 60 255 60 60 255 60 60 255 60 60 255 60 60 255 60 60 255 60 60 255 60 60 255 60 60 255 60 60 255 60 60 255 60 60 255 60 60 255 60 60 255 60 60 255 60 60 255 60 60 255 60 60 255 60 60 255 60 60 255 60 60 255 60 60 255 60 60 255 60 60 255 60 60 255 60 60 255 60 60 255 60 60 255 60 60 255 60 60 255 60 60 255 60 60 255 60 60 255 15 15 25 15 15 25 15 15 25 15 15 25 15 15 25 15 15 25 15 15 25 15 15 25 15 15 25 15 15 25 255 255 0 15 15 25 15 15 25 15 15 25 15 15 25 15 15 25 15 15 25 15 15 25 15 15 25 15 15 25 15 15 25 15 15 25 15 15 25 15 15 25 15 15 25 15 15 25 15 15 25 15 15 25 15 15 25 15 15 25 15 15 25 15 15 25 15 15 25 15 15 25 15 15 25 15 15 25 15 15 25 15 15 25 15 15 25 15 15 25 15 15 25 15 15 25 15 15 25 15 15 25 15 15 25 15 15 25 15 15 25 15 15 25 15 15 25 15 15 25 15 15 25 15 15 25 15 15 25 15 15 25 255 0 255 15 15 25 15 15 25 15 15 25 15 15 25 15 15 25 15 15 25 15 15 25 15 15 25 15 15 25 15 15 25 15 15 25 15 15 25 15 15 25 15 15 25 15 15 25 15 15 25 15 15 25 15 15 25 15 15 25 15 15 25 15 15 25 15 15 25 15 15 25 15 15 25 0 255 255 0 255 255 15 15 25 15 15 25 15 15 25 15 15 25 15 15 25 15 15 25 15 15 25 15 15 25 15 15 25 15 15 25 15 15 25 15 15 25 15 15 25 15 15 25 15 15 25 15 15 25 15 15 25 15 15 25 15 15 25 0 255 255 0 255 255 15 15 25 15 15 25 15 15 25 15 15 25 15 15 25 15 15 25 15 15 25 15 15 25 15 15 25 15 15 25 0 255 0 15 15 25 15 15 25 15 15 25 15 15 25 15 15 25 15 15 25 15 15 25 15 15 25 15 15 25 15 15 25 15 15 25 15 15 25 15 15 25 255 0 255 15 15 25 15 15 25 15 15 25 15 15 25 15 15 25 15 15 25 15 15 25 15 15 25 15 15 25 15 15 25 15 15 25 15 15 25 15 15 25 15 15 25 15 15 25 15 15 25 15 15 25 15 15 25 15 15 25 15 15 25 15 15 25 15 15 25 15 15 25 15 15 25 15 15 25 15 15 25 15 15 25 15 15 25 15 15 25 15 15 25 15 15 25 15 15 25 15 15 25 15 15 25 15 15 25 15 15 25 15 15 25 15 15 25 15 15 25 
15 15 25 15 15 25 15 15 25 15 15 25 15 15 25 15 15 25 15 15 25 15 15 25 15 15 25 15 15 25 15 15 25 15 15 25 15 15 25 15 15 25 15 15 25 15 15 25 15 15 25 15 15 25 15 15 25 15 15 25 255 255 0 15 15 25 15 15 25 15 15 25 15 15 25 15 15 25 15 15 25 15 15 25 15 15 25 15 15 25 60 60 255 60 60 255 60 60 255 60 60 255 60 60 255 60 60 255 60 60 255 60 60 255 60 60 255 60 60 255 60 60 255 60 60 255 60 60 255 60 60 255 60 60 255 60 60 255 60 60 255 60 60 255 60 60 255 60 60 255 60 60 255 60 60 255 60 60 255 60 60 255 60 60 255 60 60 255 60 60 255 60 60 255 60 60 255 60 60 255 60 60 255 60 60 255 60 60 255 60 60 255 60 60 255 60 60 255 60 60 255 60 60 255 60 60 255 60 60 255 60 60 255 60 60 255 60 60 255 60 60 255 60 60 255 60 60 255 60 60 255 60 60 255 60 60 255 60 60 255 60 60 255 60 60 255 60 60 255 60 60 255 60 60 255 60 60 255 60 60 255 60 60 255 60 60 255 60 60 255 15 15 25 15 15 25 15 15 25 15 15 25 15 15 25 15 15 25 15 15 25 15 15 25 15 15 25 15 15 25 255 255 0 15 15 25 15 15 25 15 15 25 15 15 25 15 15 25 15 15 25 15 15 25 15 15 25 15 15 25 15 15 25 15 15 25 15 15 25 15 15 25 15 15 25 15 15 25 15 15 25 15 15 25 15 15 25 15 15 25 15 15 25 15 15 25 15 15 25 15 15 25 15 15 25 15 15 25 15 15 25 15 15 25 15 15 25 15 15 25 15 15 25 15 15 25 15 15 25 15 15 25 15 15 25 15 15 25 15 15 25 15 15 25 15 15 25 15 15 25 15 15 25 15 15 25 15 15 25 255 0 255 15 15 25 15 15 25 15 15 25 15 15 25 15 15 25 15 15 25 15 15 25 15 15 25 15 15 25 15 15 25 15 15 25 15 15 25 15 15 25 15 15 25 15 15 25 15 15 25 15 15 25 15 15 25 15 15 25 15 15 25 15 15 25 15 15 25 15 15 25 15 15 25 0 255 255 15 15 25 15 15 25 15 15 25 15 15 25 15 15 25 15 15 25 15 15 25 15 15 25 15 15 25 15 15 25 15 15 25 15 15 25 15 15 25 15 15 25 15 15 25 15 15 25 15 15 25 15 15 25 15 15 25 15 15 25 15 15 25 15 15 25 15 15 25 0 255 255 15 15 25 15 15 25 15 15 25 15 15 25 15 15 25 15 15 25 15 15 25 15 15 25 0 255 0 15 15 25 15 15 25 15 15 25 15 15 25 15 15 25 15 15 25 15 15 25 15 15 25 15 15 25 15 15 25 15 15 25 15 15 25 15 15 25 15 15 25 15 15 25 255 0 255 15 15 25 15 15 25 15 15 25 15 15 25 15 15 25 15 15 25 15 15 25 15 15 25 15 15 25 15 15 25 15 15 25 15 15 25 15 15 25 15 15 25 15 15 25 15 15 25 15 15 25 15 15 25 15 15 25 15 15 25 15 15 25 15 15 25 15 15 25 15 15 25 15 15 25 15 15 25 15 15 25 15 15 25 15 15 25 15 15 25 15 15 25 15 15 25 15 15 25 15 15 25 15 15 25 15 15 25 15 15 25 15 15 25 
15 15 25 15 15 25 15 15 25 15 15 25 15 15 25 15 15 25 15 15 25 15 15 25 15 15 25 15 15 25 15 15 25 15 15 25 15 15 25 15 15 25 15 15 25 15 15 25 15 15 25 15 15 25 15 15 25 15 15 25 255 255 0 15 15 25 15 15 25 15 15 25 15 15 25 15 15 25 15 15 25 15 15 25 15 15 25 15 15 25 60 60 255 60 60 255 60 60 255 60 60 255 60 60 255 60 60 255 60 60 255 60 60 255 60 60 255 60 60 255 60 60 255 60 60 255 60 60 255 60 60 255 60 60 255 60 60 255 60 60 255 60 60 255 60 60 255 60 60 255 60 60 255 60 60 255 60 60 255 60 60 255 60 60 255 60 60 255 60 60 255 60 60 255 60 60 255 60 60 255 60 60 255 60 60 255 60 60 255 60 60 255 60 60 255 60 60 255 60 60 255 60 60 255 60 60 255 60 60 255 60 60 255 60 60 255 60 60 255 60 60 255 60 60 255 60 60 255 60 60 255 60 60 255 60 60 255 60 60 255 60 60 255 60 60 255 60 60 255 60 60 255 60 60 255 60 60 255 60 60 255 60 60 255 60 60 255 60 60 255 15 15 25 15 15 25 15 15 25 15 15 25 15 15 25 15 15 25 15 15 25 15 15 25 15 15 25 15 15 25 255 255 0 15 15 25 15 15 25 15 15 25 15 15 25 15 15 25 15 15 25 15 15 25 15 15 25 15 15 25 15 15 25 15 15 25 15 15 25 15 15 25 15 15 25 15 15 25 15 15 25 15 15 25 15 15 25 15 15 25 15 15 25 15 15 25 15 15 25 15 15 25 15 15 25 15 15 25 15 15 25 15 15 25 15 15 25 15 15 25 15 15 25 15 15 25 15 15 25 15 15 25 15 15 25 15 15 25 15 15 25 15 15 25 15 15 25 15 15 25 15 15 25 15 15 25 15 15 25 255 0 255 15 15 25 15 15 25 15 15 25 15 15 25 15 15 25 15 15 25 15 15 25 15 15 25 15 15 25 15 15 25 15 15 25 15 15 25 15 15 25 15 15 25 15 15 25 15 15 25 15 15 25 15 15 25 15 15 25 15 15 25 15 15 25 15 15 25 15 15 25 0 255 255 15 15 25 15 15 25 15 15 25 15 15 25 15 15 25 15 15 25 15 15 25 15 15 25 15 15 25 15 15 25 15 15 25 15 15 25 15 15 25 15 15 25 15 15 25 15 15 25 15 15 25 15 15 25 15 15 25 15 15 25 15 15 25 15 15 25 15 15 25 15 15 25 15 15 25 0 255 255 15 15 25 15 15 25 15 15 25 15 15 25 15 15 25 15 15 25 0 255 0 15 15 25 15 15 25 15 15 25 15 15 25 15 15 25 15 15 25 15 15 25 15 15 25 15 15 25 15 15 25 15 15 25 15 15 25 15 15 25 15 15 25 15 15 25 15 15 25 255 0 255 15 15 25 15 15 25 15 15 25 15 15 25 15 15 25 15 15 25 15 15 25 15 15 25 15 15 25 15 15 25 15 15 25 15 15 25 15 15 25 15 15 25 15 15 25 15 15 25 15 15 25 15 15 25 15 15 25 15 15 25 15 15 25 15 15 25 15 15 25 15 15 25 15 15 25 15 15 25 15 15 25 15 15 25 15 15 25 15 15 25 15 15 25 15 15 25 15 15 25 15 15 25 15 15 25 15 15 25 15 15 25 15 15 25 
15 15 25 15 15 25 15 15 25 15 15 25 15 15 25 15 15 25 15 15 25 15 15 25 15 15 25 15 15 25 15 15 25 15 15 25 15 15 25 15 15 25 15 15 25 15 15 25 15 15 25 15 15 25 15 15 25 15 15 25 255 255 0 15 15 25 15 15 25 15 15 25 15 15 25 15 15 25 15 15 25 15 15 25 15 15 25 15 15 25 60 60 255 60 60 255 60 60 255 60 60 255 60 60 255 60 60 255 60 60 255 60 60 255 60 60 255 60 60 255 60 60 255 60 60 255 60 60 255 60 60 255 60 60 255 60 60 255 60 60 255 60 60 255 60 60 255 60 60 255 60 60 255 60 60 255 60 60 255 60 60 255 60 60 255 60 60 255 60 60 255 60 60 255 60 60 255 60 60 255 60 60 255 60 60 255 60 60 255 60 60 255 60 60 255 60 60 255 60 60 255 60 60 255 60 60 255 60 60 255 60 60 255 60 60 255 60 60 255 60 60 255 60 60 255 60 60 255 60 60 255 60 60 255 60 60 255 60 60 255 60 60 255 60 60 255 60 60 255 60 60 255 60 60 255 60 60 255 60 60 255 60 60 255 60 60 255 60 60 255 15 15 25 15 15 25 15 15 25 15 15 25 15 15 25 15 15 25 15 15 25 15 15 25 15 15 25 15 15 25 255 255 0 15 15 25 15 15 25 15 15 25 15 15 25 15 15 25 15 15 25 15 15 25 15 15 25 15 15 25 15 15 25 15 15 25 15 15 25 15 15 25 15 15 25 15 15 25 15 15 25 15 15 25 15 15 25 15 15 25 15 15 25 15 15 25 15 15 25 15 15 25 15 15 25 15 15 25 15 15 25 15 15 25 15 15 25 15 15 25 15 15 25 15 15 25 15 15 25 15 15 25 15 15 25 15 15 25 15 15 25 15 15 25 15 15 25 15 15 25 15 15 25 15 15 25 15 15 25 255 0 255 15 15 25 15 15 25 15 15 25 15 15 25 15 15 25 15 15 25 15 15 25 15 15 25 15 15 25 15 15 25 15 15 25 15 15 25 15 15 25 15 15 25 15 15 25 15 15 25 15 15 25 15 15 25 15 15 25 15 15 25 15 15 25 15 15 25 0 255 255 15 15 25 15 15 25 15 15 25 15 15 25 15 15 25 15 15 25 15 15 25 15 15 25 15 15 25 15 15 25 15 15 25 15 15 25 15 15 25 15 15 25 15 15 25 15 15 25 15 15 25 15 15 25 15 15 25 15 15 25 15 15 25 15 15 25 15 15 25 15 15 25 15 15 25 15 15 25 15 15 25 0 255 255 15 15 25 15 15 25 15 15 25 15 15 25 0 255 0 15 15 25 15 15 25 15 15 25 15 15 25 15 15 25 15 15 25 15 15 25 15 15 25 15 15 25 15 15 25 15 15 25 15 15 25 15 15 25 15 15 25 15 15 25 15 15 25 15 15 25 255 0 255 15 15 25 15 15 25 15 15 25 15 15 25 15 15 25 15 15 25 15 15 25 15 15 25 15 15 25 15 15 25 15 15 25 15 15 25 15 15 25 15 15 25 15 15 25 15 15 25 15 15 25 15 15 25 15 15 25 15 15 25 15 15 25 15 15 25 15 15 25 15 15 25 15 15 25 15 15 25 15 15 25 15 15 25 15 15 25 15 15 25 15 15 25 15 15 25 15 15 25 15 15 25 15 15 25 15 15 25 15 15 25 15 15 25 
15 15 25 15 15 25 15 15 25 15 15 25 15 15 25 15 15 25 15 15 25 15 15 25 15 15 25 15 15 25 15 15 25 15 15 25 15 15 25 15 15 25 15 15 25 15 15 25 15 15 25 15 15 25 15 15 25 15 15 25 255 255 0 15 15 25 15 15 25 15 15 25 15 15 25 15 15 25 15 15 25 15 15 25 15 15 25 15 15 25 60 60 255 60 60 255 60 60 255 60 60 255 60 60 255 60 60 255 60 60 255 60 60 255 60 60 255 60 60 255 60 60 255 60 60 255 60 60 255 60 60 255 60 60 255 60 60 255 60 60 255 60 60 255 60 60 255 60 60 255 60 60 255 60 60 255 60 60 255 60 60 255 60 60 255 60 60 255 60 60 255 60 60 255 60 60 255 60 60 255 60 60 255 60 60 255 60 60 255 60 60 255 60 60 255 60 60 255 60 60 255 60 60 255 60 60 255 60 60 255 60 60 255 60 60 255 60 60 255 60 60 255 60 60 255 60 60 255 60 60 255 60 60 255 60 60 255 60 60 255 60 60 255 60 60 255 60 60 255 60 60 255 60 60 255 60 60 255 60 60 255 60 60 255 60 60 255 60 60 255 15 15 25 15 15 25 15 15 25 15 15 25 15 15 25 15 15 25 15 15 25 15 15 25 15 15 25 15 15 25 255 255 0 15 15 25 15 15 25 15 15 25 15 15 25 15 15 25 15 15 25 15 15 25 15 15 25 15 15 25 15 15 25 15 15 25 15 15 25 15 15 25 15 15 25 15 15 25 15 15 25 15 15 25 15 15 25 15 15 25 15 15 25 15 15 25 15 15 25 15 15 25 15 15 25 15 15 25 15 15 25 15 15 25 15 15 25 15 15 25 15 15 25 15 15 25 15 15 25 15 15 25 15 15 25 15 15 25 15 15 25 15 15 25 15 15 25 15 15 25 15 15 25 15 15 25 255 0 255 15 15 25 15 15 25 15 15 25 15 15 25 15 15 25 15 15 25 15 15 25 15 15 25 15 15 25 15 15 25 15 15 25 15 15 25 15 15 25 15 15 25 15 15 25 15 15 25 15 15 25 15 15 25 15 15 25 15 15 25 15 15 25 15 15 25 0 255 255 15 15 25 15 15 25 15 15 25 15 15 25 15 15 25 15 15 25 15 15 25 15 15 25 15 15 25 15 15 25 15 15 25 15 15 25 15 15 25 15 15 25 15 15 25 15 15 25 15 15 25 15 15 25 15 15 25 15 15 25 15 15 25 15 15 25 15 15 25 15 15 25 15 15 25 15 15 25 15 15 25 15 15 25 15 15 25 0 255 255 15 15 25 15 15 25 0 255 0 15 15 25 15 15 25 15 15 25 15 15 25 15 15 25 15 15 25 15 15 25 15 15 25 15 15 25 15 15 25 15 15 25 15 15 25 15 15 25 15 15 25 15 15 25 15 15 25 15 15 25 15 15 25 15 15 25 255 0 255 15 15 25 15 15 25 15 15 25 15 15 25 15 15 25 15 15 25 15 15 25 15 15 25 15 15 25 15 15 25 15 15 25 15 15 25 15 15 25 15 15 25 15 15 25 15 15 25 15 15 25 15 15 25 15 15 25 15 15 25 15 15 25 15 15 25 15 15 25 15 15 25 15 15 25 15 15 25 15 15 25 15 15 25 15 15 25 15 15 25 15 15 25 15 15 25 15 15 25 15 15 25 15 15 25 15 15 25 15 15 25 
15 15 25 15 15 25 15 15 25 15 15 25 15 15 25 15 15 25 15 15 25 15 15 25 15 15 25 15 15 25 15 15 25 15 15 25 15 15 25 15 15 25 15 15 25 15 15 25 15 15 25 15 15 25 15 15 25 15 15 25 255 255 0 15 15 25 15 15 25 15 15 25 15 15 25 15 15 25 15 15 25 15 15 25 15 15 25 15 15 25 60 60 255 60 60 255 60 60 255 60 60 255 60 60 255 60 60 255 60 60 255 60 60 255 60 60 255 60 60 255 60 60 255 60 60 255 60 60 255 60 60 255 60 60 255 60 60 255 60 60 255 60 60 255 60 60 255 60 60 255 60 60 255 60 60 255 60 60 255 60 60 255 60 60 255 60 60 255 60 60 255 60 60 255 60 60 255 60 60 255 60 60 255 60 60 255 60 60 255 60 60 255 60 60 255 60 60 255 60 60 255 60 60 255 60 60 255 60 60 255 60 60 255 60 60 255 60 60 255 60 60 255 60 60 255 60 60 255 60 60 255 60 60 255 60 60 255 60 60 255 60 60 255 60 60 255 60 60 255 60 60 255 60 60 255 60 60 255 60 60 255 60 60 255 60 60 255 60 60 255 15 15 25 15 15 25 15 15 25 15 15 25 15 15 25 15 15 25 15 15 25 15 15 25 15 15 25 15 15 25 255 255 0 15 15 25 15 15 25 15 15 25 15 15 25 15 15 25 15 15 25 15 15 25 15 15 25 15 15 25 15 15 25 15 15 25 15 15 25 15 15 25 15 15 25 15 15 25 15 15 25 15 15 25 15 15 25 15 15 25 15 15 25 15 15 25 15 15 25 15 15 25 15 15 25 15 15 25 15 15 25 15 15 25 15 15 25 15 15 25 15 15 25 15 15 25 15 15 25 15 15 25 15 15 25 15 15 25 15 15 25 15 15 25 15 15 25 15 15 25 15 15 25 15 15 25 255 0 255 15 15 25 15 15 25 15 15 25 15 15 25 15 15 25 15 15 25 15 15 25 15 15 25 15 15 25 15 15 25 15 15 25 15 15 25 15 15 25 15 15 25 15 15 25 15 15 25 15 15 25 15 15 25 15 15 25 15 15 25 15 15 25 0 255 255 15 15 25 15 15 25 15 15 25 15 15 25 15 15 25 15 15 25 15 15 25 15 15 25 15 15 25 15 15 25 15 15 25 15 15 25 15 15 25 15 15 25 15 15 25 15 15 25 15 15 25 15 15 25 15 15 25 15 15 25 15 15 25 15 15 25 15 15 25 15 15 25 15 15 25 15 15 25 15 15 25 15 15 25 15 15 25 15 15 25 15 15 25 0 255 255 0 255 0 15 15 25 15 15 25 15 15 25 15 15 25 15 15 25 15 15 25 15 15 25 15 15 25 15 15 25 15 15 25 15 15 25 15 15 25 15 15 25 15 15 25 15 15 25 15 15 25 15 15 25 15 15 25 15 15 25 15 15 25 255 0 255 15 15 25 15 15 25 15 15 25 15 15 25 15 15 25 15 15 25 15 15 25 15 15 25 15 15 25 15 15 25 15 15 25 15 15 25 15 15 25 15 15 25 15 15 25 15 15 25 15 15 25 15 15 25 15 15 25 15 15 25 15 15 25 15 15 25 15 15 25 15 15 25 15 15 25 15 15 25 15 15 25 15 15 25 15 15 25 15 15 25 15 15 25 15 15 25 15 15 25 15 15 25 15 15 25 15 15 25 15 15 25 
15 15 25 15 15 25 15 15 25 15 15 25 15 15 25 15 15 25 15 15 25 15 15 25 15 15 25 15 15 25 15 15 25 15 15 25 15 15 25 15 15 25 15 15 25 15 15 25 15 15 25 15 15 25 15 15 25 15 15 25 255 255 0 15 15 25 15 15 25 15 15 25 15 15 25 15 15 25 15 15 25 15 15 25 15 15 25 15 15 25 60 60 255 60 60 255 60 60 255 60 60 255 60 60 255 60 60 255 60 60 255 60 60 255 60 60 255 60 60 255 60 60 255 60 60 255 60 60 255 60 60 255 60 60 255 60 60 255 60 60 255 60 60 255 60 60 255 60 60 255 60 60 255 60 60 255 60 60 255 60 60 255 60 60 255 60 60 255 60 60 255 60 60 255 60 60 255 60 60 255 60 60 255 60 60 255 60 60 255 60 60 255 60 60 255 60 60 255 60 60 255 60 60 255 60 60 255 60 60 255 60 60 255 60 60 255 60 60 255 60 60 255 60 60 255 60 60 255 60 60 255 60 60 255 60 60 255 60 60 255 60 60 255 60 60 255 60 60 255 60 60 255 60 60 255 60 60 255 60 60 255 60 60 255 60 60 255 60 60 255 15 15 25 15 15 25 15 15 25 15 15 25 15 15 25 15 15 25 15 15 25 15 15 25 15 15 25 15 15 25 255 255 0 15 15 25 15 15 25 15 15 25 15 15 25 15 15 25 15 15 25 15 15 25 15 15 25 15 15 25 15 15 25 15 15 25 15 15 25 15 15 25 15 15 25 15 15 25 15 15 25 15 15 25 15 15 25 15 15 25 15 15 25 15 15 25 15 15 25 15 15 25 15 15 25 15 15 25 15 15 25 15 15 25 15 15 25 15 15 25 15 15 25 15 15 25 15 15 25 15 15 25 15 15 25 15 15 25 15 15 25 15 15 25 15 15 25 15 15 25 15 15 25 15 15 25 255 0 255 15 15 25 15 15 25 15 15 25 15 15 25 15 15 25 15 15 25 15 15 25 15 15 25 15 15 25 15 15 25 15 15 25 15 15 25 15 15 25 15 15 25 15 15 25 15 15 25 15 15 25 15 15 25 15 15 25 15 15 25 0 255 255 15 15 25 15 15 25 15 15 25 15 15 25 15 15 25 15 15 25 15 15 25 15 15 25 15 15 25 15 15 25 15 15 25 15 15 25 15 15 25 15 15 25 15 15 25 15 15 25 15 15 25 15 15 25 15 15 25 15 15 25 15 15 25 15 15 25 15 15 25 15 15 25 15 15 25 15 15 25 15 15 25 15 15 25 15 15 25 15 15 25 15 15 25 15 15 25 0 255 0 0 255 255 15 15 25 15 15 25 15 15 25 15 15 25 15 15 25 15 15 25 15 15 25 15 15 25 15 15 25 15 15 25 15 15 25 15 15 25 15 15 25 15 15 25 15 15 25 15 15 25 15 15 25 15 15 25 15 15 25 15 15 25 255 0 255 15 15 25 15 15 25 15 15 25 15 15 25 15 15 25 15 15 25 15 15 25 15 15 25 15 15 25 15 15 25 15 15 25 15 15 25 15 15 25 15 15 25 15 15 25 15 15 25 15 15 25 15 15 25 15 15 25 15 15 25 15 15 25 15 15 25 15 15 25 15 15 25 15 15 25 15 15 25 15 15 25 15 15 25 15 15 25 15 15 25 15 15 25 15 15 25 15 15 25 15 15 25 15 15 25 15 15 25 15 15 25 
15 15 25 15 15 25 15 15 25 15 15 25 15 15 25 15 15 25 15 15 25 15 15 25 15 15 25 15 15 25 15 15 25 15 15 25 15 15 25 15 15 25 15 15 25 15 15 25 15 15 25 15 15 25 15 15 25 15 15 25 255 255 0 15 15 25 15 15 25 15 15 25 15 15 25 15 15 25 15 15 25 15 15 25 15 15 25 15 15 25 60 60 255 60 60 255 60 60 255 60 60 255 60 60 255 60 60 255 60 60 255 60 60 255 60 60 255 60 60 255 60 60 255 60 60 255 60 60 255 60 60 255 60 60 255 60 60 255 60 60 255 60 60 255 60 60 255 60 60 255 60 60 255 60 60 255 60 60 255 60 60 255 60 60 255 60 60 255 60 60 255 60 60 255 60 60 255 60 60 255 60 60 255 60 60 255 60 60 255 60 60 255 60 60 255 60 60 255 60 60 255 60 60 255 60 60 255 60 60 255 60 60 255 60 60 255 60 60 255 60 60 255 60 60 255 60 60 255 60 60 255 60 60 255 60 60 255 60 60 255 60 60 255 60 60 255 60 60 255 60 60 255 60 60 255 60 60 255 60 60 255 60 60 255 60 60 255 60 60 255 15 15 25 15 15 25 15 15 25 15 15 25 15 15 25 15 15 25 15 15 25 15 15 25 15 15 25 15 15 25 255 255 0 15 15 25 15 15 25 15 15 25 15 15 25 15 15 25 15 15 25 15 15 25 15 15 25 15 15 25 15 15 25 15 15 25 15 15 25 15 15 25 15 15 25 15 15 25 15 15 25 15 15 25 15 15 25 15 15 25 15 15 25 15 15 25 15 15 25 15 15 25 15 15 25 15 15 25 15 15 25 15 15 25 15 15 25 15 15 25 15 15 25 15 15 25 15 15 25 15 15 25 15 15 25 15 15 25 15 15 25 15 15 25 15 15 25 15 15 25 15 15 25 255 0 255 15 15 25 15 15 25 15 15 25 15 15 25 15 15 25 15 15 25 15 15 25 15 15 25 15 15 25 15 15 25 15 15 25 15 15 25 15 15 25 15 15 25 15 15 25 15 15 25 15 15 25 15 15 25 15 15 25 15 15 25 15 15 25 0 255 255 15 15 25 15 15 25 15 15 25 15 15 25 15 15 25 15 15 25 15 15 25 15 15 25 15 15 25 15 15 25 15 15 25 15 15 25 15 15 25 15 15 25 15 15 25 15 15 25 15 15 25 15 15 25 15 15 25 15 15 25 15 15 25 15 15 25 15 15 25 15 15 25 15 15 25 15 15 25 15 15 25 15 15 25 15 15 25 15 15 25 15 15 25 0 255 0 15 15 25 0 255 255 15 15 25 15 15 25 15 15 25 15 15 25 15 15 25 15 15 25 15 15 25 15 15 25 15 15 25 15 15 25 15 15 25 15 15 25 15 15 25 15 15 25 15 15 25 15 15 25 15 15 25 15 15 25 15 15 25 15 15 25 15 15 25 255 0 255 15 15 25 15 15 25 15 15 25 15 15 25 15 15 25 15 15 25 15 15 25 15 15 25 15 15 25 15 15 25 15 15 25 15 15 25 15 15 25 15 15 25 15 15 25 15 15 25 15 15 25 15 15 25 15 15 25 15 15 25 15 15 25 15 15 25 15 15 25 15 15 25 15 15 25 15 15 25 15 15 25 15 15 25 15 15 25 15 15 25 15 15 25 15 15 25 15 15 25 15 15 25 15 15 25 15 15 25 
15 15 25 15 15 25 15 15 25 15 15 25 15 15 25 15 15 25 15 15 25 15 15 25 15 15 25 15 15 25 15 15 25 15 15 25 15 15 25 15 15 25 15 15 25 15 15 25 15 15 25 15 15 25 15 15 25 15 15 25 255 255 0 15 15 25 15 15 25 15 15 25 15 15 25 15 15 25 15 15 25 15 15 25 15 15 25 15 15 25 60 60 255 60 60 255 60 60 255 60 60 255 60 60 255 60 60 255 60 60 255 60 60 255 60 60 255 60 60 255 60 60 255 60 60 255 60 60 255 60 60 255 60 60 255 60 60 255 60 60 255 60 60 255 60 60 255 60 60 255 60 60 255 60 60 255 60 60 255 60 60 255 60 60 255 60 60 255 60 60 255 60 60 255 60 60 255 60 60 255 60 60 255 60 60 255 60 60 255 60 60 255 60 60 255 60 60 255 60 60 255 60 60 255 60 60 255 60 60 255 60 60 255 60 60 255 60 60 255 60 60 255 60 60 255 60 60 255 60 60 255 60 60 255 60 60 255 60 60 255 60 60 255 60 60 255 60 60 255 60 60 255 60 60 255 60 60 255 60 60 255 60 60 255 60 60 255 60 60 255 15 15 25 15 15 25 15 15 25 15 15 25 15 15 25 15 15 25 15 15 25 15 15 25 15 15 25 15 15 25 255 255 0 15 15 25 15 15 25 15 15 25 15 15 25 15 15 25 15 15 25 15 15 25 15 15 25 15 15 25 15 15 25 15 15 25 15 15 25 15 15 25 15 15 25 15 15 25 15 15 25 15 15 25 15 15 25 15 15 25 15 15 25 15 15 25 15 15 25 15 15 25 15 15 25 15 15 25 15 15 25 15 15 25 15 15 25 15 15 25 15 15 25 15 15 25 15 15 25 15 15 25 15 15 25 15 15 25 15 15 25 15 15 25 15 15 25 15 15 25 15 15 25 255 0 255 15 15 25 15 15 25 15 15 25 15 15 25 15 15 25 15 15 25 15 15 25 15 15 25 15 15 25 15 15 25 15 15 25 15 15 25 15 15 25 15 15 25 15 15 25 15 15 25 15 15 25 15 15 25 15 15 25 15 15 25 0 255 255 15 15 25 15 15 25 15 15 25 15 15 25 15 15 25 15 15 25 15 15 25 15 15 25 15 15 25 15 15 25 15 15 25 15 15 25 15 15 25 15 15 25 15 15 25 15 15 25 15 15 25 15 15 25 15 15 25 15 15 25 15 15 25 15 15 25 15 15 25 15 15 25 15 15 25 15 15 25 15 15 25 15 15 25 15 15 25 15 15 25 15 15 25 0 255 0 15 15 25 15 15 25 15 15 25 0 255 255 15 15 25 15 15 25 15 15 25 15 15 25 15 15 25 15 15 25 15 15 25 15 15 25 15 15 25 15 15 25 15 15 25 15 15 25 15 15 25 15 15 25 15 15 25 15 15 25 15 15 25 15 15 25 15 15 25 15 15 25 255 0 255 15 15 25 15 15 25 15 15 25 15 15 25 15 15 25 15 15 25 15 15 25 15 15 25 15 15 25 15 15 25 15 15 25 15 15 25 15 15 25 15 15 25 15 15 25 15 15 25 15 15 25 15 15 25 15 15 25 15 15 25 15 15 25 15 15 25 15 15 25 15 15 25 15 15 25 15 15 25 15 15 25 15 15 25 15 15 25 15 15 25 15 15 25 15 15 25 15 15 25 15 15 25 15 15 25 15 15 25 
15 15 25 15 15 25 15 15 25 15 15 25 15 15 25 15 15 25 15 15 25 15 15 25 15 15 25 15 15 25 15 15 25 15 15 25 15 15 25 15 15 25 15 15 25 15 15 25 15 15 25 15 15 25 15 15 25 15 15 25 255 255 0 15 15 25 15 15 25 15 15 25 15 15 25 15 15 25 15 15 25 15 15 25 15 15 25 15 15 25 60 60 255 60 60 255 60 60 255 60 60 255 60 60 255 60 60 255 60 60 255 60 60 255 60 60 255 60 60 255 60 60 255 60 60 255 60 60 255 60 60 255 60 60 255 60 60 255 60 60 255 60 60 255 60 60 255 60 60 255 60 60 255 60 60 255 60 60 255 60 60 255 60 60 255 60 60 255 60 60 255 60 60 255 60 60 255 60 60 255 60 60 255 60 60 255 60 60 255 60 60 255 60 60 255 60 60 255 60 60 255 60 60 255 60 60 255 60 60 255 60 60 255 60 60 255 60 60 255 60 60 255 60 60 255 60 60 255 60 60 255 60 60 255 60 60 255 60 60 255 60 60 255 60 60 255 60 60 255 60 60 255 60 60 255 60 60 255 60 60 255 60 60 255 60 60 255 60 60 255 15 15 25 15 15 25 15 15 25 15 15 25 15 15 25 15 15 25 15 15 25 15 15 25 15 15 25 15 15 25 255 255 0 15 15 25 15 15 25 15 15 25 15 15 25 15 15 25 15 15 25 15 15 25 15 15 25 15 15 25 15 15 25 15 15 25 15 15 25 15 15 25 15 15 25 15 15 25 15 15 25 15 15 25 15 15 25 15 15 25 15 15 25 15 15 25 15 15 25 15 15 25 15 15 25 15 15 25 15 15 25 15 15 25 15 15 25 15 15 25 15 15 25 15 15 25 15 15 25 15 15 25 15 15 25 15 15 25 15 15 25 15 15 25 15 15 25 15 15 25 15 15 25 255 0 255 15 15 25 15 15 25 15 15 25 15 15 25 15 15 25 15 15 25 15 15 25 15 15 25 15 15 25 15 15 25 15 15 25 15 15 25 15 15 25 15 15 25 15 15 25 15 15 25 15 15 25 15 15 25 15 15 25 15 15 25 0 255 255 15 15 25 15 15 25 15 15 25 15 15 25 15 15 25 15 15 25 15 15 25 15 15 25 15 15 25 15 15 25 15 15 25 15 15 25 15 15 25 15 15 25 15 15 25 15 15 25 15 15 25 15 15 25 15 15 25 15 15 25 15 15 25 15 15 25 15 15 25 15 15 25 15 15 25 15 15 25 15 15 25 15 15 25 15 15 25 15 15 25 0 255 0 15 15 25 15 15 25 15 15 25 15 15 25 0 255 255 15 15 25 15 15 25 15 15 25 15 15 25 15 15 25 15 15 25 15 15 25 15 15 25 15 15 25 15 15 25 15 15 25 15 15 25 15 15 25 15 15 25 15 15 25 15 15 25 15 15 25 15 15 25 15 15 25 15 15 25 255 0 255 15 15 25 15 15 25 15 15 25 15 15 25 15 15 25 15 15 25 15 15 25 15 15 25 15 15 25 15 15 25 15 15 25 15 15 25 15 15 25 15 15 25 15 15 25 15 15 25 15 15 25 15 15 25 15 15 25 15 15 25 15 15 25 15 15 25 15 15 25 15 15 25 15 15 25 15 15 25 15 15 25 15 15 25 15 15 25 15 15 25 15 15 25 15 15 25 15 15 25 15 15 25 15 15 25 15 15 25 
15 15 25 15 15 25 15 15 25 15 15 25 15 15 25 15 15 25 15 15 25 15 15 25 15 15 25 15 15 25 15 15 25 15 15 25 15 15 25 15 15 25 15 15 25 15 15 25 15 15 25 15 15 25 15 15 25 15 15 25 255 255 0 15 15 25 15 15 25 15 15 25 15 15 25 15 15 25 15 15 25 15 15 25 15 15 25 15 15 25 60 60 255 60 60 255 60 60 255 60 60 255 60 60 255 60 60 255 60 60 255 60 60 255 60 60 255 60 60 255 60 60 255 60 60 255 60 60 255 60 60 255 60 60 255 60 60 255 60 60 255 60 60 255 60 60 255 60 60 255 60 60 255 60 60 255 60 60 255 60 60 255 60 60 255 60 60 255 60 60 255 60 60 255 60 60 255 60 60 255 60 60 255 60 60 255 60 60 255 60 60 255 60 60 255 60 60 255 60 60 255 60 60 255 60 60 255 60 60 255 60 60 255 60 60 255 60 60 255 60 60 255 60 60 255 60 60 255 60 60 255 60 60 255 60 60 255 60 60 255 60 60 255 60 60 255 60 60 255 60 60 255 60 60 255 60 60 255 60 60 255 60 60 255 60 60 255 60 60 255 15 15 25 15 15 25 15 15 25 15 15 25 15 15 25 15 15 25 15 15 25 15 15 25 15 15 25 15 15 25 255 255 0 15 15 25 15 15 25 15 15 25 15 15 25 15 15 25 15 15 25 15 15 25 15 15 25 15 15 25 15 15 25 15 15 25 15 15 25 15 15 25 15 15 25 15 15 25 15 15 25 15 15 25 15 15 25 15 15 25 15 15 25 15 15 25 15 15 25 15 15 25 15 15 25 15 15 25 15 15 25 15 15 25 15 15 25 15 15 25 15 15 25 15 15 25 15 15 25 15 15 25 15 15 25 15 15 25 15 15 25 15 15 25 15 15 25 15 15 25 15 15 25 255 0 255 15 15 25 15 15 25 15 15 25 15 15 25 15 15 25 15 15 25 15 15 25 15 15 25 15 15 25 15 15 25 15 15 25 15 15 25 15 15 25 15 15 25 15 15 25 15 15 25 15 15 25 15 15 25 15 15 25 0 255 255 15 15 25 15 15 25 15 15 25 15 15 25 15 15 25 15 15 25 15 15 25 15 15 25 15 15 25 15 15 25 15 15 25 15 15 25 15 15 25 15 15 25 15 15 25 15 15 25 15 15 25 15 15 25 15 15 25 15 15 25 15 15 25 15 15 25 15 15 25 15 15 25 15 15 25 15 15 25 15 15 25 15 15 25 15 15 25 15 15 25 0 255 0 15 15 25 15 15 25 15 15 25 15 15 25 15 15 25 15 15 25 0 255 255 15 15 25 15 15 25 15 15 25 15 15 25 15 15 25 15 15 25 15 15 25 15 15 25 15 15 25 15 15 25 15 15 25 15 15 25 15 15 25 15 15 25 15 15 25 15 15 25 15 15 25 15 15 25 15 15 25 255 0 255 15 15 25 15 15 25 15 15 25 15 15 25 15 15 25 15 15 25 15 15 25 15 15 25 15 15 25 15 15 25 15 15 25 15 15 25 15 15 25 15 15 25 15 15 25 15 15 25 15 15 25 15 15 25 15 15 25 15 15 25 15 15 25 15 15 25 15 15 25 15 15 25 15 15 25 15 15 25 15 15 25 15 15 25 15 15 25 15 15 25 15 15 25 15 15 25 15 15 25 15 15 25 15 15 25 15 15 25 
15 15 25 15 15 25 15 15 25 15 15 25 15 15 25 15 15 25 15 15 25 15 15 25 15 15 25 15 15 25 15 15 25 15 15 25 15 15 25 15 15 25 15 15 25 15 15 25 15 15 25 15 15 25 15 15 25 15 15 25 255 255 0 15 15 25 15 15 25 15 15 25 15 15 25 15 15 25 15 15 25 15 15 25 15 15 25 15 15 25 60 60 255 60 60 255 60 60 255 60 60 255 60 60 255 60 60 255 60 60 255 60 60 255 60 60 255 60 60 255 60 60 255 60 60 255 60 60 255 60 60 255 60 60 255 60 60 255 60 60 255 60 60 255 60 60 255 60 60 255 60 60 255 60 60 255 60 60 255 60 60 255 60 60 255 60 60 255 60 60 255 60 60 255 60 60 255 60 60 255 60 60 255 60 60 255 60 60 255 60 60 255 60 60 255 60 60 255 60 60 255 60 60 255 60 60 255 60 60 255 60 60 255 60 60 255 60 60 255 60 60 255 60 60 255 60 60 255 60 60 255 60 60 255 60 60 255 60 60 255 60 60 255 60 60 255 60 60 255 60 60 255 60 60 255 60 60 255 60 60 255 60 60 255 60 60 255 60 60 255 15 15 25 15 15 25 15 15 25 15 15 25 15 15 25 15 15 25 15 15 25 15 15 25 15 15 25 15 15 25 255 255 0 15 15 25 15 15 25 15 15 25 15 15 25 15 15 25 15 15 25 15 15 25 15 15 25 15 15 25 15 15 25 15 15 25 15 15 25 15 15 25 15 15 25 15 15 25 15 15 25 15 15 25 15 15 25 15 15 25 15 15 25 15 15 25 15 15 25 15 15 25 15 15 25 15 15 25 15 15 25 15 15 25 15 15 25 15 15 25 15 15 25 15 15 25 15 15 25 15 15 25 15 15 25 15 15 25 15 15 25 15 15 25 15 15 25 15 15 25 255 0 255 15 15 25 15 15 25 15 15 25 15 15 25 15 15 25 15 15 25 15 15 25 15 15 25 15 15 25 15 15 25 15 15 25 15 15 25 15 15 25 15 15 25 15 15 25 15 15 25 15 15 25 15 15 25 15 15 25 15 15 25 0 255 255 15 15 25 15 15 25 15 15 25 15 15 25 15 15 25 15 15 25 15 15 25 15 15 25 15 15 25 15 15 25 15 15 25 15 15 25 15 15 25 15 15 25 15 15 25 15 15 25 15 15 25 15 15 25 15 15 25 15 15 25 15 15 25 15 15 25 15 15 25 15 15 25 15 15 25 15 15 25 15 15 25 15 15 25 15 15 25 0 255 0 15 15 25 15 15 25 15 15 25 15 15 25 15 15 25 15 15 25 15 15 25 0 255 255 15 15 25 15 15 25 15 15 25 15 15 25 15 15 25 15 15 25 15 15 25 15 15 25 15 15 25 15 15 25 15 15 25 15 15 25 15 15 25 15 15 25 15 15 25 15 15 25 15 15 25 15 15 25 15 15 25 15 15 25 255 0 255 15 15 25 15 15 25 15 15 25 15 15 25 15 15 25 15 15 25 15 15 25 15 15 25 15 15 25 15 15 25 15 15 25 15 15 25 15 15 25 15 15 25 15 15 25 15 15 25 15 15 25 15 15 25 15 15 25 15 15 25 15 15 25 15 15 25 15 15 25 15 15 25 15 15 25 15 15 25 15 15 25 15 15 25 15 15 25 15 15 25 15 15 25 15 15 25 15 15 25 15 15 25 15 15 25 
15 15 25 15 15 25 15 15 25 15 15 25 15 15 25 15 15 25 15 15 25 15 15 25 15 15 25 15 15 25 15 15 25 15 15 25 15 15 25 15 15 25 15 15 25 15 15 25 15 15 25 15 15 25 15 15 25 15 15 25 255 255 0 15 15 25 15 15 25 15 15 25 15 15 25 15 15 25 15 15 25 15 15 25 15 15 25 15 15 25 60 60 255 60 60 255 60 60 255 60 60 255 60 60 255 60 60 255 60 60 255 60 60 255 60 60 255 60 60 255 60 60 255 60 60 255 60 60 255 60 60 255 60 60 255 60 60 255 60 60 255 60 60 255 60 60 255 60 60 255 60 60 255 60 60 255 60 60 255 60 60 255 60 60 255 60 60 255 60 60 255 60 60 255 60 60 255 60 60 255 60 60 255 60 60 255 60 60 255 60 60 255 60 60 255 60 60 255 60 60 255 60 60 255 60 60 255 60 60 255 60 60 255 60 60 255 60 60 255 60 60 255 60 60 255 60 60 255 60 60 255 60 60 255 60 60 255 60 60 255 60 60 255 60 60 255 60 60 255 60 60 255 60 60 255 60 60 255 60 60 255 60 60 255 60 60 255 60 60 255 15 15 25 15 15 25 15 15 25 15 15 25 15 15 25 15 15 25 15 15 25 15 15 25 15 15 25 15 15 25 255 255 0 15 15 25 15 15 25 15 15 25 15 15 25 15 15 25 15 15 25 15 15 25 15 15 25 15 15 25 15 15 25 15 15 25 15 15 25 15 15 25 15 15 25 15 15 25 15 15 25 15 15 25 15 15 25 15 15 25 15 15 25 15 15 25 15 15 25 15 15 25 15 15 25 15 15 25 15 15 25 15 15 25 15 15 25 15 15 25 15 15 25 15 15 25 15 15 25 15 15 25 15 15 25 15 15 25 15 15 25 15 15 25 15 15 25 15 15 25 255 0 255 15 15 25 15 15 25 15 15 25 15 15 25 15 15 25 15 15 25 15 15 25 15 15 25 15 15 25 15 15 25 15 15 25 15 15 25 15 15 25 15 15 25 15 15 25 15 15 25 15 15 25 15 15 25 15 15 25 15 15 25 0 255 255 15 15 25 15 15 25 15 15 25 15 15 25 15 15 25 15 15 25 15 15 25 15 15 25 15 15 25 15 15 25 15 15 25 15 15 25 15 15 25 15 15 25 15 15 25 15 15 25 15 15 25 15 15 25 15 15 25 15 15 25 15 15 25 15 15 25 15 15 25 15 15 25 15 15 25 15 15 25 15 15 25 15 15 25 0 255 0 15 15 25 15 15 25 15 15 25 15 15 25 15 15 25 15 15 25 15 15 25 15 15 25 0 255 255 15 15 25 15 15 25 15 15 25 15 15 25 15 15 25 15 15 25 15 15 25 15 15 25 15 15 25 15 15 25 15 15 25 15 15 25 15 15 25 15 15 25 15 15 25 15 15 25 15 15 25 15 15 25 15 15 25 15 15 25 255 0 255 15 15 25 15 15 25 15 15 25 15 15 25 15 15 25 15 15 25 15 15 25 15 15 25 15 15 25 15 15 25 15 15 25 15 15 25 15 15 25 15 15 25 15 15 25 15 15 25 15 15 25 15 15 25 15 15 25 15 15 25 15 15 25 15 15 25 15 15 25 15 15 25 15 15 25 15 15 25 15 15 25 15 15 25 15 15 25 15 15 25 15 15 25 15 15 25 15 15 25 15 15 25 15 15 25 
15 15 25 15 15 25 15 15 25 15 15 25 15 15 25 15 15 25 15 15 25 15 15 25 15 15 25 15 15 25 15 15 25 15 15 25 15 15 25 15 15 25 15 15 25 15 15 25 15 15 25 15 15 25 15 15 25 15 15 25 255 255 0 15 15 25 15 15 25 15 15 25 15 15 25 15 15 25 15 15 25 15 15 25 15 15 25 15 15 25 60 60 255 60 60 255 60 60 255 60 60 255 60 60 255 60 60 255 60 60 255 60 60 255 60 60 255 60 60 255 60 60 255 60 60 255 60 60 255 60 60 255 60 60 255 60 60 255 60 60 255 60 60 255 60 60 255 60 60 255 60 60 255 60 60 255 60 60 255 60 60 255 60 60 255 60 60 255 60 60 255 60 60 255 60 60 255 60 60 255 60 60 255 60 60 255 60 60 255 60 60 255 60 60 255 60 60 255 60 60 255 60 60 255 60 60 255 60 60 255 60 60 255 60 60 255 60 60 255 60 60 255 60 60 255 60 60 255 60 60 255 60 60 255 60 60 255 60 60 255 60 60 255 60 60 255 60 60 255 60 60 255 60 60 255 60 60 255 60 60 255 60 60 255 60 60 255 60 60 255 15 15 25 15 15 25 15 15 25 15 15 25 15 15 25 15 15 25 15 15 25 15 15 25 15 15 25 15 15 25 255 255 0 15 15 25 15 15 25 15 15 25 15 15 25 15 15 25 15 15 25 15 15 25 15 15 25 15 15 25 15 15 25 15 15 25 15 15 25 15 15 25 15 15 25 15 15 25 15 15 25 15 15 25 15 15 25 15 15 25 15 15 25 15 15 25 15 15 25 15 15 25 15 15 25 15 15 25 15 15 25 15 15 25 15 15 25 15 15 25 15 15 25 15 15 25 15 15 25 15 15 25 15 15 25 15 15 25 15 15 25 15 15 25 15 15 25 15 15 25 255 0 255 15 15 25 15 15 25 15 15 25 15 15 25 15 15 25 15 15 25 15 15 25 15 15 25 15 15 25 15 15 25 15 15 25 15 15 25 15 15 25 15 15 25 15 15 25 15 15 25 15 15 25 15 15 25 15 15 25 0 255 255 15 15 25 15 15 25 15 15 25 15 15 25 15 15 25 15 15 25 15 15 25 15 15 25 15 15 25 15 15 25 15 15 25 15 15 25 15 15 25 15 15 25 15 15 25 15 15 25 15 15 25 15 15 25 15 15 25 15 15 25 15 15 25 15 15 25 15 15 25 15 15 25 15 15 25 15 15 25 15 15 25 15 15 25 0 255 0 15 15 25 15 15 25 15 15 25 15 15 25 15 15 25 15 15 25 15 15 25 15 15 25 15 15 25 15 15 25 0 255 255 15 15 25 15 15 25 15 15 25 15 15 25 15 15 25 15 15 25 15 15 25 15 15 25 15 15 25 15 15 25 15 15 25 15 15 25 15 15 25 15 15 25 15 15 25 15 15 25 15 15 25 15 15 25 15 15 25 255 0 255 15 15 25 15 15 25 15 15 25 15 15 25 15 15 25 15 15 25 15 15 25 15 15 25 15 15 25 15 15 25 15 15 25 15 15 25 15 15 25 15 15 25 15 15 25 15 15 25 15 15 25 15 15 25 15 15 25 15 15 25 15 15 25 15 15 25 15 15 25 15 15 25 15 15 25 15 15 25 15 15 25 15 15 25 15 15 25 15 15 25 15 15 25 15 15 25 15 15 25 15 15 25 15 15 25 
15 15 25 15 15 25 15 15 25 15 15 25 15 15 25 15 15 25 15 15 25 15 15 25 15 15 25 15 15 25 15 15 25 15 15 25 15 15 25 15 15 25 15 15 25 15 15 25 15 15 25 15 15 25 15 15 25 15 15 25 255 255 0 15 15 25 15 15 25 15 15 25 15 15 25 15 15 25 15 15 25 15 15 25 15 15 25 15 15 25 60 60 255 60 60 255 60 60 255 60 60 255 60 60 255 60 60 255 60 60 255 60 60 255 60 60 255 60 60 255 60 60 255 60 60 255 60 60 255 60 60 255 60 60 255 60 60 255 60 60 255 60 60 255 60 60 255 60 60 255 60 60 255 60 60 255 60 60 255 60 60 255 60 60 255 60 60 255 60 60 255 60 60 255 60 60 255 60 60 255 60 60 255 60 60 255 60 60 255 60 60 255 60 60 255 60 60 255 60 60 255 60 60 255 60 60 255 60 60 255 60 60 255 60 60 255 60 60 255 60 60 255 60 60 255 60 60 255 60 60 255 60 60 255 60 60 255 60 60 255 60 60 255 60 60 255 60 60 255 60 60 255 60 60 255 60 60 255 60 60 255 60 60 255 60 60 255 60 60 255 15 15 25 15 15 25 15 15 25 15 15 25 15 15 25 15 15 25 15 15 25 15 15 25 15 15 25 15 15 25 255 255 0 15 15 25 15 15 25 15 15 25 15 15 25 15 15 25 15 15 25 15 15 25 15 15 25 15 15 25 15 15 25 15 15 25 15 15 25 15 15 25 15 15 25 15 15 25 15 15 25 15 15 25 15 15 25 15 15 25 15 15 25 15 15 25 15 15 25 15 15 25 15 15 25 15 15 25 15 15 25 15 15 25 15 15 25 15 15 25 15 15 25 15 15 25 15 15 25 15 15 25 15 15 25 15 15 25 15 15 25 15 15 25 15 15 25 15 15 25 255 0 255 15 15 25 15 15 25 15 15 25 15 15 25 15 15 25 15 15 25 15 15 25 15 15 25 15 15 25 15 15 25 15 15 25 15 15 25 15 15 25 15 15 25 15 15 25 15 15 25 15 15 25 15 15 25 15 15 25 0 255 255 15 15 25 15 15 25 15 15 25 15 15 25 15 15 25 15 15 25 15 15 25 15 15 25 15 15 25 15 15 25 15 15 25 15 15 25 15 15 25 15 15 25 15 15 25 15 15 25 15 15 25 15 15 25 15 15 25 15 15 25 15 15 25 15 15 25 15 15 25 15 15 25 15 15 25 15 15 25 15 15 25 0 255 0 15 15 25 15 15 25 15 15 25 15 15 25 15 15 25 15 15 25 15 15 25 15 15 25 15 15 25 15 15 25 15 15 25 0 255 255 15 15 25 15 15 25 15 15 25 15 15 25 15 15 25 15 15 25 15 15 25 15 15 25 15 15 25 15 15 25 15 15 25 15 15 25 15 15 25 15 15 25 15 15 25 15 15 25 15 15 25 15 15 25 15 15 25 255 0 255 15 15 25 15 15 25 15 15 25 15 15 25 15 15 25 15 15 25 15 15 25 15 15 25 15 15 25 15 15 25 15 15 25 15 15 25 15 15 25 15 15 25 15 15 25 15 15 25 15 15 25 15 15 25 15 15 25 15 15 25 15 15 25 15 15 25 15 15 25 15 15 25 15 15 25 15 15 25 15 15 25 15 15 25 15 15 25 15 15 25 15 15 25 15 15 25 15 15 25 15 15 25 15 15 25 
15 15 25 15 15 25 15 15 25 15 15 25 15 15 25 15 15 25 15 15 25 15 15 25 15 15 25 15 15 25 15 15 25 15 15 25 15 15 25 15 15 25 15 15 25 15 15 25 15 15 25 15 15 25 15 15 25 15 15 25 255 255 0 15 15 25 15 15 25 15 15 25 15 15 25 15 15 25 15 15 25 15 15 25 15 15 25 15 15 25 60 60 255 60 60 255 60 60 255 60 60 255 60 60 255 60 60 255 60 60 255 60 60 255 60 60 255 60 60 255 60 60 255 60 60 255 60 60 255 60 60 255 60 60 255 60 60 255 60 60 255 60 60 255 60 60 255 60 60 255 60 60 255 60 60 255 60 60 255 60 60 255 60 60 255 60 60 255 60 60 255 60 60 255 60 60 255 60 60 255 60 60 255 60 60 255 60 60 255 60 60 255 60 60 255 60 60 255 60 60 255 60 60 255 60 60 255 60 60 255 60 60 255 60 60 255 60 60 255 60 60 255 60 60 255 60 60 255 60 60 255 60 60 255 60 60 255 60 60 255 60 60 255 60 60 255 60 60 255 60 60 255 60 60 255 60 60 255 60 60 255 60 60 255 60 60 255 60 60 255 15 15 25 15 15 25 15 15 25 15 15 25 15 15 25 15 15 25 15 15 25 15 15 25 15 15 25 15 15 25 255 255 0 15 15 25 15 15 25 15 15 25 15 15 25 15 15 25 15 15 25 15 15 25 15 15 25 15 15 25 15 15 25 15 15 25 15 15 25 15 15 25 15 15 25 15 15 25 15 15 25 15 15 25 15 15 25 15 15 25 15 15 25 15 15 25 15 15 25 15 15 25 15 15 25 15 15 25 15 15 25 15 15 25 15 15 25 15 15 25 15 15 25 15 15 25 15 15 25 15 15 25 15 15 25 15 15 25 15 15 25 15 15 25 15 15 25 15 15 25 255 0 255 15 15 25 15 15 25 15 15 25 15 15 25 15 15 25 15 15 25 15 15 25 15 15 25 15 15 25 15 15 25 15 15 25 15 15 25 15 15 25 15 15 25 15 15 25 15 15 25 15 15 25 15 15 25 15 15 25 0 255 255 15 15 25 15 15 25 15 15 25 15 15 25 15 15 25 15 15 25 15 15 25 15 15 25 15 15 25 15 15 25 15 15 25 15 15 25 15 15 25 15 15 25 15 15 25 15 15 25 15 15 25 15 15 25 15 15 25 15 15 25 15 15 25 15 15 25 15 15 25 15 15 25 15 15 25 15 15 25 0 255 0 15 15 25 15 15 25 15 15 25 15 15 25 15 15 25 15 15 25 15 15 25 15 15 25 15 15 25 15 15 25 15 15 25 15 15 25 0 255 255 15 15 25 15 15 25 15 15 25 15 15 25 15 15 25 15 15 25 15 15 25 15 15 25 15 15 25 15 15 25 15 15 25 15 15 25 15 15 25 15 15 25 15 15 25 15 15 25 15 15 25 15 15 25 15 15 25 255 0 255 15 15 25 15 15 25 15 15 25 15 15 25 15 15 25 15 15 25 15 15 25 15 15 25 15 15 25 15 15 25 15 15 25 15 15 25 15 15 25 15 15 25 15 15 25 15 15 25 15 15 25 15 15 25 15 15 25 15 15 25 15 15 25 15 15 25 15 15 25 15 15 25 15 15 25 15 15 25 15 15 25 15 15 25 15 15 25 15 15 25 15 15 25 15 15 25 15 15 25 15 15 25 15 15 25 
15 15 25 15 15 25 15 15 25 15 15 25 15 15 25 15 15 25 15 15 25 15 15 25 15 15 25 15 15 25 15 15 25 15 15 25 15 15 25 15 15 25 15 15 25 15 15 25 15 15 25 15 15 25 15 15 25 15 15 25 255 255 0 15 15 25 15 15 25 15 15 25 15 15 25 15 15 25 15 15 25 15 15 25 15 15 25 15 15 25 60 60 255 60 60 255 60 60 255 60 60 255 60 60 255 60 60 255 60 60 255 60 60 255 60 60 255 60 60 255 60 60 255 60 60 255 60 60 255 60 60 255 60 60 255 60 60 255 60 60 255 60 60 255 60 60 255 60 60 255 60 60 255 60 60 255 60 60 255 60 60 255 60 60 255 60 60 255 60 60 255 60 60 255 60 60 255 60 60 255 60 60 255 60 60 255 60 60 255 60 60 255 60 60 255 60 60 255 60 60 255 60 60 255 60 60 255 60 60 255 60 60 255 60 60 255 60 60 255 60 60 255 60 60 255 60 60 255 60 60 255 60 60 255 60 60 255 60 60 255 60 60 255 60 60 255 60 60 255 60 60 255 60 60 255 60 60 255 60 60 255 60 60 255 60 60 255 60 60 255 15 15 25 15 15 25 15 15 25 15 15 25 15 15 25 15 15 25 15 15 25 15 15 25 15 15 25 15 15 25 255 255 0 15 15 25 15 15 25 15 15 25 15 15 25 15 15 25 15 15 25 15 15 25 15 15 25 15 15 25 15 15 25 15 15 25 15 15 25 15 15 25 15 15 25 15 15 25 15 15 25 15 15 25 15 15 25 15 15 25 15 15 25 15 15 25 15 15 25 15 15 25 15 15 25 15 15 25 15 15 25 15 15 25 15 15 25 15 15 25 15 15 25 15 15 25 15 15 25 15 15 25 15 15 25 15 15 25 15 15 25 15 15 25 15 15 25 15 15 25 255 0 255 15 15 25 15 15 25 15 15 25 15 15 25 15 15 25 15 15 25 15 15 25 15 15 25 15 15 25 15 15 25 15 15 25 15 15 25 15 15 25 15 15 25 15 15 25 15 15 25 15 15 25 15 15 25 15 15 25 0 255 255 15 15 25 15 15 25 15 15 25 15 15 25 15 15 25 15 15 25 15 15 25 15 15 25 15 15 25 15 15 25 15 15 25 15 15 25 15 15 25 15 15 25 15 15 25 15 15 25 15 15 25 15 15 25 15 15 25 15 15 25 15 15 25 15 15 25 15 15 25 15 15 25 15 15 25 0 255 0 15 15 25 15 15 25 15 15 25 15 15 25 15 15 25 15 15 25 15 15 25 15 15 25 15 15 25 15 15 25 15 15 25 15 15 25 15 15 25 0 255 255 15 15 25 15 15 25 15 15 25 15 15 25 15 15 25 15 15 25 15 15 25 15 15 25 15 15 25 15 15 25 15 15 25 15 15 25 15 15 25 15 15 25 15 15 25 15 15 25 15 15 25 15 15 25 15 15 25 255 0 255 15 15 25 15 15 25 15 15 25 15 15 25 15 15 25 15 15 25 15 15 25 15 15 25 15 15 25 15 15 25 15 15 25 15 15 25 15 15 25 15 15 25 15 15 25 15 15 25 15 15 25 15 15 25 15 15 25 15 15 25 15 15 25 15 15 25 15 15 25 15 15 25 15 15 25 15 15 25 15 15 25 15 15 25 15 15 25 15 15 25 15 15 25 15 15 25 15 15 25 15 15 25 15 15 25 
15 15 25 15 15 25 15 15 25 15 15 25 15 15 25 15 15 25 15 15 25 15 15 25 15 15 25 15 15 25 15 15 25 15 15 25 15 15 25 15 15 25 15 15 25 15 15 25 15 15 25 15 15 25 15 15 25 15 15 25 255 255 0 15 15 25 15 15 25 15 15 25 15 15 25 15 15 25 15 15 25 15 15 25 15 15 25 15 15 25 15 15 25 15 15 25 15 15 25 15 15 25 15 15 25 15 15 25 15 15 25 15 15 25 15 15 25 15 15 25 15 15 25 15 15 25 15 15 25 15 15 25 15 15 25 15 15 25 15 15 25 15 15 25 15 15 25 15 15 25 15 15 25 15 15 25 15 15 25 15 15 25 15 15 25 15 15 25 15 15 25 15 15 25 15 15 25 15 15 25 15 15 25 15 15 25 15 15 25 15 15 25 15 15 25 15 15 25 15 15 25 15 15 25 15 15 25 15 15 25 255 0 0 15 15 25 15 15 25 15 15 25 15 15 25 15 15 25 15 15 25 15 15 25 15 15 25 15 15 25 15 15 25 15 15 25 15 15 25 15 15 25 15 15 25 15 15 25 15 15 25 15 15 25 15 15 25 15 15 25 15 15 25 15 15 25 15 15 25 15 15 25 15 15 25 15 15 25 15 15 25 15 15 25 15 15 25 15 15 25 255 255 0 15 15 25 15 15 25 15 15 25 15 15 25 15 15 25 15 15 25 15 15 25 15 15 25 15 15 25 15 15 25 15 15 25 15 15 25 15 15 25 15 15 25 15 15 25 15 15 25 15 15 25 15 15 25 15 15 25 15 15 25 15 15 25 15 15 25 15 15 25 15 15 25 15 15 25 15 15 25 15 15 25 15 15 25 15 15 25 15 15 25 15 15 25 15 15 25 15 15 25 15 15 25 15 15 25 15 15 25 15 15 25 15 15 25 15 15 25 255 0 255 15 15 25 15 15 25 15 15 25 15 15 25 15 15 25 15 15 25 15 15 25 15 15 25 15 15 25 15 15 25 15 15 25 15 15 25 15 15 25 15 15 25 15 15 25 15 15 25 15 15 25 15 15 25 15 15 25 0 255 255 15 15 25 15 15 25 15 15 25 15 15 25 15 15 25 15 15 25 15 15 25 15 15 25 15 15 25 15 15 25 15 15 25 15 15 25 15 15 25 15 15 25 15 15 25 15 15 25 15 15 25 15 15 25 15 15 25 15 15 25 15 15 25 15 15 25 15 15 25 15 15 25 0 255 0 15 15 25 15 15 25 15 15 25 15 15 25 15 15 25 15 15 25 15 15 25 15 15 25 15 15 25 15 15 25 15 15 25 15 15 25 15 15 25 15 15 25 0 255 255 15 15 25 15 15 25 15 15 25 15 15 25 15 15 25 15 15 25 15 15 25 15 15 25 15 15 25 15 15 25 15 15 25 15 15 25 15 15 25 15 15 25 15 15 25 15 15 25 15 15 25 15 15 25 15 15 25 255 0 255 15 15 25 15 15 25 15 15 25 15 15 25 15 15 25 15 15 25 15 15 25 15 15 25 15 15 25 15 15 25 15 15 25 15 15 25 15 15 25 15 15 25 15 15 25 15 15 25 15 15 25 15 15 25 15 15 25 15 15 25 15 15 25 15 15 25 15 15 25 15 15 25 15 15 25 15 15 25 15 15 25 15 15 25 15 15 25 15 15 25 15 15 25 15 15 25 15 15 25 15 15 25 15 15 25 
15 15 25 15 15 25 15 15 25 15 15 25 15 15 25 15 15 25 15 15 25 15 15 25 15 15 25 15 15 25 15 15 25 15 15 25 15 15 25 15 15 25 15 15 25 15 15 25 15 15 25 15 15 25 15 15 25 15 15 25 255 255 0 15 15 25 15 15 25 15 15 25 15 15 25 15 15 25 15 15 25 15 15 25 15 15 25 15 15 25 15 15 25 15 15 25 15 15 25 15 15 25 15 15 25 15 15 25 15 15 25 15 15 25 15 15 25 15 15 25 15 15 25 15 15 25 15 15 25 15 15 25 15 15 25 15 15 25 15 15 25 15 15 25 15 15 25 15 15 25 15 15 25 15 15 25 15 15 25 15 15 25 15 15 25 15 15 25 15 15 25 15 15 25 15 15 25 15 15 25 15 15 25 15 15 25 15 15 25 15 15 25 15 15 25 15 15 25 15 15 25 15 15 25 15 15 25 15 15 25 15 15 25 255 0 0 15 15 25 15 15 25 15 15 25 15 15 25 15 15 25 15 15 25 15 15 25 15 15 25 15 15 25 15 15 25 15 15 25 15 15 25 15 15 25 15 15 25 15 15 25 15 15 25 15 15 25 15 15 25 15 15 25 15 15 25 15 15 25 15 15 25 15 15 25 15 15 25 15 15 25 15 15 25 15 15 25 15 15 25 255 255 0 15 15 25 15 15 25 15 15 25 15 15 25 15 15 25 15 15 25 15 15 25 15 15 25 15 15 25 15 15 25 15 15 25 15 15 25 15 15 25 15 15 25 15 15 25 15 15 25 15 15 25 15 15 25 15 15 25 15 15 25 15 15 25 15 15 25 15 15 25 15 15 25 15 15 25 15 15 25 15 15 25 15 15 25 15 15 25 15 15 25 15 15 25 15 15 25 15 15 25 15 15 25 15 15 25 15 15 25 15 15 25 15 15 25 15 15 25 255 0 255 15 15 25 15 15 25 15 15 25 15 15 25 15 15 25 15 15 25 15 15 25 15 15 25 15 15 25 15 15 25 15 15 25 15 15 25 15 15 25 15 15 25 15 15 25 15 15 25 15 15 25 15 15 25 15 15 25 0 255 255 15 15 25 15 15 25 15 15 25 15 15 25 15 15 25 15 15 25 15 15 25 15 15 25 15 15 25 15 15 25 15 15 25 15 15 25 15 15 25 15 15 25 15 15 25 15 15 25 15 15 25 15 15 25 15 15 25 15 15 25 15 15 25 15 15 25 15 15 25 0 255 0 15 15 25 15 15 25 15 15 25 15 15 25 15 15 25 15 15 25 15 15 25 15 15 25 15 15 25 15 15 25 15 15 25 15 15 25 15 15 25 15 15 25 15 15 25 0 255 255 15 15 25 15 15 25 15 15 25 15 15 25 15 15 25 15 15 25 15 15 25 15 15 25 15 15 25 15 15 25 15 15 25 15 15 25 15 15 25 15 15 25 15 15 25 15 15 25 15 15 25 15 15 25 15 15 25 255 0 255 15 15 25 15 15 25 15 15 25 15 15 25 15 15 25 15 15 25 15 15 25 15 15 25 15 15 25 15 15 25 15 15 25 15 15 25 15 15 25 15 15 25 15 15 25 15 15 25 15 15 25 15 15 25 15 15 25 15 15 25 15 15 25 15 15 25 15 15 25 15 15 25 15 15 25 15 15 25 15 15 25 15 15 25 15 15 25 15 15 25 15 15 25 15 15 25 15 15 25 15 15 25 15 15 25 
15 15 25 15 15 25 15 15 25 15 15 25 15 15 25 15 15 25 15 15 25 15 15 25 15 15 25 15 15 25 15 15 25 15 15 25 15 15 25 15 15 25 15 15 25 15 15 25 15 15 25 15 15 25 15 15 25 15 15 25 255 255 0 15 15 25 15 15 25 15 15 25 15 15 25 15 15 25 15 15 25 15 15 25 15 15 25 15 15 25 15 15 25 15 15 25 15 15 25 15 15 25 15 15 25 15 15 25 15 15 25 15 15 25 15 15 25 15 15 25 15 15 25 15 15 25 15 15 25 15 15 25 15 15 25 15 15 25 15 15 25 15 15 25 15 15 25 15 15 25 15 15 25 15 15 25 15 15 25 15 15 25 15 15 25 15 15 25 15 15 25 15 15 25 15 15 25 15 15 25 15 15 25 15 15 25 15 15 25 15 15 25 15 15 25 15 15 25 15 15 25 15 15 25 15 15 25 15 15 25 15 15 25 15 15 25 255 0 0 15 15 25 15 15 25 15 15 25 15 15 25 15 15 25 15 15 25 15 15 25 15 15 25 15 15 25 15 15 25 15 15 25 15 15 25 15 15 25 15 15 25 15 15 25 15 15 25 15 15 25 15 15 25 15 15 25 15 15 25 15 15 25 15 15 25 15 15 25 15 15 25 15 15 25 15 15 25 15 15 25 255 255 0 15 15 25 15 15 25 15 15 25 15 15 25 15 15 25 15 15 25 15 15 25 15 15 25 15 15 25 15 15 25 15 15 25 15 15 25 15 15 25 15 15 25 15 15 25 15 15 25 15 15 25 15 15 25 15 15 25 15 15 25 15 15 25 15 15 25 15 15 25 15 15 25 15 15 25 15 15 25 15 15 25 15 15 25 15 15 25 15 15 25 15 15 25 15 15 25 15 15 25 15 15 25 15 15 25 15 15 25 15 15 25 15 15 25 15 15 25 255 0 255 15 15 25 15 15 25 15 15 25 15 15 25 15 15 25 15 15 25 15 15 25 15 15 25 15 15 25 15 15 25 15 15 25 15 15 25 15 15 25 15 15 25 15 15 25 15 15 25 15 15 25 15 15 25 15 15 25 0 255 255 15 15 25 15 15 25 15 15 25 15 15 25 15 15 25 15 15 25 15 15 25 15 15 25 15 15 25 15 15 25 15 15 25 15 15 25 15 15 25 15 15 25 15 15 25 15 15 25 15 15 25 15 15 25 15 15 25 15 15 25 15 15 25 15 15 25 0 255 0 15 15 25 15 15 25 15 15 25 15 15 25 15 15 25 15 15 25 15 15 25 15 15 25 15 15 25 15 15 25 15 15 25 15 15 25 15 15 25 15 15 25 15 15 25 15 15 25 0 255 255 15 15 25 15 15 25 15 15 25 15 15 25 15 15 25 15 15 25 15 15 25 15 15 25 15 15 25 15 15 25 15 15 25 15 15 25 15 15 25 15 15 25 15 15 25 15 15 25 15 15 25 15 15 25 15 15 25 255 0 255 15 15 25 15 15 25 15 15 25 15 15 25 15 15 25 15 15 25 15 15 25 15 15 25 15 15 25 15 15 25 15 15 25 15 15 25 15 15 25 15 15 25 15 15 25 15 15 25 15 15 25 15 15 25 15 15 25 15 15 25 15 15 25 15 15 25 15 15 25 15 15 25 15 15 25 15 15 25 15 15 25 15 15 25 15 15 25 15 15 25 15 15 25 15 15 25 15 15 25 15 15 25 15 15 25 
15 15 25 15 15 25 15 15 25 15 15 25 15 15 25 15 15 25 15 15 25 15 15 25 15 15 25 15 15 25 15 15 25 15 15 25 15 15 25 15 15 25 15 15 25 15 15 25 15 15 25 15 15 25 15 15 25 15 15 25 255 255 0 15 15 25 15 15 25 15 15 25 15 15 25 15 15 25 15 15 25 15 15 25 15 15 25 15 15 25 15 15 25 15 15 25 15 15 25 15 15 25 15 15 25 15 15 25 15 15 25 15 15 25 15 15 25 15 15 25 15 15 25 15 15 25 15 15 25 15 15 25 15 15 25 15 15 25 15 15 25 15 15 25 15 15 25 15 15 25 15 15 25 15 15 25 15 15 25 15 15 25 15 15 25 15 15 25 15 15 25 15 15 25 15 15 25 15 15 25 15 15 25 15 15 25 15 15 25 15 15 25 15 15 25 15 15 25 15 15 25 15 15 25 15 15 25 15 15 25 15 15 25 15 15 25 15 15 25 255 0 0 15 15 25 15 15 25 15 15 25 15 15 25 15 15 25 15 15 25 15 15 25 15 15 25 15 15 25 15 15 25 15 15 25 15 15 25 15 15 25 15 15 25 15 15 25 15 15 25 15 15 25 15 15 25 15 15 25 15 15 25 15 15 25 15 15 25 15 15 25 15 15 25 15 15 25 15 15 25 255 255 0 15 15 25 15 15 25 15 15 25 15 15 25 15 15 25 15 15 25 15 15 25 15 15 25 15 15 25 15 15 25 15 15 25 15 15 25 15 15 25 15 15 25 15 15 25 15 15 25 15 15 25 15 15 25 15 15 25 15 15 25 15 15 25 15 15 25 15 15 25 15 15 25 15 15 25 15 15 25 15 15 25 15 15 25 15 15 25 15 15 25 15 15 25 15 15 25 15 15 25 15 15 25 15 15 25 15 15 25 15 15 25 15 15 25 15 15 25 255 0 255 15 15 25 15 15 25 15 15 25 15 15 25 15 15 25 15 15 25 15 15 25 15 15 25 15 15 25 15 15 25 15 15 25 15 15 25 15 15 25 15 15 25 15 15 25 15 15 25 15 15 25 15 15 25 15 15 25 0 255 255 15 15 25 15 15 25 15 15 25 15 15 25 15 15 25 15 15 25 15 15 25 15 15 25 15 15 25 15 15 25 15 15 25 15 15 25 15 15 25 15 15 25 15 15 25 15 15 25 15 15 25 15 15 25 15 15 25 15 15 25 15 15 25 0 255 0 15 15 25 15 15 25 15 15 25 15 15 25 15 15 25 15 15 25 15 15 25 15 15 25 15 15 25 15 15 25 15 15 25 15 15 25 15 15 25 15 15 25 15 15 25 15 15 25 15 15 25 0 255 255 15 15 25 15 15 25 15 15 25 15 15 25 15 15 25 15 15 25 15 15 25 15 15 25 15 15 25 15 15 25 15 15 25 15 15 25 15 15 25 15 15 25 15 15 25 15 15 25 15 15 25 15 15 25 15 15 25 255 0 255 15 15 25 15 15 25 15 15 25 15 15 25 15 15 25 15 15 25 15 15 25 15 15 25 15 15 25 15 15 25 15 15 25 15 15 25 15 15 25 15 15 25 15 15 25 15 15 25 15 15 25 15 15 25 15 15 25 15 15 25 15 15 25 15 15 25 15 15 25 15 15 25 15 15 25 15 15 25 15 15 25 15 15 25 15 15 25 15 15 25 15 15 25 15 15 25 15 15 25 15 15 25 15 15 25 
15 15 25 15 15 25 15 15 25 15 15 25 15 15 25 15 15 25 15 15 25 15 15 25 15 15 25 15 15 25 15 15 25 15 15 25 15 15 25 15 15 25 15 15 25 15 15 25 15 15 25 15 15 25 15 15 25 15 15 25 255 255 0 15 15 25 15 15 25 15 15 25 15 15 25 15 15 25 15 15 25 15 15 25 15 15 25 15 15 25 15 15 25 15 15 25 15 15 25 15 15 25 15 15 25 15 15 25 15 15 25 15 15 25 15 15 25 15 15 25 15 15 25 15 15 25 15 15 25 15 15 25 15 15 25 15 15 25 15 15 25 15 15 25 15 15 25 15 15 25 15 15 25 15 15 25 15 15 25 15 15 25 15 15 25 15 15 25 15 15 25 15 15 25 15 15 25 15 15 25 15 15 25 15 15 25 15 15 25 15 15 25 15 15 25 15 15 25 15 15 25 15 15 25 15 15 25 15 15 25 15 15 25 15 15 25 15 15 25 15 15 25 255 0 0 15 15 25 15 15 25 15 15 25 15 15 25 15 15 25 15 15 25 15 15 25 15 15 25 15 15 25 15 15 25 15 15 25 15 15 25 15 15 25 15 15 25 15 15 25 15 15 25 15 15 25 15 15 25 15 15 25 15 15 25 15 15 25 15 15 25 15 15 25 15 15 25 15 15 25 255 255 0 15 15 25 15 15 25 15 15 25 15 15 25 15 15 25 15 15 25 15 15 25 15 15 25 15 15 25 15 15 25 15 15 25 15 15 25 15 15 25 15 15 25 15 15 25 15 15 25 15 15 25 15 15 25 15 15 25 15 15 25 15 15 25 15 15 25 15 15 25 15 15 25 15 15 25 15 15 25 15 15 25 15 15 25 15 15 25 15 15 25 15 15 25 15 15 25 15 15 25 15 15 25 15 15 25 15 15 25 15 15 25 15 15 25 15 15 25 255 0 255 15 15 25 15 15 25 15 15 25 15 15 25 15 15 25 15 15 25 15 15 25 15 15 25 15 15 25 15 15 25 15 15 25 15 15 25 15 15 25 15 15 25 15 15 25 15 15 25 15 15 25 15 15 25 15 15 25 0 255 255 15 15 25 15 15 25 15 15 25 15 15 25 15 15 25 15 15 25 15 15 25 15 15 25 15 15 25 15 15 25 15 15 25 15 15 25 15 15 25 15 15 25 15 15 25 15 15 25 15 15 25 15 15 25 15 15 25 15 15 25 0 255 0 15 15 25 15 15 25 15 15 25 15 15 25 15 15 25 15 15 25 15 15 25 15 15 25 15 15 25 15 15 25 15 15 25 15 15 25 15 15 25 15 15 25 15 15 25 15 15 25 15 15 25 15 15 25 0 255 255 15 15 25 15 15 25 15 15 25 15 15 25 15 15 25 15 15 25 15 15 25 15 15 25 15 15 25 15 15 25 15 15 25 15 15 25 15 15 25 15 15 25 15 15 25 15 15 25 15 15 25 15 15 25 15 15 25 255 0 255 15 15 25 15 15 25 15 15 25 15 15 25 15 15 25 15 15 25 15 15 25 15 15 25 15 15 25 15 15 25 15 15 25 15 15 25 15 15 25 15 15 25 15 15 25 15 15 25 15 15 25 15 15 25 15 15 25 15 15 25 15 15 25 15 15 25 15 15 25 15 15 25 15 15 25 15 15 25 15 15 25 15 15 25 15 15 25 15 15 25 15 15 25 15 15 25 15 15 25 15 15 25 15 15 25 
15 15 25 15 15 25 15 15 25 15 15 25 15 15 25 15 15 25 15 15 25 15 15 25 15 15 25 15 15 25 15 15 25 15 15 25 15 15 25 15 15 25 15 15 25 15 15 25 15 15 25 15 15 25 15 15 25 15 15 25 255 255 0 15 15 25 15 15 25 15 15 25 15 15 25 15 15 25 15 15 25 15 15 25 15 15 25 15 15 25 15 15 25 15 15 25 15 15 25 15 15 25 15 15 25 15 15 25 15 15 25 15 15 25 15 15 25 15 15 25 15 15 25 15 15 25 15 15 25 15 15 25 15 15 25 15 15 25 15 15 25 15 15 25 15 15 25 15 15 25 15 15 25 15 15 25 15 15 25 15 15 25 15 15 25 15 15 25 15 15 25 15 15 25 15 15 25 15 15 25 15 15 25 15 15 25 15 15 25 15 15 25 15 15 25 15 15 25 15 15 25 15 15 25 15 15 25 15 15 25 15 15 25 15 15 25 15 15 25 15 15 25 15 15 25 255 0 0 15 15 25 15 15 25 15 15 25 15 15 25 15 15 25 15 15 25 15 15 25 15 15 25 15 15 25 15 15 25 15 15 25 15 15 25 15 15 25 15 15 25 15 15 25 15 15 25 15 15 25 15 15 25 15 15 25 15 15 25 15 15 25 15 15 25 15 15 25 15 15 25 255 255 0 15 15 25 15 15 25 15 15 25 15 15 25 15 15 25 15 15 25 15 15 25 15 15 25 15 15 25 15 15 25 15 15 25 15 15 25 15 15 25 15 15 25 15 15 25 15 15 25 15 15 25 15 15 25 15 15 25 15 15 25 15 15 25 15 15 25 15 15 25 15 15 25 15 15 25 15 15 25 15 15 25 15 15 25 15 15 25 15 15 25 15 15 25 15 15 25 15 15 25 15 15 25 15 15 25 15 15 25 15 15 25 15 15 25 15 15 25 255 0 255 15 15 25 15 15 25 15 15 25 15 15 25 15 15 25 15 15 25 15 15 25 15 15 25 15 15 25 15 15 25 15 15 25 15 15 25 15 15 25 15 15 25 15 15 25 15 15 25 15 15 25 15 15 25 15 15 25 15 15 25 0 255 255 15 15 25 15 15 25 15 15 25 15 15 25 15 15 25 15 15 25 15 15 25 15 15 25 15 15 25 15 15 25 15 15 25 15 15 25 15 15 25 15 15 25 15 15 25 15 15 25 15 15 25 15 15 25 0 255 0 15 15 25 15 15 25 15 15 25 15 15 25 15 15 25 15 15 25 15 15 25 15 15 25 15 15 25 15 15 25 15 15 25 15 15 25 15 15 25 15 15 25 15 15 25 15 15 25 15 15 25 15 15 25 0 255 255 15 15 25 15 15 25 15 15 25 15 15 25 15 15 25 15 15 25 15 15 25 15 15 25 15 15 25 15 15 25 15 15 25 15 15 25 15 15 25 15 15 25 15 15 25 15 15 25 15 15 25 15 15 25 15 15 25 15 15 25 255 0 255 15 15 25 15 15 25 15 15 25 15 15 25 15 15 25 15 15 25 15 15 25 15 15 25 15 15 25 15 15 25 15 15 25 15 15 25 15 15 25 15 15 25 15 15 25 15 15 25 15 15 25 15 15 25 15 15 25 15 15 25 15 15 25 15 15 25 15 15 25 15 15 25 15 15 25 15 15 25 15 15 25 15 15 25 15 15 25 15 15 25 15 15 25 15 15 25 15 15 25 15 15 25 15 15 25 
15 15 25 15 15 25 15 15 25 15 15 25 15 15 25 15 15 25 15 15 25 15 15 25 15 15 25 15 15 25 15 15 25 15 15 25 15 15 25 15 15 25 15 15 25 15 15 25 15 15 25 15 15 25 15 15 25 15 15 25 255 255 0 15 15 25 15 15 25 15 15 25 15 15 25 15 15 25 15 15 25 15 15 25 15 15 25 15 15 25 15 15 25 15 15 25 15 15 25 15 15 25 15 15 25 15 15 25 15 15 25 15 15 25 15 15 25 15 15 25 15 15 25 15 15 25 15 15 25 15 15 25 15 15 25 15 15 25 15 15 25 15 15 25 15 15 25 15 15 25 15 15 25 15 15 25 15 15 25 15 15 25 15 15 25 15 15 25 15 15 25 15 15 25 15 15 25 15 15 25 15 15 25 15 15 25 15 15 25 15 15 25 15 15 25 15 15 25 15 15 25 15 15 25 15 15 25 15 15 25 15 15 25 15 15 25 15 15 25 15 15 25 15 15 25 15 15 25 255 0 0 15 15 25 15 15 25 15 15 25 15 15 25 15 15 25 15 15 25 15 15 25 15 15 25 15 15 25 15 15 25 15 15 25 15 15 25 15 15 25 15 15 25 15 15 25 15 15 25 15 15 25 15 15 25 15 15 25 15 15 25 15 15 25 15 15 25 15 15 25 255 255 0 15 15 25 15 15 25 15 15 25 15 15 25 15 15 25 15 15 25 15 15 25 15 15 25 15 15 25 15 15 25 15 15 25 15 15 25 15 15 25 15 15 25 15 15 25 15 15 25 15 15 25 15 15 25 15 15 25 15 15 25 15 15 25 15 15 25 15 15 25 15 15 25 15 15 25 15 15 25 15 15 25 15 15 25 15 15 25 15 15 25 15 15 25 15 15 25 15 15 25 15 15 25 15 15 25 15 15 25 15 15 25 15 15 25 15 15 25 255 0 255 15 15 25 15 15 25 15 15 25 15 15 25 15 15 25 15 15 25 15 15 25 15 15 25 15 15 25 15 15 25 15 15 25 15 15 25 15 15 25 15 15 25 15 15 25 15 15 25 15 15 25 15 15 25 15 15 25 15 15 25 0 255 255 15 15 25 15 15 25 15 15 25 15 15 25 15 15 25 15 15 25 15 15 25 15 15 25 15 15 25 15 15 25 15 15 25 15 15 25 15 15 25 15 15 25 15 15 25 15 15 25 15 15 25 0 255 0 15 15 25 15 15 25 15 15 25 15 15 25 15 15 25 15 15 25 15 15 25 15 15 25 15 15 25 15 15 25 15 15 25 15 15 25 15 15 25 15 15 25 15 15 25 15 15 25 15 15 25 15 15 25 15 15 25 0 255 255 15 15 25 15 15 25 15 15 25 15 15 25 15 15 25 15 15 25 15 15 25 15 15 25 15 15 25 15 15 25 15 15 25 15 15 25 15 15 25 15 15 25 15 15 25 15 15 25 15 15 25 15 15 25 15 15 25 15 15 25 255 0 255 15 15 25 15 15 25 15 15 25 15 15 25 15 15 25 15 15 25 15 15 25 15 15 25 15 15 25 15 15 25 15 15 25 15 15 25 15 15 25 15 15 25 15 15 25 15 15 25 15 15 25 15 15 25 15 15 25 15 15 25 15 15 25 15 15 25 15 15 25 15 15 25 15 15 25 15 15 25 15 15 25 15 15 25 15 15 25 15 15 25 15 15 25 15 15 25 15 15 25 15 15 25 15 15 25 
15 15 25 15 15 25 15 15 25 15 15 25 15 15 25 15 15 25 15 15 25 15 15 25 15 15 25 15 15 25 15 15 25 15 15 25 15 15 25 15 15 25 15 15 25 15 15 25 15 15 25 15 15 25 15 15 25 15 15 25 255 255 0 15 15 25 15 15 25 15 15 25 15 15 25 15 15 25 15 15 25 15 15 25 15 15 25 15 15 25 15 15 25 15 15 25 15 15 25 15 15 25 15 15 25 15 15 25 15 15 25 15 15 25 15 15 25 15 15 25 15 15 25 15 15 25 15 15 25 15 15 25 15 15 25 15 15 25 15 15 25 15 15 25 15 15 25 15 15 25 15 15 25 15 15 25 15 15 25 15 15 25 15 15 25 15 15 25 15 15 25 15 15 25 15 15 25 15 15 25 15 15 25 15 15 25 15 15 25 15 15 25 15 15 25 15 15 25 15 15 25 15 15 25 15 15 25 15 15 25 15 15 25 15 15 25 15 15 25 15 15 25 15 15 25 15 15 25 15 15 25 255 0 0 15 15 25 15 15 25 15 15 25 15 15 25 15 15 25 15 15 25 15 15 25 15 15 25 15 15 25 15 15 25 15 15 25 15 15 25 15 15 25 15 15 25 15 15 25 15 15 25 15 15 25 15 15 25 15 15 25 15 15 25 15 15 25 15 15 25 255 255 0 15 15 25 15 15 25 15 15 25 15 15 25 15 15 25 15 15 25 15 15 25 15 15 25 15 15 25 15 15 25 15 15 25 15 15 25 15 15 25 15 15 25 15 15 25 15 15 25 15 15 25 15 15 25 15 15 25 15 15 25 15 15 25 15 15 25 15 15 25 15 15 25 15 15 25 15 15 25 15 15 25 15 15 25 15 15 25 15 15 25 15 15 25 15 15 25 15 15 25 15 15 25 15 15 25 15 15 25 15 15 25 15 15 25 15 15 25 15 15 25 255 0 255 15 15 25 15 15 25 15 15 25 15 15 25 15 15 25 15 15 25 15 15 25 15 15 25 15 15 25 15 15 25 15 15 25 15 15 25 15 15 25 15 15 25 15 15 25 15 15 25 15 15 25 15 15 25 15 15 25 0 255 255 15 15 25 15 15 25 15 15 25 15 15 25 15 15 25 15 15 25 15 15 25 15 15 25 15 15 25 15 15 25 15 15 25 15 15 25 15 15 25 15 15 25 15 15 25 15 15 25 0 255 0 15 15 25 15 15 25 15 15 25 15 15 25 15 15 25 15 15 25 15 15 25 15 15 25 15 15 25 15 15 25 15 15 25 15 15 25 15 15 25 15 15 25 15 15 25 15 15 25 15 15 25 15 15 25 15 15 25 15 15 25 0 255 255 15 15 25 15 15 25 15 15 25 15 15 25 15 15 25 15 15 25 15 15 25 15 15 25 15 15 25 15 15 25 15 15 25 15 15 25 15 15 25 15 15 25 15 15 25 15 15 25 15 15 25 15 15 25 15 15 25 255 0 255 15 15 25 15 15 25 15 15 25 15 15 25 15 15 25 15 15 25 15 15 25 15 15 25 15 15 25 15 15 25 15 15 25 15 15 25 15 15 25 15 15 25 15 15 25 15 15 25 15 15 25 15 15 25 15 15 25 15 15 25 15 15 25 15 15 25 15 15 25 15 15 25 15 15 25 15 15 25 15 15 25 15 15 25 15 15 25 15 15 25 15 15 25 15 15 25 15 15 25 15 15 25 15 15 25 15 15 25 
15 15 25 15 15 25 15 15 25 15 15 25 15 15 25 15 15 25 15 15 25 15 15 25 15 15 25 15 15 25 15 15 25 15 15 25 15 15 25 15 15 25 15 15 25 15 15 25 15 15 25 15 15 25 15 15 25 15 15 25 255 255 0 15 15 25 15 15 25 15 15 25 15 15 25 15 15 25 15 15 25 15 15 25 15 15 25 15 15 25 15 15 25 15 15 25 15 15 25 15 15 25 15 15 25 15 15 25 15 15 25 15 15 25 15 15 25 15 15 25 15 15 25 15 15 25 15 15 25 15 15 25 15 15 25 15 15 25 15 15 25 15 15 25 15 15 25 15 15 25 15 15 25 15 15 25 15 15 25 15 15 25 15 15 25 15 15 25 15 15 25 15 15 25 15 15 25 15 15 25 15 15 25 15 15 25 15 15 25 15 15 25 15 15 25 15 15 25 15 15 25 15 15 25 15 15 25 15 15 25 15 15 25 15 15 25 15 15 25 15 15 25 15 15 25 15 15 25 15 15 25 15 15 25 255 0 0 15 15 25 15 15 25 15 15 25 15 15 25 15 15 25 15 15 25 15 15 25 15 15 25 15 15 25 15 15 25 15 15 25 15 15 25 15 15 25 15 15 25 15 15 25 15 15 25 15 15 25 15 15 25 15 15 25 15 15 25 15 15 25 255 255 0 15 15 25 15 15 25 15 15 25 15 15 25 15 15 25 15 15 25 15 15 25 15 15 25 15 15 25 15 15 25 15 15 25 15 15 25 15 15 25 15 15 25 15 15 25 15 15 25 15 15 25 15 15 25 15 15 25 15 15 25 15 15 25 15 15 25 15 15 25 15 15 25 15 15 25 15 15 25 15 15 25 15 15 25 15 15 25 15 15 25 15 15 25 15 15 25 15 15 25 15 15 25 15 15 25 15 15 25 15 15 25 15 15 25 15 15 25 15 15 25 255 0 255 15 15 25 15 15 25 15 15 25 15 15 25 15 15 25 15 15 25 15 15 25 15 15 25 15 15 25 15 15 25 15 15 25 15 15 25 15 15 25 15 15 25 15 15 25 15 15 25 15 15 25 15 15 25 15 15 25 15 15 25 0 255 255 15 15 25 15 15 25 15 15 25 15 15 25 15 15 25 15 15 25 15 15 25 15 15 25 15 15 25 15 15 25 15 15 25 15 15 25 15 15 25 15 15 25 0 255 0 15 15 25 15 15 25 15 15 25 15 15 25 15 15 25 15 15 25 15 15 25 15 15 25 15 15 25 15 15 25 15 15 25 15 15 25 15 15 25 15 15 25 15 15 25 15 15 25 15 15 25 15 15 25 15 15 25 15 15 25 0 255 255 15 15 25 15 15 25 15 15 25 15 15 25 15 15 25 15 15 25 15 15 25 15 15 25 15 15 25 15 15 25 15 15 25 15 15 25 15 15 25 15 15 25 15 15 25 15 15 25 15 15 25 15 15 25 15 15 25 15 15 25 255 0 255 15 15 25 15 15 25 15 15 25 15 15 25 15 15 25 15 15 25 15 15 25 15 15 25 15 15 25 15 15 25 15 15 25 15 15 25 15 15 25 15 15 25 15 15 25 15 15 25 15 15 25 15 15 25 15 15 25 15 15 25 15 15 25 15 15 25 15 15 25 15 15 25 15 15 25 15 15 25 15 15 25 15 15 25 15 15 25 15 15 25 15 15 25 15 15 25 15 15 25 15 15 25 15 15 25 15 15 25 
15 15 25 15 15 25 15 15 25 15 15 25 15 15 25 15 15 25 15 15 25 15 15 25 15 15 25 15 15 25 15 15 25 15 15 25 15 15 25 15 15 25 15 15 25 15 15 25 15 15 25 15 15 25 15 15 25 15 15 25 255 255 0 15 15 25 15 15 25 15 15 25 15 15 25 15 15 25 15 15 25 15 15 25 15 15 25 15 15 25 15 15 25 15 15 25 15 15 25 15 15 25 15 15 25 15 15 25 15 15 25 15 15 25 15 15 25 15 15 25 15 15 25 15 15 25 15 15 25 15 15 25 15 15 25 15 15 25 15 15 25 15 15 25 15 15 25 15 15 25 15 15 25 15 15 25 15 15 25 15 15 25 15 15 25 15 15 25 15 15 25 15 15 25 15 15 25 15 15 25 15 15 25 15 15 25 15 15 25 15 15 25 15 15 25 15 15 25 15 15 25 15 15 25 15 15 25 15 15 25 15 15 25 15 15 25 15 15 25 15 15 25 15 15 25 15 15 25 15 15 25 15 15 25 15 15 25 255 0 0 15 15 25 15 15 25 15 15 25 15 15 25 15 15 25 15 15 25 15 15 25 15 15 25 15 15 25 15 15 25 15 15 25 15 15 25 15 15 25 15 15 25 15 15 25 15 15 25 15 15 25 15 15 25 15 15 25 15 15 25 255 255 0 15 15 25 15 15 25 15 15 25 15 15 25 15 15 25 15 15 25 15 15 25 15 15 25 15 15 25 15 15 25 15 15 25 15 15 25 15 15 25 15 15 25 15 15 25 15 15 25 15 15 25 15 15 25 15 15 25 15 15 25 15 15 25 15 15 25 15 15 25 15 15 25 15 15 25 15 15 25 15 15 25 15 15 25 15 15 25 15 15 25 15 15 25 15 15 25 15 15 25 15 15 25 15 15 25 15 15 25 15 15 25 15 15 25 15 15 25 15 15 25 255 0 255 15 15 25 15 15 25 15 15 25 15 15 25 15 15 25 15 15 25 15 15 25 15 15 25 15 15 25 15 15 25 15 15 25 15 15 25 15 15 25 15 15 25 15 15 25 15 15 25 15 15 25 15 15 25 15 15 25 15 15 25 0 255 255 15 15 25 15 15 25 15 15 25 15 15 25 15 15 25 15 15 25 15 15 25 15 15 25 15 15 25 15 15 25 15 15 25 15 15 25 15 15 25 0 255 0 15 15 25 15 15 25 15 15 25 15 15 25 15 15 25 15 15 25 15 15 25 15 15 25 15 15 25 15 15 25 15 15 25 15 15 25 15 15 25 15 15 25 15 15 25 15 15 25 15 15 25 15 15 25 15 15 25 15 15 25 15 15 25 0 255 255 15 15 25 15 15 25 15 15 25 15 15 25 15 15 25 15 15 25 15 15 25 15 15 25 15 15 25 15 15 25 15 15 25 15 15 25 15 15 25 15 15 25 15 15 25 15 15 25 15 15 25 15 15 25 15 15 25 15 15 25 255 0 255 15 15 25 15 15 25 15 15 25 15 15 25 15 15 25 15 15 25 15 15 25 15 15 25 15 15 25 15 15 25 15 15 25 15 15 25 15 15 25 15 15 25 15 15 25 15 15 25 15 15 25 15 15 25 15 15 25 15 15 25 15 15 25 15 15 25 15 15 25 15 15 25 15 15 25 15 15 25 15 15 25 15 15 25 15 15 25 15 15 25 15 15 25 15 15 25 15 15 25 15 15 25 15 15 25 15 15 25 
15 15 25 15 15 25 15 15 25 15 15 25 15 15 25 15 15 25 15 15 25 15 15 25 15 15 25 15 15 25 15 15 25 15 15 25 15 15 25 15 15 25 15 15 25 15 15 25 15 15 25 15 15 25 15 15 25 15 15 25 255 255 0 255 255 0 255 255 0 255 255 0 255 255 0 255 255 0 255 255 0 255 255 0 255 255 0 255 255 0 255 255 0 255 255 0 255 255 0 255 255 0 255 255 0 255 255 0 255 255 0 255 255 0 255 255 0 255 255 0 255 255 0 255 255 0 255 255 0 255 255 0 255 255 0 255 255 0 255 255 0 255 255 0 255 255 0 255 255 0 255 255 0 255 255 0 255 255 0 255 255 0 255 255 0 255 255 0 255 255 0 255 255 0 255 255 0 255 255 0 255 255 0 255 255 0 255 255 0 255 255 0 255 255 0 255 255 0 255 255 0 255 255 0 255 255 0 255 255 0 255 255 0 255 255 0 255 255 0 255 255 0 255 255 0 255 255 0 255 255 0 255 255 0 255 255 0 255 255 0 255 255 0 255 255 0 255 255 0 255 255 0 255 255 0 255 255 0 255 255 0 255 255 0 255 255 0 255 255 0 255 255 0 255 255 0 255 255 0 255 255 0 255 255 0 255 255 0 255 255 0 255 255 0 255 255 0 255 255 0 255 255 0 15 15 25 15 15 25 15 15 25 15 15 25 15 15 25 15 15 25 15 15 25 15 15 25 15 15 25 15 15 25 15 15 25 15 15 25 15 15 25 15 15 25 15 15 25 15 15 25 15 15 25 15 15 25 15 15 25 15 15 25 15 15 25 15 15 25 15 15 25 15 15 25 15 15 25 15 15 25 15 15 25 15 15 25 15 15 25 15 15 25 15 15 25 15 15 25 15 15 25 15 15 25 15 15 25 15 15 25 15 15 25 15 15 25 15 15 25 15 15 25 255 0 255 15 15 25 15 15 25 15 15 25 15 15 25 15 15 25 15 15 25 15 15 25 15 15 25 15 15 25 15 15 25 15 15 25 15 15 25 15 15 25 15 15 25 15 15 25 15 15 25 15 15 25 15 15 25 15 15 25 15 15 25 15 15 25 0 255 255 15 15 25 15 15 25 15 15 25 15 15 25 15 15 25 15 15 25 15 15 25 15 15 25 15 15 25 15 15 25 15 15 25 0 255 0 15 15 25 15 15 25 15 15 25 15 15 25 15 15 25 15 15 25 15 15 25 15 15 25 15 15 25 15 15 25 15 15 25 15 15 25 15 15 25 15 15 25 15 15 25 15 15 25 15 15 25 15 15 25 15 15 25 15 15 25 15 15 25 0 255 255 15 15 25 15 15 25 15 15 25 15 15 25 15 15 25 15 15 25 15 15 25 15 15 25 15 15 25 15 15 25 15 15 25 15 15 25 15 15 25 15 15 25 15 15 25 15 15 25 15 15 25 15 15 25 15 15 25 15 15 25 15 15 25 255 0 255 15 15 25 15 15 25 15 15 25 15 15 25 15 15 25 15 15 25 15 15 25 15 15 25 15 15 25 15 15 25 15 15 25 15 15 25 15 15 25 15 15 25 15 15 25 15 15 25 15 15 25 15 15 25 15 15 25 15 15 25 15 15 25 15 15 25 15 15 25 15 15 25 15 15 25 15 15 25 15 15 25 15 15 25 15 15 25 15 15 25 15 15 25 15 15 25 15 15 25 15 15 25 15 15 25 15 15 25 
15 15 25 15 15 25 15 15 25 15 15 25 15 15 25 15 15 25 15 15 25 15 15 25 15 15 25 15 15 25 15 15 25 15 15 25 15 15 25 15 15 25 15 15 25 15 15 25 15 15 25 15 15 25 15 15 25 15 15 25 15 15 25 15 15 25 15 15 25 15 15 25 15 15 25 15 15 25 15 15 25 15 15 25 15 15 25 15 15 25 15 15 25 15 15 25 15 15 25 15 15 25 15 15 25 15 15 25 15 15 25 15 15 25 15 15 25 15 15 25 15 15 25 15 15 25 15 15 25 15 15 25 15 15 25 15 15 25 15 15 25 15 15 25 15 15 25 15 15 25 15 15 25 15 15 25 15 15 25 15 15 25 15 15 25 15 15 25 15 15 25 15 15 25 15 15 25 15 15 25 15 15 25 15 15 25 15 15 25 15 15 25 15 15 25 15 15 25 15 15 25 15 15 25 15 15 25 15 15 25 15 15 25 15 15 25 15 15 25 15 15 25 15 15 25 15 15 25 15 15 25 15 15 25 15 15 25 15 15 25 15 15 25 255 0 0 15 15 25 15 15 25 15 15 25 15 15 25 15 15 25 15 15 25 15 15 25 15 15 25 15 15 25 15 15 25 15 15 25 15 15 25 15 15 25 15 15 25 15 15 25 15 15 25 15 15 25 15 15 25 15 15 25 15 15 25 15 15 25 15 15 25 15 15 25 15 15 25 15 15 25 15 15 25 15 15 25 15 15 25 15 15 25 15 15 25 15 15 25 15 15 25 15 15 25 15 15 25 15 15 25 15 15 25 15 15 25 15 15 25 15 15 25 15 15 25 15 15 25 15 15 25 15 15 25 15 15 25 15 15 25 15 15 25 15 15 25 15 15 25 15 15 25 15 15 25 15 15 25 15 15 25 15 15 25 15 15 25 15 15 25 15 15 25 15 15 25 15 15 25 15 15 25 15 15 25 255 0 255 15 15 25 15 15 25 15 15 25 15 15 25 15 15 25 15 15 25 15 15 25 15 15 25 15 15 25 15 15 25 15 15 25 15 15 25 15 15 25 15 15 25 15 15 25 15 15 25 15 15 25 15 15 25 15 15 25 15 15 25 0 255 255 15 15 25 15 15 25 15 15 25 15 15 25 15 15 25 15 15 25 15 15 25 15 15 25 15 15 25 15 15 25 0 255 0 15 15 25 15 15 25 15 15 25 15 15 25 15 15 25 15 15 25 15 15 25 15 15 25 15 15 25 15 15 25 15 15 25 15 15 25 15 15 25 15 15 25 15 15 25 15 15 25 15 15 25 15 15 25 15 15 25 15 15 25 15 15 25 15 15 25 0 255 255 15 15 25 15 15 25 15 15 25 15 15 25 15 15 25 15 15 25 15 15 25 15 15 25 15 15 25 15 15 25 15 15 25 15 15 25 15 15 25 15 15 25 15 15 25 15 15 25 15 15 25 15 15 25 15 15 25 15 15 25 255 0 255 15 15 25 15 15 25 15 15 25 15 15 25 15 15 25 15 15 25 15 15 25 15 15 25 15 15 25 15 15 25 15 15 25 15 15 25 15 15 25 15 15 25 15 15 25 15 15 25 15 15 25 15 15 25 15 15 25 15 15 25 15 15 25 15 15 25 15 15 25 15 15 25 15 15 25 15 15 25 15 15 25 15 15 25 15 15 25 15 15 25 15 15 25 15 15 25 15 15 25 15 15 25 15 15 25 15 15 25 15 15 25 
15 15 25 15 15 25 15 15 25 15 15 25 15 15 25 15 15 25 15 15 25 15 15 25 15 15 25 15 15 25 15 15 25 15 15 25 15 15 25 15 15 25 15 15 25 15 15 25 15 15 25 15 15 25 15 15 25 15 15 25 15 15 25 15 15 25 15 15 25 15 15 25 15 15 25 15 15 25 15 15 25 15 15 25 15 15 25 15 15 25 15 15 25 15 15 25 15 15 25 15 15 25 15 15 25 15 15 25 15 15 25 15 15 25 15 15 25 15 15 25 15 15 25 15 15 25 15 15 25 15 15 25 15 15 25 15 15 25 15 15 25 15 15 25 15 15 25 15 15 25 15 15 25 15 15 25 15 15 25 15 15 25 15 15 25 15 15 25 15 15 25 15 15 25 15 15 25 15 15 25 15 15 25 15 15 25 15 15 25 15 15 25 15 15 25 15 15 25 15 15 25 15 15 25 15 15 25 15 15 25 15 15 25 15 15 25 15 15 25 15 15 25 15 15 25 15 15 25 15 15 25 15 15 25 15 15 25 15 15 25 15 15 25 15 15 25 255 0 0 15 15 25 15 15 25 15 15 25 15 15 25 15 15 25 15 15 25 15 15 25 15 15 25 15 15 25 15 15 25 15 15 25 15 15 25 15 15 25 15 15 25 15 15 25 15 15 25 15 15 25 15 15 25 15 15 25 15 15 25 15 15 25 15 15 25 15 15 25 15 15 25 15 15 25 15 15 25 15 15 25 15 15 25 15 15 25 15 15 25 15 15 25 15 15 25 15 15 25 15 15 25 15 15 25 15 15 25 15 15 25 15 15 25 15 15 25 15 15 25 15 15 25 15 15 25 15 15 25 15 15 25 15 15 25 15 15 25 15 15 25 15 15 25 15 15 25 15 15 25 15 15 25 15 15 25 15 15 25 15 15 25 15 15 25 15 15 25 15 15 25 15 15 25 15 15 25 255 0 255 15 15 25 15 15 25 15 15 25 15 15 25 15 15 25 15 15 25 15 15 25 15 15 25 15 15 25 15 15 25 15 15 25 15 15 25 15 15 25 15 15 25 15 15 25 15 15 25 15 15 25 15 15 25 15 15 25 15 15 25 15 15 25 0 255 255 15 15 25 15 15 25 15 15 25 15 15 25 15 15 25 15 15 25 15 15 25 15 15 25 0 255 0 15 15 25 15 15 25 15 15 25 15 15 25 15 15 25 15 15 25 15 15 25 15 15 25 15 15 25 15 15 25 15 15 25 15 15 25 15 15 25 15 15 25 15 15 25 15 15 25 15 15 25 15 15 25 15 15 25 15 15 25 15 15 25 15 15 25 0 255 255 15 15 25 15 15 25 15 15 25 15 15 25 15 15 25 15 15 25 15 15 25 15 15 25 15 15 25 15 15 25 15 15 25 15 15 25 15 15 25 15 15 25 15 15 25 15 15 25 15 15 25 15 15 25 15 15 25 15 15 25 15 15 25 255 0 255 15 15 25 15 15 25 15 15 25 15 15 25 15 15 25 15 15 25 15 15 25 15 15 25 15 15 25 15 15 25 15 15 25 15 15 25 15 15 25 15 15 25 15 15 25 15 15 25 15 15 25 15 15 25 15 15 25 15 15 25 15 15 25 15 15 25 15 15 25 15 15 25 15 15 25 15 15 25 15 15 25 15 15 25 15 15 25 15 15 25 15 15 25 15 15 25 15 15 25 15 15 25 15 15 25 15 15 25 15 15 25 
15 15 25 15 15 25 15 15 25 15 15 25 15 15 25 15 15 25 15 15 25 15 15 25 15 15 25 15 15 25 15 15 25 15 15 25 15 15 25 15 15 25 15 15 25 15 15 25 15 15 25 15 15 25 15 15 25 15 15 25 15 15 25 15 15 25 15 15 25 15 15 25 15 15 25 15 15 25 15 15 25 15 15 25 15 15 25 15 15 25 15 15 25 15 15 25 15 15 25 15 15 25 15 15 25 15 15 25 15 15 25 15 15 25 15 15 25 15 15 25 15 15 25 15 15 25 15 15 25 15 15 25 15 15 25 15 15 25 15 15 25 15 15 25 15 15 25 15 15 25 15 15 25 15 15 25 15 15 25 15 15 25 15 15 25 15 15 25 15 15 25 15 15 25 15 15 25 15 15 25 15 15 25 15 15 25 15 15 25 15 15 25 15 15 25 15 15 25 15 15 25 15 15 25 15 15 25 15 15 25 15 15 25 15 15 25 15 15 25 15 15 25 15 15 25 15 15 25 15 15 25 15 15 25 15 15 25 15 15 25 15 15 25 15 15 25 15 15 25 255 0 0 15 15 25 15 15 25 15 15 25 15 15 25 15 15 25 15 15 25 15 15 25 15 15 25 15 15 25 15 15 25 15 15 25 15 15 25 15 15 25 15 15 25 15 15 25 15 15 25 15 15 25 15 15 25 15 15 25 15 15 25 15 15 25 15 15 25 15 15 25 15 15 25 15 15 25 15 15 25 15 15 25 15 15 25 15 15 25 15 15 25 15 15 25 15 15 25 15 15 25 15 15 25 15 15 25 15 15 25 15 15 25 15 15 25 15 15 25 15 15 25 15 15 25 15 15 25 15 15 25 15 15 25 15 15 25 15 15 25 15 15 25 15 15 25 15 15 25 15 15 25 15 15 25 15 15 25 15 15 25 15 15 25 15 15 25 15 15 25 15 15 25 15 15 25 255 0 255 15 15 25 15 15 25 15 15 25 15 15 25 15 15 25 15 15 25 15 15 25 15 15 25 15 15 25 15 15 25 15 15 25 15 15 25 15 15 25 15 15 25 15 15 25 15 15 25 15 15 25 15 15 25 15 15 25 15 15 25 15 15 25 15 15 25 0 255 255 15 15 25 15 15 25 15 15 25 15 15 25 15 15 25 15 15 25 0 255 0 15 15 25 15 15 25 15 15 25 15 15 25 15 15 25 15 15 25 15 15 25 15 15 25 15 15 25 15 15 25 15 15 25 15 15 25 15 15 25 15 15 25 15 15 25 15 15 25 15 15 25 15 15 25 15 15 25 15 15 25 15 15 25 15 15 25 0 255 255 15 15 25 15 15 25 15 15 25 15 15 25 15 15 25 15 15 25 15 15 25 15 15 25 15 15 25 15 15 25 15 15 25 15 15 25 15 15 25 15 15 25 15 15 25 15 15 25 15 15 25 15 15 25 15 15 25 15 15 25 15 15 25 15 15 25 255 0 255 15 15 25 15 15 25 15 15 25 15 15 25 15 15 25 15 15 25 15 15 25 15 15 25 15 15 25 15 15 25 15 15 25 15 15 25 15 15 25 15 15 25 15 15 25 15 15 25 15 15 25 15 15 25 15 15 25 15 15 25 15 15 25 15 15 25 15 15 25 15 15 25 15 15 25 15 15 25 15 15 25 15 15 25 15 15 25 15 15 25 15 15 25 15 15 25 15 15 25 15 15 25 15 15 25 15 15 25 15 15 25 
15 15 25 15 15 25 15 15 25 15 15 25 15 15 25 15 15 25 15 15 25 15 15 25 15 15 25 15 15 25 15 15 25 15 15 25 15 15 25 15 15 25 15 15 25 15 15 25 15 15 25 15 15 25 15 15 25 15 15 25 15 15 25 15 15 25 15 15 25 15 15 25 15 15 25 15 15 25 15 15 25 15 15 25 15 15 25 15 15 25 15 15 25 15 15 25 15 15 25 15 15 25 15 15 25 15 15 25 15 15 25 15 15 25 15 15 25 15 15 25 15 15 25 15 15 25 15 15 25 15 15 25 15 15 25 15 15 25 15 15 25 15 15 25 15 15 25 15 15 25 15 15 25 15 15 25 15 15 25 15 15 25 15 15 25 15 15 25 15 15 25 15 15 25 15 15 25 15 15 25 15 15 25 15 15 25 15 15 25 15 15 25 15 15 25 15 15 25 15 15 25 15 15 25 15 15 25 15 15 25 15 15 25 15 15 25 15 15 25 15 15 25 15 15 25 15 15 25 15 15 25 15 15 25 15 15 25 15 15 25 15 15 25 15 15 25 15 15 25 15 15 25 255 0 0 15 15 25 15 15 25 15 15 25 15 15 25 15 15 25 15 15 25 15 15 25 15 15 25 15 15 25 15 15 25 15 15 25 15 15 25 15 15 25 15 15 25 15 15 25 15 15 25 15 15 25 15 15 25 15 15 25 15 15 25 15 15 25 15 15 25 15 15 25 15 15 25 15 15 25 15 15 25 15 15 25 15 15 25 15 15 25 15 15 25 15 15 25 15 15 25 15 15 25 15 15 25 15 15 25 15 15 25 15 15 25 15 15 25 15 15 25 15 15 25 15 15 25 15 15 25 15 15 25 15 15 25 15 15 25 15 15 25 15 15 25 15 15 25 15 15 25 15 15 25 15 15 25 15 15 25 15 15 25 15 15 25 15 15 25 15 15 25 15 15 25 15 15 25 255 0 255 15 15 25 15 15 25 15 15 25 15 15 25 15 15 25 15 15 25 15 15 25 15 15 25 15 15 25 15 15 25 15 15 25 15 15 25 15 15 25 15 15 25 15 15 25 15 15 25 15 15 25 15 15 25 15 15 25 15 15 25 15 15 25 15 15 25 0 255 255 15 15 25 15 15 25 15 15 25 15 15 25 0 255 0 15 15 25 15 15 25 15 15 25 15 15 25 15 15 25 15 15 25 15 15 25 15 15 25 15 15 25 15 15 25 15 15 25 15 15 25 15 15 25 15 15 25 15 15 25 15 15 25 15 15 25 15 15 25 15 15 25 15 15 25 15 15 25 15 15 25 0 255 255 15 15 25 15 15 25 15 15 25 15 15 25 15 15 25 15 15 25 15 15 25 15 15 25 15 15 25 15 15 25 15 15 25 15 15 25 15 15 25 15 15 25 15 15 25 15 15 25 15 15 25 15 15 25 15 15 25 15 15 25 15 15 25 15 15 25 255 0 255 15 15 25 15 15 25 15 15 25 15 15 25 15 15 25 15 15 25 15 15 25 15 15 25 15 15 25 15 15 25 15 15 25 15 15 25 15 15 25 15 15 25 15 15 25 15 15 25 15 15 25 15 15 25 15 15 25 15 15 25 15 15 25 15 15 25 15 15 25 15 15 25 15 15 25 15 15 25 15 15 25 15 15 25 15 15 25 15 15 25 15 15 25 15 15 25 15 15 25 15 15 25 15 15 25 15 15 25 15 15 25 15 15 25 
15 15 25 15 15 25 15 15 25 15 15 25 15 15 25 15 15 25 15 15 25 15 15 25 15 15 25 15 15 25 15 15 25 15 15 25 15 15 25 15 15 25 15 15 25 15 15 25 15 15 25 15 15 25 15 15 25 15 15 25 15 15 25 15 15 25 15 15 25 15 15 25 15 15 25 15 15 25 15 15 25 15 15 25 15 15 25 15 15 25 15 15 25 15 15 25 15 15 25 15 15 25 15 15 25 15 15 25 15 15 25 15 15 25 15 15 25 15 15 25 15 15 25 15 15 25 15 15 25 15 15 25 15 15 25 15 15 25 15 15 25 15 15 25 15 15 25 15 15 25 15 15 25 15 15 25 15 15 25 15 15 25 15 15 25 15 15 25 15 15 25 15 15 25 15 15 25 15 15 25 15 15 25 15 15 25 15 15 25 15 15 25 15 15 25 15 15 25 15 15 25 15 15 25 15 15 25 15 15 25 15 15 25 15 15 25 15 15 25 15 15 25 15 15 25 15 15 25 15 15 25 15 15 25 15 15 25 15 15 25 15 15 25 15 15 25 15 15 25 15 15 25 15 15 25 255 0 0 15 15 25 15 15 25 15 15 25 15 15 25 15 15 25 15 15 25 15 15 25 15 15 25 15 15 25 15 15 25 15 15 25 15 15 25 15 15 25 15 15 25 15 15 25 15 15 25 15 15 25 15 15 25 15 15 25 15 15 25 15 15 25 15 15 25 15 15 25 15 15 25 15 15 25 15 15 25 15 15 25 15 15 25 15 15 25 15 15 25 15 15 25 15 15 25 15 15 25 15 15 25 15 15 25 15 15 25 15 15 25 15 15 25 15 15 25 15 15 25 15 15 25 15 15 25 15 15 25 15 15 25 15 15 25 15 15 25 15 15 25 15 15 25 15 15 25 15 15 25 15 15 25 15 15 25 15 15 25 15 15 25 15 15 25 15 15 25 15 15 25 255 0 255 15 15 25 15 15 25 15 15 25 15 15 25 15 15 25 15 15 25 15 15 25 15 15 25 15 15 25 15 15 25 15 15 25 15 15 25 15 15 25 15 15 25 15 15 25 15 15 25 15 15 25 15 15 25 15 15 25 15 15 25 15 15 25 15 15 25 15 15 25 0 255 255 15 15 25 15 15 25 0 255 0 15 15 25 15 15 25 15 15 25 15 15 25 15 15 25 15 15 25 15 15 25 15 15 25 15 15 25 15 15 25 15 15 25 15 15 25 15 15 25 15 15 25 15 15 25 15 15 25 15 15 25 15 15 25 15 15 25 15 15 25 15 15 25 15 15 25 0 255 255 15 15 25 15 15 25 15 15 25 15 15 25 15 15 25 15 15 25 15 15 25 15 15 25 15 15 25 15 15 25 15 15 25 15 15 25 15 15 25 15 15 25 15 15 25 15 15 25 15 15 25 15 15 25 15 15 25 15 15 25 15 15 25 15 15 25 15 15 25 255 0 255 15 15 25 15 15 25 15 15 25 15 15 25 15 15 25 15 15 25 15 15 25 15 15 25 15 15 25 15 15 25 15 15 25 15 15 25 15 15 25 15 15 25 15 15 25 15 15 25 15 15 25 15 15 25 15 15 25 15 15 25 15 15 25 15 15 25 15 15 25 15 15 25 15 15 25 15 15 25 15 15 25 15 15 25 15 15 25 15 15 25 15 15 25 15 15 25 15 15 25 15 15 25 15 15 25 15 15 25 15 15 25 15 15 25 
15 15 25 15 15 25 15 15 25 15 15 25 15 15 25 15 15 25 15 15 25 15 15 25 15 15 25 15 15 25 15 15 25 15 15 25 15 15 25 15 15 25 15 15 25 15 15 25 15 15 25 15 15 25 15 15 25 15 15 25 15 15 25 15 15 25 15 15 25 15 15 25 15 15 25 15 15 25 15 15 25 15 15 25 15 15 25 15 15 25 15 15 25 15 15 25 15 15 25 15 15 25 15 15 25 15 15 25 15 15 25 15 15 25 15 15 25 15 15 25 15 15 25 15 15 25 15 15 25 15 15 25 15 15 25 15 15 25 15 15 25 15 15 25 15 15 25 15 15 25 15 15 25 15 15 25 15 15 25 15 15 25 15 15 25 15 15 25 15 15 25 15 15 25 15 15 25 15 15 25 15 15 25 15 15 25 15 15 25 15 15 25 15 15 25 15 15 25 15 15 25 15 15 25 15 15 25 15 15 25 15 15 25 15 15 25 15 15 25 15 15 25 15 15 25 15 15 25 15 15 25 15 15 25 15 15 25 15 15 25 15 15 25 15 15 25 15 15 25 15 15 25 15 15 25 15 15 25 255 0 0 15 15 25 15 15 25 15 15 25 15 15 25 15 15 25 15 15 25 15 15 25 15 15 25 15 15 25 15 15 25 15 15 25 15 15 25 15 15 25 15 15 25 15 15 25 15 15 25 15 15 25 15 15 25 15 15 25 15 15 25 15 15 25 15 15 25 15 15 25 15 15 25 15 15 25 15 15 25 15 15 25 15 15 25 15 15 25 15 15 25 15 15 25 15 15 25 15 15 25 15 15 25 15 15 25 15 15 25 15 15 25 15 15 25 15 15 25 15 15 25 15 15 25 15 15 25 15 15 25 15 15 25 15 15 25 15 15 25 15 15 25 15 15 25 15 15 25 15 15 25 15 15 25 15 15 25 15 15 25 15 15 25 15 15 25 15 15 25 255 0 255 15 15 25 15 15 25 15 15 25 15 15 25 15 15 25 15 15 25 15 15 25 15 15 25 15 15 25 15 15 25 15 15 25 15 15 25 15 15 25 15 15 25 15 15 25 15 15 25 15 15 25 15 15 25 15 15 25 15 15 25 15 15 25 15 15 25 15 15 25 15 15 25 0 255 255 0 255 0 15 15 25 15 15 25 15 15 25 15 15 25 15 15 25 15 15 25 15 15 25 15 15 25 15 15 25 15 15 25 15 15 25 15 15 25 15 15 25 15 15 25 15 15 25 15 15 25 15 15 25 15 15 25 15 15 25 15 15 25 15 15 25 15 15 25 0 255 255 15 15 25 15 15 25 15 15 25 15 15 25 15 15 25 15 15 25 15 15 25 15 15 25 15 15 25 15 15 25 15 15 25 15 15 25 15 15 25 15 15 25 15 15 25 15 15 25 15 15 25 15 15 25 15 15 25 15 15 25 15 15 25 15 15 25 15 15 25 15 15 25 255 0 255 15 15 25 15 15 25 15 15 25 15 15 25 15 15 25 15 15 25 15 15 25 15 15 25 15 15 25 15 15 25 15 15 25 15 15 25 15 15 25 15 15 25 15 15 25 15 15 25 15 15 25 15 15 25 15 15 25 15 15 25 15 15 25 15 15 25 15 15 25 15 15 25 15 15 25 15 15 25 15 15 25 15 15 25 15 15 25 15 15 25 15 15 25 15 15 25 15 15 25 15 15 25 15 15 25 15 15 25 15 15 25 15 15 25 
15 15 25 15 15 25 15 15 25 15 15 25 15 15 25 15 15 25 15 15 25 15 15 25 15 15 25 15 15 25 15 15 25 15 15 25 15 15 25 15 15 25 15 15 25 15 15 25 15 15 25 15 15 25 15 15 25 15 15 25 15 15 25 15 15 25 15 15 25 15 15 25 15 15 25 15 15 25 15 15 25 15 15 25 15 15 25 15 15 25 15 15 25 15 15 25 15 15 25 15 15 25 15 15 25 15 15 25 15 15 25 15 15 25 15 15 25 15 15 25 15 15 25 15 15 25 15 15 25 15 15 25 15 15 25 15 15 25 15 15 25 15 15 25 15 15 25 15 15 25 15 15 25 15 15 25 15 15 25 15 15 25 15 15 25 15 15 25 15 15 25 15 15 25 15 15 25 15 15 25 15 15 25 15 15 25 15 15 25 15 15 25 15 15 25 15 15 25 15 15 25 15 15 25 15 15 25 15 15 25 15 15 25 15 15 25 15 15 25 15 15 25 15 15 25 15 15 25 15 15 25 15 15 25 15 15 25 15 15 25 15 15 25 15 15 25 15 15 25 15 15 25 15 15 25 15 15 25 15 15 25 255 0 0 15 15 25 15 15 25 15 15 25 15 15 25 15 15 25 15 15 25 15 15 25 15 15 25 15 15 25 15 15 25 15 15 25 15 15 25 15 15 25 15 15 25 15 15 25 15 15 25 15 15 25 15 15 25 15 15 25 15 15 25 15 15 25 15 15 25 15 15 25 15 15 25 15 15 25 15 15 25 15 15 25 15 15 25 15 15 25 15 15 25 15 15 25 15 15 25 15 15 25 15 15 25 15 15 25 15 15 25 15 15 25 15 15 25 15 15 25 15 15 25 15 15 25 15 15 25 15 15 25 15 15 25 15 15 25 15 15 25 15 15 25 15 15 25 15 15 25 15 15 25 15 15 25 15 15 25 15 15 25 15 15 25 15 15 25 15 15 25 255 0 255 15 15 25 15 15 25 15 15 25 15 15 25 15 15 25 15 15 25 15 15 25 15 15 25 15 15 25 15 15 25 15 15 25 15 15 25 15 15 25 15 15 25 15 15 25 15 15 25 15 15 25 15 15 25 15 15 25 15 15 25 15 15 25 15 15 25 15 15 25 0 255 0 0 255 255 0 255 255 15 15 25 15 15 25 15 15 25 15 15 25 15 15 25 15 15 25 15 15 25 15 15 25 15 15 25 15 15 25 15 15 25 15 15 25 15 15 25 15 15 25 15 15 25 15 15 25 15 15 25 15 15 25 15 15 25 0 255 255 0 255 255 15 15 25 15 15 25 15 15 25 15 15 25 15 15 25 15 15 25 15 15 25 15 15 25 15 15 25 15 15 25 15 15 25 15 15 25 15 15 25 15 15 25 15 15 25 15 15 25 15 15 25 15 15 25 15 15 25 15 15 25 15 15 25 15 15 25 15 15 25 15 15 25 255 0 255 15 15 25 15 15 25 15 15 25 15 15 25 15 15 25 15 15 25 15 15 25 15 15 25 15 15 25 15 15 25 15 15 25 15 15 25 15 15 25 15 15 25 15 15 25 15 15 25 15 15 25 15 15 25 15 15 25 15 15 25 15 15 25 15 15 25 15 15 25 15 15 25 15 15 25 15 15 25 15 15 25 15 15 25 15 15 25 15 15 25 15 15 25 15 15 25 15 15 25 15 15 25 15 15 25 15 15 25 15 15 25 15 15 25 15 15 25 
15 15 25 15 15 25 15 15 25 15 15 25 15 15 25 15 15 25 15 15 25 15 15 25 15 15 25 15 15 25 15 15 25 15 15 25 15 15 25 15 15 25 15 15 25 15 15 25 15 15 25 15 15 25 15 15 25 15 15 25 15 15 25 15 15 25 15 15 25 15 15 25 15 15 25 15 15 25 15 15 25 15 15 25 15 15 25 15 15 25 15 15 25 15 15 25 15 15 25 15 15 25 15 15 25 15 15 25 15 15 25 15 15 25 15 15 25 15 15 25 15 15 25 15 15 25 15 15 25 15 15 25 15 15 25 15 15 25 15 15 25 15 15 25 15 15 25 15 15 25 15 15 25 15 15 25 15 15 25 15 15 25 15 15 25 15 15 25 15 15 25 15 15 25 15 15 25 15 15 25 15 15 25 15 15 25 15 15 25 15 15 25 15 15 25 15 15 25 15 15 25 15 15 25 15 15 25 15 15 25 15 15 25 15 15 25 15 15 25 15 15 25 15 15 25 15 15 25 15 15 25 15 15 25 15 15 25 15 15 25 15 15 25 15 15 25 15 15 25 15 15 25 15 15 25 15 15 25 15 15 25 15 15 25 255 0 0 15 15 25 15 15 25 15 15 25 15 15 25 15 15 25 15 15 25 15 15 25 15 15 25 15 15 25 15 15 25 15 15 25 15 15 25 15 15 25 15 15 25 15 15 25 15 15 25 15 15 25 15 15 25 15 15 25 15 15 25 15 15 25 15 15 25 15 15 25 15 15 25 15 15 25 15 15 25 15 15 25 15 15 25 15 15 25 15 15 25 15 15 25 15 15 25 15 15 25 15 15 25 15 15 25 15 15 25 15 15 25 15 15 25 15 15 25 15 15 25 15 15 25 15 15 25 15 15 25 15 15 25 15 15 25 15 15 25 15 15 25 15 15 25 15 15 25 15 15 25 15 15 25 15 15 25 15 15 25 15 15 25 15 15 25 255 0 255 15 15 25 15 15 25 15 15 25 15 15 25 15 15 25 15 15 25 15 15 25 15 15 25 15 15 25 15 15 25 15 15 25 15 15 25 15 15 25 15 15 25 15 15 25 15 15 25 15 15 25 15 15 25 15 15 25 15 15 25 15 15 25 15 15 25 0 255 0 15 15 25 15 15 25 15 15 25 0 255 255 0 255 255 15 15 25 15 15 25 15 15 25 15 15 25 15 15 25 15 15 25 15 15 25 15 15 25 15 15 25 15 15 25 15 15 25 15 15 25 15 15 25 15 15 25 15 15 25 0 255 255 0 255 255 15 15 25 15 15 25 15 15 25 15 15 25 15 15 25 15 15 25 15 15 25 15 15 25 15 15 25 15 15 25 15 15 25 15 15 25 15 15 25 15 15 25 15 15 25 15 15 25 15 15 25 15 15 25 15 15 25 15 15 25 15 15 25 15 15 25 15 15 25 15 15 25 15 15 25 15 15 25 255 0 255 15 15 25 15 15 25 15 15 25 15 15 25 15 15 25 15 15 25 15 15 25 15 15 25 15 15 25 15 15 25 15 15 25 15 15 25 15 15 25 15 15 25 15 15 25 15 15 25 15 15 25 15 15 25 15 15 25 15 15 25 15 15 25 15 15 25 15 15 25 15 15 25 15 15 25 15 15 25 15 15 25 15 15 25 15 15 25 15 15 25 15 15 25 15 15 25 15 15 25 15 15 25 15 15 25 15 15 25 15 15 25 15 15 25 15 15 25 
15 15 25 15 15 25 15 15 25 15 15 25 15 15 25 15 15 25 15 15 25 15 15 25 15 15 25 15 15 25 15 15 25 15 15 25 15 15 25 15 15 25 15 15 25 15 15 25 15 15 25 15 15 25 15 15 25 15 15 25 15 15 25 15 15 25 15 15 25 15 15 25 15 15 25 15 15 25 15 15 25 15 15 25 15 15 25 15 15 25 15 15 25 15 15 25 15 15 25 15 15 25 15 15 25 15 15 25 15 15 25 15 15 25 15 15 25 15 15 25 15 15 25 15 15 25 15 15 25 15 15 25 15 15 25 15 15 25 15 15 25 15 15 25 15 15 25 15 15 25 15 15 25 15 15 25 15 15 25 15 15 25 15 15 25 15 15 25 15 15 25 15 15 25 15 15 25 15 15 25 15 15 25 15 15 25 15 15 25 15 15 25 15 15 25 15 15 25 15 15 25 15 15 25 15 15 25 15 15 25 15 15 25 15 15 25 15 15 25 15 15 25 15 15 25 15 15 25 15 15 25 15 15 25 15 15 25 15 15 25 15 15 25 15 15 25 15 15 25 15 15 25 15 15 25 15 15 25 15 15 25 15 15 25 15 15 25 255 0 0 15 15 25 15 15 25 15 15 25 15 15 25 15 15 25 15 15 25 15 15 25 15 15 25 15 15 25 15 15 25 15 15 25 15 15 25 15 15 25 15 15 25 15 15 25 15 15 25 15 15 25 15 15 25 15 15 25 15 15 25 15 15 25 15 15 25 15 15 25 15 15 25 15 15 25 15 15 25 15 15 25 15 15 25 15 15 25 15 15 25 15 15 25 15 15 25 15 15 25 15 15 25 15 15 25 15 15 25 15 15 25 15 15 25 15 15 25 15 15 25 15 15 25 15 15 25 15 15 25 15 15 25 15 15 25 15 15 25 15 15 25 15 15 25 15 15 25 15 15 25 15 15 25 15 15 25 15 15 25 15 15 25 15 15 25 255 0 255 15 15 25 15 15 25 15 15 25 15 15 25 15 15 25 15 15 25 15 15 25 15 15 25 15 15 25 15 15 25 15 15 25 15 15 25 15 15 25 15 15 25 15 15 25 15 15 25 15 15 25 15 15 25 15 15 25 15 15 25 0 255 0 15 15 25 15 15 25 15 15 25 15 15 25 15 15 25 15 15 25 0 255 255 0 255 255 0 255 255 15 15 25 15 15 25 15 15 25 15 15 25 15 15 25 15 15 25 15 15 25 15 15 25 15 15 25 0 255 255 0 255 255 0 255 255 15 15 25 15 15 25 15 15 25 15 15 25 15 15 25 15 15 25 15 15 25 15 15 25 15 15 25 15 15 25 15 15 25 15 15 25 15 15 25 15 15 25 15 15 25 15 15 25 15 15 25 15 15 25 15 15 25 15 15 25 15 15 25 15 15 25 15 15 25 15 15 25 15 15 25 15 15 25 15 15 25 255 0 255 15 15 25 15 15 25 15 15 25 15 15 25 15 15 25 15 15 25 15 15 25 15 15 25 15 15 25 15 15 25 15 15 25 15 15 25 15 15 25 15 15 25 15 15 25 15 15 25 15 15 25 15 15 25 15 15 25 15 15 25 15 15 25 15 15 25 15 15 25 15 15 25 15 15 25 15 15 25 15 15 25 15 15 25 15 15 25 15 15 25 15 15 25 15 15 25 15 15 25 15 15 25 15 15 25 15 15 25 15 15 25 15 15 25 15 15 25 15 15 25 
15 15 25 15 15 25 15 15 25 15 15 25 15 15 25 15 15 25 15 15 25 15 15 25 15 15 25 15 15 25 15 15 25 15 15 25 15 15 25 15 15 25 15 15 25 15 15 25 15 15 25 15 15 25 15 15 25 15 15 25 15 15 25 15 15 25 15 15 25 15 15 25 15 15 25 15 15 25 15 15 25 15 15 25 15 15 25 15 15 25 15 15 25 15 15 25 15 15 25 15 15 25 15 15 25 15 15 25 15 15 25 15 15 25 15 15 25 15 15 25 15 15 25 15 15 25 15 15 25 15 15 25 15 15 25 15 15 25 15 15 25 15 15 25 15 15 25 15 15 25 15 15 25 15 15 25 15 15 25 15 15 25 15 15 25 15 15 25 15 15 25 15 15 25 15 15 25 15 15 25 15 15 25 15 15 25 15 15 25 15 15 25 15 15 25 15 15 25 15 15 25 15 15 25 15 15 25 15 15 25 15 15 25 15 15 25 15 15 25 15 15 25 15 15 25 15 15 25 15 15 25 15 15 25 15 15 25 15 15 25 15 15 25 15 15 25 15 15 25 15 15 25 15 15 25 15 15 25 15 15 25 15 15 25 15 15 25 15 15 25 255 0 0 15 15 25 15 15 25 15 15 25 15 15 25 15 15 25 15 15 25 15 15 25 15 15 25 15 15 25 15 15 25 15 15 25 15 15 25 15 15 25 15 15 25 15 15 25 15 15 25 15 15 25 15 15 25 15 15 25 15 15 25 15 15 25 15 15 25 15 15 25 15 15 25 15 15 25 15 15 25 15 15 25 15 15 25 15 15 25 15 15 25 15 15 25 15 15 25 15 15 25 15 15 25 15 15 25 15 15 25 15 15 25 15 15 25 15 15 25 15 15 25 15 15 25 15 15 25 15 15 25 15 15 25 15 15 25 15 15 25 15 15 25 15 15 25 15 15 25 15 15 25 15 15 25 15 15 25 15 15 25 15 15 25 255 0 255 15 15 25 15 15 25 15 15 25 15 15 25 15 15 25 15 15 25 15 15 25 15 15 25 15 15 25 15 15 25 15 15 25 15 15 25 15 15 25 15 15 25 15 15 25 15 15 25 15 15 25 15 15 25 15 15 25 0 255 0 15 15 25 15 15 25 15 15 25 15 15 25 15 15 25 15 15 25 15 15 25 15 15 25 15 15 25 15 15 25 0 255 255 0 255 255 0 255 255 0 255 255 0 255 255 0 255 255 0 255 255 0 255 255 0 255 255 15 15 25 15 15 25 15 15 25 15 15 25 15 15 25 15 15 25 15 15 25 15 15 25 15 15 25 15 15 25 15 15 25 15 15 25 15 15 25 15 15 25 15 15 25 15 15 25 15 15 25 15 15 25 15 15 25 15 15 25 15 15 25 15 15 25 15 15 25 15 15 25 15 15 25 15 15 25 15 15 25 15 15 25 15 15 25 15 15 25 255 0 255 15 15 25 15 15 25 15 15 25 15 15 25 15 15 25 15 15 25 15 15 25 15 15 25 15 15 25 15 15 25 15 15 25 15 15 25 15 15 25 15 15 25 15 15 25 15 15 25 15 15 25 15 15 25 15 15 25 15 15 25 15 15 25 15 15 25 15 15 25 15 15 25 15 15 25 15 15 25 15 15 25 15 15 25 15 15 25 15 15 25 15 15 25 15 15 25 15 15 25 15 15 25 15 15 25 15 15 25 15 15 25 15 15 25 15 15 25 15 15 25 
15 15 25 15 15 25 15 15 25 15 15 25 15 15 25 15 15 25 15 15 25 15 15 25 15 15 25 15 15 25 15 15 25 15 15 25 15 15 25 15 15 25 15 15 25 15 15 25 15 15 25 15 15 25 15 15 25 15 15 25 15 15 25 15 15 25 15 15 25 15 15 25 15 15 25 15 15 25 15 15 25 15 15 25 15 15 25 15 15 25 15 15 25 15 15 25 15 15 25 15 15 25 15 15 25 15 15 25 15 15 25 15 15 25 15 15 25 15 15 25 15 15 25 15 15 25 15 15 25 15 15 25 15 15 25 15 15 25 15 15 25 15 15 25 15 15 25 15 15 25 15 15 25 15 15 25 15 15 25 15 15 25 15 15 25 15 15 25 15 15 25 15 15 25 15 15 25 15 15 25 15 15 25 15 15 25 15 15 25 15 15 25 15 15 25 15 15 25 15 15 25 15 15 25 15 15 25 15 15 25 15 15 25 15 15 25 15 15 25 15 15 25 15 15 25 15 15 25 15 15 25 15 15 25 15 15 25 15 15 25 15 15 25 15 15 25 15 15 25 15 15 25 15 15 25 15 15 25 15 15 25 15 15 25 15 15 25 15 15 25 15 15 25 255 0 0 15 15 25 15 15 25 15 15 25 15 15 25 15 15 25 15 15 25 15 15 25 15 15 25 15 15 25 15 15 25 15 15 25 15 15 25 15 15 25 15 15 25 15 15 25 15 15 25 15 15 25 15 15 25 15 15 25 15 15 25 15 15 25 15 15 25 15 15 25 15 15 25 15 15 25 15 15 25 15 15 25 15 15 25 15 15 25 15 15 25 15 15 25 15 15 25 15 15 25 15 15 25 15 15 25 15 15 25 15 15 25 15 15 25 15 15 25 15 15 25 15 15 25 15 15 25 15 15 25 15 15 25 15 15 25 15 15 25 15 15 25 15 15 25 15 15 25 15 15 25 15 15 25 15 15 25 15 15 25 15 15 25 255 0 255 15 15 25 15 15 25 15 15 25 15 15 25 15 15 25 15 15 25 15 15 25 15 15 25 15 15 25 15 15 25 15 15 25 15 15 25 15 15 25 15 15 25 15 15 25 15 15 25 15 15 25 0 255 0 15 15 25 15 15 25 15 15 25 15 15 25 15 15 25 15 15 25 15 15 25 15 15 25 15 15 25 15 15 25 15 15 25 15 15 25 15 15 25 15 15 25 15 15 25 15 15 25 15 15 25 15 15 25 15 15 25 15 15 25 15 15 25 15 15 25 15 15 25 15 15 25 15 15 25 15 15 25 15 15 25 15 15 25 15 15 25 15 15 25 15 15 25 15 15 25 15 15 25 15 15 25 15 15 25 15 15 25 15 15 25 15 15 25 15 15 25 15 15 25 15 15 25 15 15 25 15 15 25 15 15 25 15 15 25 15 15 25 15 15 25 15 15 25 15 15 25 255 0 255 15 15 25 15 15 25 15 15 25 15 15 25 15 15 25 15 15 25 15 15 25 15 15 25 15 15 25 15 15 25 15 15 25 15 15 25 15 15 25 15 15 25 15 15 25 15 15 25 15 15 25 15 15 25 15 15 25 15 15 25 15 15 25 15 15 25 15 15 25 15 15 25 15 15 25 15 15 25 15 15 25 15 15 25 15 15 25 15 15 25 15 15 25 15 15 25 15 15 25 15 15 25 15 15 25 15 15 25 15 15 25 15 15 25 15 15 25 15 15 25 15 15 25 
15 15 25 15 15 25 15 15 25 15 15 25 15 15 25 15 15 25 15 15 25 15 15 25 15 15 25 15 15 25 15 15 25 15 15 25 15 15 25 15 15 25 15 15 25 15 15 25 15 15 25 15 15 25 15 15 25 15 15 25 15 15 25 15 15 25 15 15 25 15 15 25 15 15 25 15 15 25 15 15 25 15 15 25 15 15 25 15 15 25 15 15 25 15 15 25 15 15 25 15 15 25 15 15 25 15 15 25 15 15 25 15 15 25 15 15 25 15 15 25 15 15 25 15 15 25 15 15 25 15 15 25 15 15 25 15 15 25 15 15 25 15 15 25 15 15 25 15 15 25 15 15 25 15 15 25 15 15 25 15 15 25 15 15 25 15 15 25 15 15 25 15 15 25 15 15 25 15 15 25 15 15 25 15 15 25 15 15 25 15 15 25 15 15 25 15 15 25 15 15 25 15 15 25 15 15 25 15 15 25 15 15 25 15 15 25 15 15 25 15 15 25 15 15 25 15 15 25 15 15 25 15 15 25 15 15 25 15 15 25 15 15 25 15 15 25 15 15 25 15 15 25 15 15 25 15 15 25 15 15 25 15 15 25 15 15 25 15 15 25 15 15 25 15 15 25 255 0 0 15 15 25 15 15 25 15 15 25 15 15 25 15 15 25 15 15 25 15 15 25 15 15 25 15 15 25 15 15 25 15 15 25 15 15 25 15 15 25 15 15 25 15 15 25 15 15 25 15 15 25 15 15 25 15 15 25 15 15 25 15 15 25 15 15 25 15 15 25 15 15 25 15 15 25 15 15 25 15 15 25 15 15 25 15 15 25 15 15 25 15 15 25 15 15 25 15 15 25 15 15 25 15 15 25 15 15 25 15 15 25 15 15 25 15 15 25 15 15 25 15 15 25 15 15 25 15 15 25 15 15 25 15 15 25 15 15 25 15 15 25 15 15 25 15 15 25 15 15 25 15 15 25 15 15 25 15 15 25 15 15 25 255 0 255 15 15 25 15 15 25 15 15 25 15 15 25 15 15 25 15 15 25 15 15 25 15 15 25 15 15 25 15 15 25 15 15 25 15 15 25 15 15 25 15 15 25 15 15 25 0 255 0 15 15 25 15 15 25 15 15 25 15 15 25 15 15 25 15 15 25 15 15 25 15 15 25 15 15 25 15 15 25 15 15 25 15 15 25 15 15 25 15 15 25 15 15 25 15 15 25 15 15 25 15 15 25 15 15 25 15 15 25 15 15 25 15 15 25 15 15 25 15 15 25 15 15 25 15 15 25 15 15 25 15 15 25 15 15 25 15 15 25 15 15 25 15 15 25 15 15 25 15 15 25 15 15 25 15 15 25 15 15 25 15 15 25 15 15 25 15 15 25 15 15 25 15 15 25 15 15 25 15 15 25 15 15 25 15 15 25 15 15 25 15 15 25 15 15 25 255 0 255 15 15 25 15 15 25 15 15 25 15 15 25 15 15 25 15 15 25 15 15 25 15 15 25 15 15 25 15 15 25 15 15 25 15 15 25 15 15 25 15 15 25 15 15 25 15 15 25 15 15 25 15 15 25 15 15 25 15 15 25 15 15 25 15 15 25 15 15 25 15 15 25 15 15 25 15 15 25 15 15 25 15 15 25 15 15 25 15 15 25 15 15 25 15 15 25 15 15 25 15 15 25 15 15 25 15 15 25 15 15 25 15 15 25 15 15 25 15 15 25 15 15 25 15 15 25 
15 15 25 15 15 25 15 15 25 15 15 25 15 15 25 15 15 25 15 15 25 15 15 25 15 15 25 15 15 25 15 15 25 15 15 25 15 15 25 15 15 25 15 15 25 15 15 25 15 15 25 15 15 25 15 15 25 15 15 25 15 15 25 15 15 25 15 15 25 15 15 25 15 15 25 15 15 25 15 15 25 15 15 25 15 15 25 15 15 25 15 15 25 15 15 25 15 15 25 15 15 25 15 15 25 15 15 25 15 15 25 15 15 25 15 15 25 15 15 25 15 15 25 15 15 25 15 15 25 15 15 25 15 15 25 15 15 25 15 15 25 15 15 25 15 15 25 15 15 25 15 15 25 15 15 25 15 15 25 15 15 25 15 15 25 15 15 25 15 15 25 15 15 25 15 15 25 15 15 25 15 15 25 15 15 25 15 15 25 15 15 25 15 15 25 15 15 25 15 15 25 15 15 25 15 15 25 15 15 25 15 15 25 15 15 25 15 15 25 15 15 25 15 15 25 15 15 25 15 15 25 15 15 25 15 15 25 15 15 25 15 15 25 15 15 25 15 15 25 15 15 25 15 15 25 15 15 25 15 15 25 15 15 25 15 15 25 15 15 25 15 15 25 15 15 25 15 15 25 255 0 0 15 15 25 15 15 25 15 15 25 15 15 25 15 15 25 15 15 25 15 15 25 15 15 25 15 15 25 15 15 25 15 15 25 15 15 25 15 15 25 15 15 25 15 15 25 15 15 25 15 15 25 15 15 25 15 15 25 15 15 25 15 15 25 15 15 25 15 15 25 15 15 25 15 15 25 15 15 25 15 15 25 15 15 25 15 15 25 15 15 25 15 15 25 15 15 25 15 15 25 15 15 25 15 15 25 15 15 25 15 15 25 15 15 25 15 15 25 15 15 25 15 15 25 15 15 25 15 15 25 15 15 25 15 15 25 15 15 25 15 15 25 15 15 25 15 15 25 15 15 25 15 15 25 15 15 25 15 15 25 255 0 255 15 15 25 15 15 25 15 15 25 15 15 25 15 15 25 15 15 25 15 15 25 15 15 25 15 15 25 15 15 25 15 15 25 15 15 25 15 15 25 15 15 25 0 255 0 15 15 25 15 15 25 15 15 25 15 15 25 15 15 25 15 15 25 15 15 25 15 15 25 15 15 25 15 15 25 15 15 25 15 15 25 15 15 25 15 15 25 15 15 25 15 15 25 15 15 25 15 15 25 15 15 25 15 15 25 15 15 25 15 15 25 15 15 25 15 15 25 15 15 25 15 15 25 15 15 25 15 15 25 15 15 25 15 15 25 15 15 25 15 15 25 15 15 25 15 15 25 15 15 25 15 15 25 15 15 25 15 15 25 15 15 25 15 15 25 15 15 25 15 15 25 15 15 25 15 15 25 15 15 25 15 15 25 15 15 25 15 15 25 15 15 25 15 15 25 255 0 255 15 15 25 15 15 25 15 15 25 15 15 25 15 15 25 15 15 25 15 15 25 15 15 25 15 15 25 15 15 25 15 15 25 15 15 25 15 15 25 15 15 25 15 15 25 15 15 25 15 15 25 15 15 25 15 15 25 15 15 25 15 15 25 15 15 25 15 15 25 15 15 25 15 15 25 15 15 25 15 15 25 15 15 25 15 15 25 15 15 25 15 15 25 15 15 25 15 15 25 15 15 25 15 15 25 15 15 25 15 15 25 15 15 25 15 15 25 15 15 25 15 15 25 15 15 25 
15 15 25 15 15 25 15 15 25 15 15 25 15 15 25 15 15 25 15 15 25 15 15 25 15 15 25 15 15 25 15 15 25 15 15 25 15 15 25 15 15 25 15 15 25 15 15 25 15 15 25 15 15 25 15 15 25 15 15 25 15 15 25 15 15 25 15 15 25 15 15 25 15 15 25 15 15 25 15 15 25 15 15 25 15 15 25 15 15 25 15 15 25 15 15 25 15 15 25 15 15 25 15 15 25 15 15 25 15 15 25 15 15 25 15 15 25 15 15 25 15 15 25 15 15 25 15 15 25 15 15 25 15 15 25 15 15 25 15 15 25 15 15 25 15 15 25 15 15 25 15 15 25 15 15 25 15 15 25 15 15 25 15 15 25 15 15 25 15 15 25 15 15 25 15 15 25 15 15 25 15 15 25 15 15 25 15 15 25 15 15 25 15 15 25 15 15 25 15 15 25 15 15 25 15 15 25 15 15 25 15 15 25 15 15 25 15 15 25 15 15 25 15 15 25 15 15 25 15 15 25 15 15 25 15 15 25 15 15 25 15 15 25 15 15 25 15 15 25 15 15 25 15 15 25 15 15 25 15 15 25 15 15 25 15 15 25 15 15 25 15 15 25 15 15 25 15 15 25 15 15 25 255 0 0 15 15 25 15 15 25 15 15 25 15 15 25 15 15 25 15 15 25 15 15 25 15 15 25 15 15 25 15 15 25 15 15 25 15 15 25 15 15 25 15 15 25 15 15 25 15 15 25 15 15 25 15 15 25 15 15 25 15 15 25 15 15 25 15 15 25 15 15 25 15 15 25 15 15 25 15 15 25 15 15 25 15 15 25 15 15 25 15 15 25 15 15 25 15 15 25 15 15 25 15 15 25 15 15 25 15 15 25 15 15 25 15 15 25 15 15 25 15 15 25 15 15 25 15 15 25 15 15 25 15 15 25 15 15 25 15 15 25 15 15 25 15 15 25 15 15 25 15 15 25 15 15 25 15 15 25 15 15 25 255 0 255 15 15 25 15 15 25 15 15 25 15 15 25 15 15 25 15 15 25 15 15 25 15 15 25 15 15 25 15 15 25 15 15 25 15 15 25 0 255 0 15 15 25 15 15 25 15 15 25 15 15 25 15 15 25 15 15 25 15 15 25 15 15 25 15 15 25 15 15 25 15 15 25 15 15 25 15 15 25 15 15 25 15 15 25 15 15 25 15 15 25 15 15 25 15 15 25 15 15 25 15 15 25 15 15 25 15 15 25 15 15 25 15 15 25 15 15 25 15 15 25 15 15 25 15 15 25 15 15 25 15 15 25 15 15 25 15 15 25 15 15 25 15 15 25 15 15 25 15 15 25 15 15 25 15 15 25 15 15 25 15 15 25 15 15 25 15 15 25 15 15 25 15 15 25 15 15 25 15 15 25 15 15 25 15 15 25 15 15 25 255 0 255 15 15 25 15 15 25 15 15 25 15 15 25 15 15 25 15 15 25 15 15 25 15 15 25 15 15 25 15 15 25 15 15 25 15 15 25 15 15 25 15 15 25 15 15 25 15 15 25 15 15 25 15 15 25 15 15 25 15 15 25 15 15 25 15 15 25 15 15 25 15 15 25 15 15 25 15 15 25 15 15 25 15 15 25 15 15 25 15 15 25 15 15 25 15 15 25 15 15 25 15 15 25 15 15 25 15 15 25 15 15 25 15 15 25 15 15 25 15 15 25 15 15 25 15 15 25 15 15 25 
15 15 25 15 15 25 15 15 25 15 15 25 15 15 25 15 15 25 15 15 25 15 15 25 15 15 25 15 15 25 15 15 25 15 15 25 15 15 25 15 15 25 15 15 25 15 15 25 15 15 25 15 15 25 15 15 25 15 15 25 15 15 25 15 15 25 15 15 25 15 15 25 15 15 25 15 15 25 15 15 25 15 15 25 15 15 25 15 15 25 15 15 25 15 15 25 15 15 25 15 15 25 15 15 25 15 15 25 15 15 25 15 15 25 15 15 25 15 15 25 15 15 25 15 15 25 15 15 25 15 15 25 15 15 25 15 15 25 15 15 25 15 15 25 15 15 25 15 15 25 15 15 25 15 15 25 15 15 25 15 15 25 15 15 25 15 15 25 15 15 25 15 15 25 15 15 25 15 15 25 15 15 25 15 15 25 15 15 25 15 15 25 15 15 25 15 15 25 15 15 25 15 15 25 15 15 25 15 15 25 15 15 25 15 15 25 15 15 25 15 15 25 15 15 25 15 15 25 15 15 25 15 15 25 15 15 25 15 15 25 15 15 25 15 15 25 15 15 25 15 15 25 15 15 25 15 15 25 15 15 25 15 15 25 15 15 25 15 15 25 15 15 25 15 15 25 15 15 25 15 15 25 15 15 25 255 0 0 15 15 25 15 15 25 15 15 25 15 15 25 15 15 25 15 15 25 15 15 25 15 15 25 15 15 25 15 15 25 15 15 25 15 15 25 15 15 25 15 15 25 15 15 25 15 15 25 15 15 25 15 15 25 15 15 25 15 15 25 15 15 25 15 15 25 15 15 25 15 15 25 15 15 25 15 15 25 15 15 25 15 15 25 15 15 25 15 15 25 15 15 25 15 15 25 15 15 25 15 15 25 15 15 25 15 15 25 15 15 25 15 15 25 15 15 25 15 15 25 15 15 25 15 15 25 15 15 25 15 15 25 15 15 25 15 15 25 15 15 25 15 15 25 15 15 25 15 15 25 15 15 25 15 15 25 15 15 25 255 0 255 15 15 25 15 15 25 15 15 25 15 15 25 15 15 25 15 15 25 15 15 25 15 15 25 15 15 25 15 15 25 0 255 0 15 15 25 15 15 25 15 15 25 15 15 25 15 15 25 15 15 25 15 15 25 15 15 25 15 15 25 15 15 25 15 15 25 15 15 25 15 15 25 15 15 25 15 15 25 15 15 25 15 15 25 15 15 25 15 15 25 15 15 25 15 15 25 15 15 25 15 15 25 15 15 25 15 15 25 15 15 25 15 15 25 15 15 25 15 15 25 15 15 25 15 15 25 15 15 25 15 15 25 15 15 25 15 15 25 15 15 25 15 15 25 15 15 25 15 15 25 15 15 25 15 15 25 15 15 25 15 15 25 15 15 25 15 15 25 15 15 25 15 15 25 15 15 25 15 15 25 15 15 25 255 0 255 15 15 25 15 15 25 15 15 25 15 15 25 15 15 25 15 15 25 15 15 25 15 15 25 15 15 25 15 15 25 15 15 25 15 15 25 15 15 25 15 15 25 15 15 25 15 15 25 15 15 25 15 15 25 15 15 25 15 15 25 15 15 25 15 15 25 15 15 25 15 15 25 15 15 25 15 15 25 15 15 25 15 15 25 15 15 25 15 15 25 15 15 25 15 15 25 15 15 25 15 15 25 15 15 25 15 15 25 15 15 25 15 15 25 15 15 25 15 15 25 15 15 25 15 15 25 15 15 25 15 15 25 
15 15 25 15 15 25 15 15 25 15 15 25 15 15 25 15 15 25 15 15 25 15 15 25 15 15 25 15 15 25 15 15 25 15 15 25 15 15 25 15 15 25 15 15 25 15 15 25 15 15 25 15 15 25 15 15 25 15 15 25 15 15 25 15 15 25 15 15 25 15 15 25 15 15 25 15 15 25 15 15 25 15 15 25 15 15 25 15 15 25 15 15 25 15 15 25 15 15 25 15 15 25 15 15 25 15 15 25 15 15 25 15 15 25 15 15 25 15 15 25 15 15 25 15 15 25 15 15 25 15 15 25 15 15 25 15 15 25 15 15 25 15 15 25 15 15 25 15 15 25 15 15 25 15 15 25 15 15 25 15 15 25 15 15 25 15 15 25 15 15 25 15 15 25 15 15 25 15 15 25 15 15 25 15 15 25 15 15 25 15 15 25 15 15 25 15 15 25 15 15 25 15 15 25 15 15 25 15 15 25 15 15 25 15 15 25 15 15 25 15 15 25 15 15 25 15 15 25 15 15 25 15 15 25 15 15 25 15 15 25 15 15 25 15 15 25 15 15 25 15 15 25 15 15 25 15 15 25 15 15 25 15 15 25 15 15 25 15 15 25 15 15 25 15 15 25 15 15 25 15 15 25 15 15 25 15 15 25 255 0 0 15 15 25 15 15 25 15 15 25 15 15 25 15 15 25 15 15 25 15 15 25 15 15 25 15 15 25 15 15 25 15 15 25 15 15 25 15 15 25 15 15 25 15 15 25 15 15 25 15 15 25 15 15 25 15 15 25 15 15 25 15 15 25 15 15 25 15 15 25 15 15 25 15 15 25 15 15 25 15 15 25 15 15 25 15 15 25 15 15 25 15 15 25 15 15 25 15 15 25 15 15 25 15 15 25 15 15 25 15 15 25 15 15 25 15 15 25 15 15 25 15 15 25 15 15 25 15 15 25 15 15 25 15 15 25 15 15 25 15 15 25 15 15 25 15 15 25 15 15 25 15 15 25 15 15 25 15 15 25 255 0 255 15 15 25 15 15 25 15 15 25 15 15 25 15 15 25 15 15 25 15 15 25 15 15 25 0 255 0 15 15 25 15 15 25 15 15 25 15 15 25 15 15 25 15 15 25 15 15 25 15 15 25 15 15 25 15 15 25 15 15 25 15 15 25 15 15 25 15 15 25 15 15 25 15 15 25 15 15 25 15 15 25 15 15 25 15 15 25 15 15 25 15 15 25 15 15 25 15 15 25 15 15 25 15 15 25 15 15 25 15 15 25 15 15 25 15 15 25 15 15 25 15 15 25 15 15 25 15 15 25 15 15 25 15 15 25 15 15 25 15 15 25 15 15 25 15 15 25 15 15 25 15 15 25 15 15 25 15 15 25 15 15 25 15 15 25 15 15 25 15 15 25 15 15 25 15 15 25 255 0 255 15 15 25 15 15 25 15 15 25 15 15 25 15 15 25 15 15 25 15 15 25 15 15 25 15 15 25 15 15 25 15 15 25 15 15 25 15 15 25 15 15 25 15 15 25 15 15 25 15 15 25 15 15 25 15 15 25 15 15 25 15 15 25 15 15 25 15 15 25 15 15 25 15 15 25 15 15 25 15 15 25 15 15 25 15 15 25 15 15 25 15 15 25 15 15 25 15 15 25 15 15 25 15 15 25 15 15 25 15 15 25 15 15 25 15 15 25 15 15 25 15 15 25 15 15 25 15 15 25 15 15 25 15 15 25 
15 15 25 15 15 25 15 15 25 15 15 25 15 15 25 15 15 25 15 15 25 15 15 25 15 15 25 15 15 25 15 15 25 15 15 25 15 15 25 15 15 25 15 15 25 15 15 25 15 15 25 15 15 25 15 15 25 15 15 25 15 15 25 15 15 25 15 15 25 15 15 25 15 15 25 15 15 25 15 15 25 15 15 25 15 15 25 15 15 25 15 15 25 15 15 25 15 15 25 15 15 25 15 15 25 15 15 25 15 15 25 15 15 25 15 15 25 15 15 25 15 15 25 15 15 25 15 15 25 15 15 25 15 15 25 15 15 25 15 15 25 15 15 25 15 15 25 15 15 25 15 15 25 15 15 25 15 15 25 15 15 25 15 15 25 15 15 25 15 15 25 15 15 25 15 15 25 15 15 25 15 15 25 15 15 25 15 15 25 15 15 25 15 15 25 15 15 25 15 15 25 15 15 25 15 15 25 15 15 25 15 15 25 15 15 25 15 15 25 15 15 25 15 15 25 15 15 25 15 15 25 15 15 25 15 15 25 15 15 25 15 15 25 15 15 25 15 15 25 15 15 25 15 15 25 15 15 25 15 15 25 15 15 25 15 15 25 15 15 25 15 15 25 15 15 25 15 15 25 15 15 25 15 15 25 15 15 25 15 15 25 255 0 0 15 15 25 15 15 25 15 15 25 15 15 25 15 15 25 15 15 25 15 15 25 15 15 25 15 15 25 15 15 25 15 15 25 15 15 25 15 15 25 15 15 25 15 15 25 15 15 25 15 15 25 15 15 25 15 15 25 15 15 25 15 15 25 15 15 25 15 15 25 15 15 25 15 15 25 15 15 25 15 15 25 15 15 25 15 15 25 15 15 25 15 15 25 15 15 25 15 15 25 15 15 25 15 15 25 15 15 25 15 15 25 15 15 25 15 15 25 15 15 25 15 15 25 15 15 25 15 15 25 15 15 25 15 15 25 15 15 25 15 15 25 15 15 25 15 15 25 15 15 25 15 15 25 15 15 25 255 0 255 15 15 25 15 15 25 15 15 25 15 15 25 15 15 25 15 15 25 15 15 25 0 255 0 15 15 25 15 15 25 15 15 25 15 15 25 15 15 25 15 15 25 15 15 25 15 15 25 15 15 25 15 15 25 15 15 25 15 15 25 15 15 25 15 15 25 15 15 25 15 15 25 15 15 25 15 15 25 15 15 25 15 15 25 15 15 25 15 15 25 15 15 25 15 15 25 15 15 25 15 15 25 15 15 25 15 15 25 15 15 25 15 15 25 15 15 25 15 15 25 15 15 25 15 15 25 15 15 25 15 15 25 15 15 25 15 15 25 15 15 25 15 15 25 15 15 25 15 15 25 15 15 25 15 15 25 15 15 25 15 15 25 15 15 25 15 15 25 15 15 25 15 15 25 15 15 25 255 0 255 15 15 25 15 15 25 15 15 25 15 15 25 15 15 25 15 15 25 15 15 25 15 15 25 15 15 25 15 15 25 15 15 25 15 15 25 15 15 25 15 15 25 15 15 25 15 15 25 15 15 25 15 15 25 15 15 25 15 15 25 15 15 25 15 15 25 15 15 25 15 15 25 15 15 25 15 15 25 15 15 25 15 15 25 15 15 25 15 15 25 15 15 25 15 15 25 15 15 25 15 15 25 15 15 25 15 15 25 15 15 25 15 15 25 15 15 25 15 15 25 15 15 25 15 15 25 15 15 25 15 15 25 15 15 25 
15 15 25 15 15 25 15 15 25 15 15 25 15 15 25 15 15 25 15 15 25 15 15 25 15 15 25 15 15 25 15 15 25 15 15 25 15 15 25 15 15 25 15 15 25 15 15 25 15 15 25 15 15 25 15 15 25 15 15 25 15 15 25 15 15 25 15 15 25 15 15 25 15 15 25 15 15 25 15 15 25 15 15 25 15 15 25 15 15 25 15 15 25 15 15 25 15 15 25 15 15 25 15 15 25 15 15 25 15 15 25 15 15 25 15 15 25 15 15 25 15 15 25 15 15 25 15 15 25 15 15 25 15 15 25 15 15 25 15 15 25 15 15 25 15 15 25 15 15 25 15 15 25 15 15 25 15 15 25 15 15 25 15 15 25 15 15 25 15 15 25 15 15 25 15 15 25 15 15 25 15 15 25 15 15 25 15 15 25 15 15 25 15 15 25 15 15 25 15 15 25 15 15 25 15 15 25 15 15 25 15 15 25 15 15 25 15 15 25 15 15 25 15 15 25 15 15 25 15 15 25 15 15 25 15 15 25 15 15 25 15 15 25 15 15 25 15 15 25 15 15 25 15 15 25 15 15 25 15 15 25 15 15 25 15 15 25 15 15 25 15 15 25 15 15 25 15 15 25 15 15 25 15 15 25 15 15 25 15 15 25 15 15 25 255 0 0 15 15 25 15 15 25 15 15 25 15 15 25 15 15 25 15 15 25 15 15 25 15 15 25 15 15 25 15 15 25 15 15 25 15 15 25 15 15 25 15 15 25 15 15 25 15 15 25 15 15 25 15 15 25 15 15 25 15 15 25 15 15 25 15 15 25 15 15 25 15 15 25 15 15 25 15 15 25 15 15 25 15 15 25 15 15 25 15 15 25 15 15 25 15 15 25 15 15 25 15 15 25 15 15 25 15 15 25 15 15 25 15 15 25 15 15 25 15 15 25 15 15 25 15 15 25 15 15 25 15 15 25 15 15 25 15 15 25 15 15 25 15 15 25 15 15 25 15 15 25 15 15 25 15 15 25 255 0 255 15 15 25 15 15 25 15 15 25 15 15 25 15 15 25 0 255 0 15 15 25 15 15 25 15 15 25 15 15 25 15 15 25 15 15 25 15 15 25 15 15 25 15 15 25 15 15 25 15 15 25 15 15 25 15 15 25 15 15 25 15 15 25 15 15 25 15 15 25 15 15 25 15 15 25 15 15 25 15 15 25 15 15 25 15 15 25 15 15 25 15 15 25 15 15 25 15 15 25 15 15 25 15 15 25 15 15 25 15 15 25 15 15 25 15 15 25 15 15 25 15 15 25 15 15 25 15 15 25 15 15 25 15 15 25 15 15 25 15 15 25 15 15 25 15 15 25 15 15 25 15 15 25 15 15 25 15 15 25 15 15 25 15 15 25 15 15 25 15 15 25 255 0 255 15 15 25 15 15 25 15 15 25 15 15 25 15 15 25 15 15 25 15 15 25 15 15 25 15 15 25 15 15 25 15 15 25 15 15 25 15 15 25 15 15 25 15 15 25 15 15 25 15 15 25 15 15 25 15 15 25 15 15 25 15 15 25 15 15 25 15 15 25 15 15 25 15 15 25 15 15 25 15 15 25 15 15 25 15 15 25 15 15 25 15 15 25 15 15 25 15 15 25 15 15 25 15 15 25 15 15 25 15 15 25 15 15 25 15 15 25 15 15 25 15 15 25 15 15 25 15 15 25 15 15 25 15 15 25 15 15 25 
15 15 25 15 15 25 15 15 25 15 15 25 15 15 25 15 15 25 15 15 25 15 15 25 15 15 25 15 15 25 15 15 25 15 15 25 15 15 25 15 15 25 15 15 25 15 15 25 15 15 25 15 15 25 15 15 25 15 15 25 15 15 25 15 15 25 15 15 25 15 15 25 15 15 25 15 15 25 15 15 25 15 15 25 15 15 25 15 15 25 15 15 25 15 15 25 15 15 25 15 15 25 15 15 25 15 15 25 15 15 25 15 15 25 15 15 25 15 15 25 15 15 25 15 15 25 15 15 25 15 15 25 15 15 25 15 15 25 15 15 25 15 15 25 15 15 25 15 15 25 15 15 25 15 15 25 15 15 25 15 15 25 15 15 25 15 15 25 15 15 25 15 15 25 15 15 25 15 15 25 15 15 25 15 15 25 15 15 25 15 15 25 15 15 25 15 15 25 15 15 25 15 15 25 15 15 25 15 15 25 15 15 25 15 15 25 15 15 25 15 15 25 15 15 25 15 15 25 15 15 25 15 15 25 15 15 25 15 15 25 15 15 25 15 15 25 15 15 25 15 15 25 15 15 25 15 15 25 15 15 25 15 15 25 15 15 25 15 15 25 15 15 25 15 15 25 15 15 25 15 15 25 15 15 25 15 15 25 15 15 25 15 15 25 15 15 25 255 0 0 15 15 25 15 15 25 15 15 25 15 15 25 15 15 25 15 15 25 15 15 25 15 15 25 15 15 25 15 15 25 15 15 25 15 15 25 15 15 25 15 15 25 15 15 25 15 15 25 15 15 25 15 15 25 15 15 25 15 15 25 15 15 25 15 15 25 15 15 25 15 15 25 15 15 25 15 15 25 15 15 25 15 15 25 15 15 25 15 15 25 15 15 25 15 15 25 15 15 25 15 15 25 15 15 25 15 15 25 15 15 25 15 15 25 15 15 25 15 15 25 15 15 25 15 15 25 15 15 25 15 15 25 15 15 25 15 15 25 15 15 25 15 15 25 15 15 25 15 15 25 15 15 25 15 15 25 255 0 255 15 15 25 15 15 25 15 15 25 0 255 0 15 15 25 15 15 25 15 15 25 15 15 25 15 15 25 15 15 25 15 15 25 15 15 25 15 15 25 15 15 25 15 15 25 15 15 25 15 15 25 15 15 25 15 15 25 15 15 25 15 15 25 15 15 25 15 15 25 15 15 25 15 15 25 15 15 25 15 15 25 15 15 25 15 15 25 15 15 25 15 15 25 15 15 25 15 15 25 15 15 25 15 15 25 15 15 25 15 15 25 15 15 25 15 15 25 15 15 25 15 15 25 15 15 25 15 15 25 15 15 25 15 15 25 15 15 25 15 15 25 15 15 25 15 15 25 15 15 25 15 15 25 15 15 25 15 15 25 15 15 25 15 15 25 255 0 255 15 15 25 15 15 25 15 15 25 15 15 25 15 15 25 15 15 25 15 15 25 15 15 25 15 15 25 15 15 25 15 15 25 15 15 25 15 15 25 15 15 25 15 15 25 15 15 25 15 15 25 15 15 25 15 15 25 15 15 25 15 15 25 15 15 25 15 15 25 15 15 25 15 15 25 15 15 25 15 15 25 15 15 25 15 15 25 15 15 25 15 15 25 15 15 25 15 15 25 15 15 25 15 15 25 15 15 25 15 15 25 15 15 25 15 15 25 15 15 25 15 15 25 15 15 25 15 15 25 15 15 25 15 15 25 15 15 25 15 15 25 
15 15 25 15 15 25 15 15 25 15 15 25 15 15 25 15 15 25 15 15 25 15 15 25 15 15 25 15 15 25 15 15 25 15 15 25 15 15 25 15 15 25 15 15 25 15 15 25 15 15 25 15 15 25 15 15 25 15 15 25 15 15 25 15 15 25 15 15 25 15 15 25 15 15 25 15 15 25 15 15 25 15 15 25 15 15 25 15 15 25 15 15 25 15 15 25 15 15 25 15 15 25 15 15 25 15 15 25 15 15 25 15 15 25 15 15 25 15 15 25 15 15 25 15 15 25 15 15 25 15 15 25 15 15 25 15 15 25 15 15 25 15 15 25 15 15 25 15 15 25 15 15 25 15 15 25 15 15 25 15 15 25 15 15 25 15 15 25 15 15 25 15 15 25 15 15 25 15 15 25 15 15 25 15 15 25 15 15 25 15 15 25 15 15 25 15 15 25 15 15 25 15 15 25 15 15 25 15 15 25 15 15 25 15 15 25 15 15 25 15 15 25 15 15 25 15 15 25 15 15 25 15 15 25 15 15 25 15 15 25 15 15 25 15 15 25 15 15 25 15 15 25 15 15 25 15 15 25 15 15 25 15 15 25 15 15 25 15 15 25 15 15 25 15 15 25 15 15 25 15 15 25 15 15 25 15 15 25 15 15 25 15 15 25 15 15 25 15 15 25 255 0 0 15 15 25 15 15 25 15 15 25 15 15 25 15 15 25 15 15 25 15 15 25 15 15 25 15 15 25 15 15 25 15 15 25 15 15 25 15 15 25 15 15 25 15 15 25 15 15 25 15 15 25 15 15 25 15 15 25 15 15 25 15 15 25 15 15 25 15 15 25 15 15 25 15 15 25 15 15 25 15 15 25 15 15 25 15 15 25 15 15 25 15 15 25 15 15 25 15 15 25 15 15 25 15 15 25 15 15 25 15 15 25 15 15 25 15 15 25 15 15 25 15 15 25 15 15 25 15 15 25 15 15 25 15 15 25 15 15 25 15 15 25 15 15 25 15 15 25 15 15 25 15 15 25 15 15 25 255 0 255 255 0 255 0 255 0 15 15 25 15 15 25 15 15 25 15 15 25 15 15 25 15 15 25 15 15 25 15 15 25 15 15 25 15 15 25 15 15 25 15 15 25 15 15 25 15 15 25 15 15 25 15 15 25 15 15 25 15 15 25 15 15 25 15 15 25 15 15 25 15 15 25 15 15 25 15 15 25 15 15 25 15 15 25 15 15 25 15 15 25 15 15 25 15 15 25 15 15 25 15 15 25 15 15 25 15 15 25 15 15 25 15 15 25 15 15 25 15 15 25 15 15 25 15 15 25 15 15 25 15 15 25 15 15 25 15 15 25 15 15 25 15 15 25 15 15 25 15 15 25 15 15 25 15 15 25 255 0 255 255 0 255 15 15 25 15 15 25 15 15 25 15 15 25 15 15 25 15 15 25 15 15 25 15 15 25 15 15 25 15 15 25 15 15 25 15 15 25 15 15 25 15 15 25 15 15 25 15 15 25 15 15 25 15 15 25 15 15 25 15 15 25 15 15 25 15 15 25 15 15 25 15 15 25 15 15 25 15 15 25 15 15 25 15 15 25 15 15 25 15 15 25 15 15 25 15 15 25 15 15 25 15 15 25 15 15 25 15 15 25 15 15 25 15 15 25 15 15 25 15 15 25 15 15 25 15 15 25 15 15 25 15 15 25 15 15 25 15 15 25 15 15 25 15 15 25 
15 15 25 15 15 25 15 15 25 15 15 25 15 15 25 15 15 25 15 15 25 15 15 25 15 15 25 15 15 25 15 15 25 15 15 25 15 15 25 15 15 25 15 15 25 15 15 25 15 15 25 15 15 25 15 15 25 15 15 25 15 15 25 15 15 25 15 15 25 15 15 25 15 15 25 15 15 25 15 15 25 15 15 25 15 15 25 15 15 25 15 15 25 15 15 25 15 15 25 15 15 25 15 15 25 15 15 25 15 15 25 15 15 25 15 15 25 15 15 25 15 15 25 15 15 25 15 15 25 15 15 25 15 15 25 15 15 25 15 15 25 15 15 25 15 15 25 15 15 25 15 15 25 15 15 25 15 15 25 15 15 25 15 15 25 15 15 25 15 15 25 15 15 25 15 15 25 15 15 25 15 15 25 15 15 25 15 15 25 15 15 25 15 15 25 15 15 25 15 15 25 15 15 25 15 15 25 15 15 25 15 15 25 15 15 25 15 15 25 15 15 25 15 15 25 15 15 25 15 15 25 15 15 25 15 15 25 15 15 25 15 15 25 15 15 25 15 15 25 15 15 25 15 15 25 15 15 25 15 15 25 15 15 25 15 15 25 15 15 25 15 15 25 15 15 25 15 15 25 15 15 25 15 15 25 15 15 25 15 15 25 15 15 25 15 15 25 15 15 25 15 15 25 255 0 0 15 15 25 15 15 25 15 15 25 15 15 25 15 15 25 15 15 25 15 15 25 15 15 25 15 15 25 15 15 25 15 15 25 15 15 25 15 15 25 15 15 25 15 15 25 15 15 25 15 15 25 15 15 25 15 15 25 15 15 25 15 15 25 15 15 25 15 15 25 15 15 25 15 15 25 15 15 25 15 15 25 15 15 25 15 15 25 15 15 25 15 15 25 15 15 25 15 15 25 15 15 25 15 15 25 15 15 25 15 15 25 15 15 25 15 15 25 15 15 25 15 15 25 15 15 25 15 15 25 15 15 25 15 15 25 15 15 25 15 15 25 15 15 25 15 15 25 15 15 25 15 15 25 15 15 25 0 255 0 255 0 255 15 15 25 15 15 25 15 15 25 15 15 25 15 15 25 15 15 25 15 15 25 15 15 25 15 15 25 15 15 25 15 15 25 15 15 25 15 15 25 15 15 25 15 15 25 15 15 25 15 15 25 15 15 25 15 15 25 15 15 25 15 15 25 15 15 25 15 15 25 15 15 25 15 15 25 15 15 25 15 15 25 15 15 25 15 15 25 15 15 25 15 15 25 15 15 25 15 15 25 15 15 25 15 15 25 15 15 25 15 15 25 15 15 25 15 15 25 15 15 25 15 15 25 15 15 25 15 15 25 15 15 25 15 15 25 15 15 25 15 15 25 15 15 25 15 15 25 255 0 255 15 15 25 15 15 25 15 15 25 15 15 25 15 15 25 15 15 25 15 15 25 15 15 25 15 15 25 15 15 25 15 15 25 15 15 25 15 15 25 15 15 25 15 15 25 15 15 25 15 15 25 15 15 25 15 15 25 15 15 25 15 15 25 15 15 25 15 15 25 15 15 25 15 15 25 15 15 25 15 15 25 15 15 25 15 15 25 15 15 25 15 15 25 15 15 25 15 15 25 15 15 25 15 15 25 15 15 25 15 15 25 15 15 25 15 15 25 15 15 25 15 15 25 15 15 25 15 15 25 15 15 25 15 15 25 15 15 25 15 15 25 15 15 25 15 15 25 15 15 25 
15 15 25 15 15 25 15 15 25 15 15 25 15 15 25 15 15 25 15 15 25 15 15 25 15 15 25 15 15 25 15 15 25 15 15 25 15 15 25 15 15 25 15 15 25 15 15 25 15 15 25 15 15 25 15 15 25 15 15 25 15 15 25 15 15 25 15 15 25 15 15 25 15 15 25 15 15 25 15 15 25 15 15 25 15 15 25 15 15 25 15 15 25 15 15 25 15 15 25 15 15 25 15 15 25 15 15 25 15 15 25 15 15 25 15 15 25 15 15 25 15 15 25 15 15 25 15 15 25 15 15 25 15 15 25 15 15 25 15 15 25 15 15 25 15 15 25 15 15 25 15 15 25 15 15 25 15 15 25 15 15 25 15 15 25 15 15 25 15 15 25 15 15 25 15 15 25 15 15 25 15 15 25 15 15 25 15 15 25 15 15 25 15 15 25 15 15 25 15 15 25 15 15 25 15 15 25 15 15 25 15 15 25 15 15 25 15 15 25 15 15 25 15 15 25 15 15 25 15 15 25 15 15 25 15 15 25 15 15 25 15 15 25 15 15 25 15 15 25 15 15 25 15 15 25 15 15 25 15 15 25 15 15 25 15 15 25 15 15 25 15 15 25 15 15 25 15 15 25 15 15 25 15 15 25 15 15 25 15 15 25 15 15 25 15 15 25 15 15 25 15 15 25 15 15 25 255 0 0 15 15 25 15 15 25 15 15 25 15 15 25 15 15 25 15 15 25 15 15 25 15 15 25 15 15 25 15 15 25 15 15 25 15 15 25 15 15 25 15 15 25 15 15 25 15 15 25 15 15 25 15 15 25 15 15 25 15 15 25 15 15 25 15 15 25 15 15 25 15 15 25 15 15 25 15 15 25 15 15 25 15 15 25 15 15 25 15 15 25 15 15 25 15 15 25 15 15 25 15 15 25 15 15 25 15 15 25 15 15 25 15 15 25 15 15 25 15 15 25 15 15 25 15 15 25 15 15 25 15 15 25 15 15 25 15 15 25 15 15 25 15 15 25 15 15 25 15 15 25 0 255 0 15 15 25 15 15 25 255 0 255 15 15 25 15 15 25 15 15 25 15 15 25 15 15 25 15 15 25 15 15 25 15 15 25 15 15 25 15 15 25 15 15 25 15 15 25 15 15 25 15 15 25 15 15 25 15 15 25 15 15 25 15 15 25 15 15 25 15 15 25 15 15 25 15 15 25 15 15 25 15 15 25 15 15 25 15 15 25 15 15 25 15 15 25 15 15 25 15 15 25 15 15 25 15 15 25 15 15 25 15 15 25 15 15 25 15 15 25 15 15 25 15 15 25 15 15 25 15 15 25 15 15 25 15 15 25 15 15 25 15 15 25 15 15 25 15 15 25 15 15 25 255 0 255 15 15 25 15 15 25 15 15 25 15 15 25 15 15 25 15 15 25 15 15 25 15 15 25 15 15 25 15 15 25 15 15 25 15 15 25 15 15 25 15 15 25 15 15 25 15 15 25 15 15 25 15 15 25 15 15 25 15 15 25 15 15 25 15 15 25 15 15 25 15 15 25 15 15 25 15 15 25 15 15 25 15 15 25 15 15 25 15 15 25 15 15 25 15 15 25 15 15 25 15 15 25 15 15 25 15 15 25 15 15 25 15 15 25 15 15 25 15 15 25 15 15 25 15 15 25 15 15 25 15 15 25 15 15 25 15 15 25 15 15 25 15 15 25 15 15 25 15 15 25 15 15 25 
15 15 25 15 15 25 15 15 25 15 15 25 15 15 25 15 15 25 15 15 25 15 15 25 15 15 25 15 15 25 15 15 25 15 15 25 15 15 25 15 15 25 15 15 25 15 15 25 15 15 25 15 15 25 15 15 25 15 15 25 15 15 25 15 15 25 15 15 25 15 15 25 15 15 25 15 15 25 15 15 25 15 15 25 15 15 25 15 15 25 15 15 25 15 15 25 15 15 25 15 15 25 15 15 25 15 15 25 15 15 25 15 15 25 15 15 25 15 15 25 15 15 25 15 15 25 15 15 25 15 15 25 15 15 25 15 15 25 15 15 25 15 15 25 15 15 25 15 15 25 15 15 25 15 15 25 15 15 25 15 15 25 15 15 25 15 15 25 15 15 25 15 15 25 15 15 25 15 15 25 15 15 25 15 15 25 15 15 25 15 15 25 15 15 25 15 15 25 15 15 25 15 15 25 15 15 25 15 15 25 15 15 25 15 15 25 15 15 25 15 15 25 15 15 25 15 15 25 15 15 25 15 15 25 15 15 25 15 15 25 15 15 25 15 15 25 15 15 25 15 15 25 15 15 25 15 15 25 15 15 25 15 15 25 15 15 25 15 15 25 15 15 25 15 15 25 15 15 25 15 15 25 15 15 25 15 15 25 15 15 25 15 15 25 15 15 25 15 15 25 15 15 25 15 15 25 15 15 25 255 0 0 15 15 25 15 15 25 15 15 25 15 15 25 15 15 25 15 15 25 15 15 25 15 15 25 15 15 25 15 15 25 15 15 25 15 15 25 15 15 25 15 15 25 15 15 25 15 15 25 15 15 25 15 15 25 15 15 25 15 15 25 15 15 25 15 15 25 15 15 25 15 15 25 15 15 25 15 15 25 15 15 25 15 15 25 15 15 25 15 15 25 15 15 25 15 15 25 15 15 25 15 15 25 15 15 25 15 15 25 15 15 25 15 15 25 15 15 25 15 15 25 15 15 25 15 15 25 15 15 25 15 15 25 15 15 25 15 15 25 15 15 25 15 15 25 0 255 0 15 15 25 15 15 25 15 15 25 15 15 25 255 0 255 255 0 255 15 15 25 15 15 25 15 15 25 15 15 25 15 15 25 15 15 25 15 15 25 15 15 25 15 15 25 15 15 25 15 15 25 15 15 25 15 15 25 15 15 25 15 15 25 15 15 25 15 15 25 15 15 25 15 15 25 15 15 25 15 15 25 15 15 25 15 15 25 15 15 25 15 15 25 15 15 25 15 15 25 15 15 25 15 15 25 15 15 25 15 15 25 15 15 25 15 15 25 15 15 25 15 15 25 15 15 25 15 15 25 15 15 25 15 15 25 15 15 25 15 15 25 15 15 25 15 15 25 255 0 255 255 0 255 15 15 25 15 15 25 15 15 25 15 15 25 15 15 25 15 15 25 15 15 25 15 15 25 15 15 25 15 15 25 15 15 25 15 15 25 15 15 25 15 15 25 15 15 25 15 15 25 15 15 25 15 15 25 15 15 25 15 15 25 15 15 25 15 15 25 15 15 25 15 15 25 15 15 25 15 15 25 15 15 25 15 15 25 15 15 25 15 15 25 15 15 25 15 15 25 15 15 25 15 15 25 15 15 25 15 15 25 15 15 25 15 15 25 15 15 25 15 15 25 15 15 25 15 15 25 15 15 25 15 15 25 15 15 25 15 15 25 15 15 25 15 15 25 15 15 25 15 15 25 15 15 25 15 15 25 
15 15 25 15 15 25 15 15 25 15 15 25 15 15 25 15 15 25 15 15 25 15 15 25 15 15 25 15 15 25 15 15 25 15 15 25 15 15 25 15 15 25 15 15 25 15 15 25 15 15 25 15 15 25 15 15 25 15 15 25 15 15 25 15 15 25 15 15 25 15 15 25 15 15 25 15 15 25 15 15 25 15 15 25 15 15 25 15 15 25 15 15 25 15 15 25 15 15 25 15 15 25 15 15 25 15 15 25 15 15 25 15 15 25 15 15 25 15 15 25 15 15 25 15 15 25 15 15 25 15 15 25 15 15 25 15 15 25 15 15 25 15 15 25 15 15 25 15 15 25 15 15 25 15 15 25 15 15 25 15 15 25 15 15 25 15 15 25 15 15 25 15 15 25 15 15 25 15 15 25 15 15 25 15 15 25 15 15 25 15 15 25 15 15 25 15 15 25 15 15 25 15 15 25 15 15 25 15 15 25 15 15 25 15 15 25 15 15 25 15 15 25 15 15 25 15 15 25 15 15 25 15 15 25 15 15 25 15 15 25 15 15 25 15 15 25 15 15 25 15 15 25 15 15 25 15 15 25 15 15 25 15 15 25 15 15 25 15 15 25 15 15 25 15 15 25 15 15 25 15 15 25 15 15 25 15 15 25 15 15 25 15 15 25 15 15 25 15 15 25 15 15 25 15 15 25 15 15 25 15 15 25 255 0 0 15 15 25 15 15 25 15 15 25 15 15 25 15 15 25 15 15 25 15 15 25 15 15 25 15 15 25 15 15 25 15 15 25 15 15 25 15 15 25 15 15 25 15 15 25 15 15 25 15 15 25 15 15 25 15 15 25 15 15 25 15 15 25 15 15 25 15 15 25 15 15 25 15 15 25 15 15 25 15 15 25 15 15 25 15 15 25 15 15 25 15 15 25 15 15 25 15 15 25 15 15 25 15 15 25 15 15 25 15 15 25 15 15 25 15 15 25 15 15 25 15 15 25 15 15 25 15 15 25 15 15 25 15 15 25 15 15 25 0 255 0 15 15 25 15 15 25 15 15 25 15 15 25 15 15 25 15 15 25 15 15 25 255 0 255 15 15 25 15 15 25 15 15 25 15 15 25 15 15 25 15 15 25 15 15 25 15 15 25 15 15 25 15 15 25 15 15 25 15 15 25 15 15 25 15 15 25 15 15 25 15 15 25 15 15 25 15 15 25 15 15 25 15 15 25 15 15 25 15 15 25 15 15 25 15 15 25 15 15 25 15 15 25 15 15 25 15 15 25 15 15 25 15 15 25 15 15 25 15 15 25 15 15 25 15 15 25 15 15 25 15 15 25 15 15 25 15 15 25 15 15 25 15 15 25 15 15 25 255 0 255 15 15 25 15 15 25 15 15 25 15 15 25 15 15 25 15 15 25 15 15 25 15 15 25 15 15 25 15 15 25 15 15 25 15 15 25 15 15 25 15 15 25 15 15 25 15 15 25 15 15 25 15 15 25 15 15 25 15 15 25 15 15 25 15 15 25 15 15 25 15 15 25 15 15 25 15 15 25 15 15 25 15 15 25 15 15 25 15 15 25 15 15 25 15 15 25 15 15 25 15 15 25 15 15 25 15 15 25 15 15 25 15 15 25 15 15 25 15 15 25 15 15 25 15 15 25 15 15 25 15 15 25 15 15 25 15 15 25 15 15 25 15 15 25 15 15 25 15 15 25 15 15 25 15 15 25 15 15 25 15 15 25 
15 15 25 15 15 25 15 15 25 15 15 25 15 15 25 15 15 25 15 15 25 15 15 25 15 15 25 15 15 25 15 15 25 15 15 25 15 15 25 15 15 25 15 15 25 15 15 25 15 15 25 15 15 25 15 15 25 15 15 25 15 15 25 15 15 25 15 15 25 15 15 25 15 15 25 15 15 25 15 15 25 15 15 25 15 15 25 15 15 25 15 15 25 15 15 25 15 15 25 15 15 25 15 15 25 15 15 25 15 15 25 15 15 25 15 15 25 15 15 25 15 15 25 15 15 25 15 15 25 15 15 25 15 15 25 15 15 25 15 15 25 15 15 25 15 15 25 15 15 25 15 15 25 15 15 25 15 15 25 15 15 25 15 15 25 15 15 25 15 15 25 15 15 25 15 15 25 15 15 25 15 15 25 15 15 25 15 15 25 15 15 25 15 15 25 15 15 25 15 15 25 15 15 25 15 15 25 15 15 25 15 15 25 15 15 25 15 15 25 15 15 25 15 15 25 15 15 25 15 15 25 15 15 25 15 15 25 15 15 25 15 15 25 15 15 25 15 15 25 15 15 25 15 15 25 15 15 25 15 15 25 15 15 25 15 15 25 15 15 25 15 15 25 15 15 25 15 15 25 15 15 25 15 15 25 15 15 25 15 15 25 15 15 25 15 15 25 15 15 25 15 15 25 15 15 25 15 15 25 15 15 25 15 15 25 255 0 0 15 15 25 15 15 25 15 15 25 15 15 25 15 15 25 15 15 25 15 15 25 15 15 25 15 15 25 15 15 25 15 15 25 15 15 25 15 15 25 15 15 25 15 15 25 15 15 25 15 15 25 15 15 25 15 15 25 15 15 25 15 15 25 15 15 25 15 15 25 15 15 25 15 15 25 15 15 25 15 15 25 15 15 25 15 15 25 15 15 25 15 15 25 15 15 25 15 15 25 15 15 25 15 15 25 15 15 25 15 15 25 15 15 25 15 15 25 15 15 25 15 15 25 15 15 25 15 15 25 15 15 25 0 255 0 15 15 25 15 15 25 15 15 25 15 15 25 15 15 25 15 15 25 15 15 25 15 15 25 15 15 25 255 0 255 255 0 255 15 15 25 15 15 25 15 15 25 15 15 25 15 15 25 15 15 25 15 15 25 15 15 25 15 15 25 15 15 25 15 15 25 15 15 25 15 15 25 15 15 25 15 15 25 15 15 25 15 15 25 15 15 25 15 15 25 15 15 25 15 15 25 15 15 25 15 15 25 15 15 25 15 15 25 15 15 25 15 15 25 15 15 25 15 15 25 15 15 25 15 15 25 15 15 25 15 15 25 15 15 25 15 15 25 15 15 25 15 15 25 255 0 255 255 0 255 15 15 25 15 15 25 15 15 25 15 15 25 15 15 25 15 15 25 15 15 25 15 15 25 15 15 25 15 15 25 15 15 25 15 15 25 15 15 25 15 15 25 15 15 25 15 15 25 15 15 25 15 15 25 15 15 25 15 15 25 15 15 25 15 15 25 15 15 25 15 15 25 15 15 25 15 15 25 15 15 25 15 15 25 15 15 25 15 15 25 15 15 25 15 15 25 15 15 25 15 15 25 15 15 25 15 15 25 15 15 25 15 15 25 15 15 25 15 15 25 15 15 25 15 15 25 15 15 25 15 15 25 15 15 25 15 15 25 15 15 25 15 15 25 15 15 25 15 15 25 15 15 25 15 15 25 15 15 25 15 15 25 15 15 25 
15 15 25 15 15 25 15 15 25 15 15 25 15 15 25 15 15 25 15 15 25 15 15 25 15 15 25 15 15 25 15 15 25 15 15 25 15 15 25 15 15 25 15 15 25 15 15 25 15 15 25 15 15 25 15 15 25 15 15 25 15 15 25 15 15 25 15 15 25 15 15 25 15 15 25 15 15 25 15 15 25 15 15 25 15 15 25 15 15 25 15 15 25 15 15 25 15 15 25 15 15 25 15 15 25 15 15 25 15 15 25 15 15 25 15 15 25 15 15 25 15 15 25 15 15 25 15 15 25 15 15 25 15 15 25 15 15 25 15 15 25 15 15 25 15 15 25 15 15 25 15 15 25 15 15 25 15 15 25 15 15 25 15 15 25 15 15 25 15 15 25 15 15 25 15 15 25 15 15 25 15 15 25 15 15 25 15 15 25 15 15 25 15 15 25 15 15 25 15 15 25 15 15 25 15 15 25 15 15 25 15 15 25 15 15 25 15 15 25 15 15 25 15 15 25 15 15 25 15 15 25 15 15 25 15 15 25 15 15 25 15 15 25 15 15 25 15 15 25 15 15 25 15 15 25 15 15 25 15 15 25 15 15 25 15 15 25 15 15 25 15 15 25 15 15 25 15 15 25 15 15 25 15 15 25 15 15 25 15 15 25 15 15 25 15 15 25 15 15 25 15 15 25 15 15 25 15 15 25 15 15 25 15 15 25 15 15 25 255 0 0 15 15 25 15 15 25 15 15 25 15 15 25 15 15 25 15 15 25 15 15 25 15 15 25 15 15 25 15 15 25 15 15 25 15 15 25 15 15 25 15 15 25 15 15 25 15 15 25 15 15 25 15 15 25 15 15 25 15 15 25 15 15 25 15 15 25 15 15 25 15 15 25 15 15 25 15 15 25 15 15 25 15 15 25 15 15 25 15 15 25 15 15 25 15 15 25 15 15 25 15 15 25 15 15 25 15 15 25 15 15 25 15 15 25 15 15 25 15 15 25 15 15 25 15 15 25 0 255 0 15 15 25 15 15 25 15 15 25 15 15 25 15 15 25 15 15 25 15 15 25 15 15 25 15 15 25 15 15 25 15 15 25 15 15 25 255 0 255 255 0 255 15 15 25 15 15 25 15 15 25 15 15 25 15 15 25 15 15 25 15 15 25 15 15 25 15 15 25 15 15 25 15 15 25 15 15 25 15 15 25 15 15 25 15 15 25 15 15 25 15 15 25 15 15 25 15 15 25 15 15 25 15 15 25 15 15 25 15 15 25 15 15 25 15 15 25 15 15 25 15 15 25 15 15 25 15 15 25 15 15 25 15 15 25 15 15 25 15 15 25 255 0 255 255 0 255 15 15 25 15 15 25 15 15 25 15 15 25 15 15 25 15 15 25 15 15 25 15 15 25 15 15 25 15 15 25 15 15 25 15 15 25 15 15 25 15 15 25 15 15 25 15 15 25 15 15 25 15 15 25 15 15 25 15 15 25 15 15 25 15 15 25 15 15 25 15 15 25 15 15 25 15 15 25 15 15 25 15 15 25 15 15 25 15 15 25 15 15 25 15 15 25 15 15 25 15 15 25 15 15 25 15 15 25 15 15 25 15 15 25 15 15 25 15 15 25 15 15 25 15 15 25 15 15 25 15 15 25 15 15 25 15 15 25 15 15 25 15 15 25 15 15 25 15 15 25 15 15 25 15 15 25 15 15 25 15 15 25 15 15 25 15 15 25 15 15 25 
15 15 25 15 15 25 15 15 25 15 15 25 15 15 25 15 15 25 15 15 25 15 15 25 15 15 25 15 15 25 15 15 25 15 15 25 15 15 25 15 15 25 15 15 25 15 15 25 15 15 25 15 15 25 15 15 25 15 15 25 15 15 25 15 15 25 15 15 25 15 15 25 15 15 25 15 15 25 15 15 25 15 15 25 15 15 25 15 15 25 15 15 25 15 15 25 15 15 25 15 15 25 15 15 25 15 15 25 15 15 25 15 15 25 15 15 25 15 15 25 15 15 25 15 15 25 15 15 25 15 15 25 15 15 25 15 15 25 15 15 25 15 15 25 15 15 25 15 15 25 15 15 25 15 15 25 15 15 25 15 15 25 15 15 25 15 15 25 15 15 25 15 15 25 15 15 25 15 15 25 15 15 25 15 15 25 15 15 25 15 15 25 15 15 25 15 15 25 15 15 25 15 15 25 15 15 25 15 15 25 15 15 25 15 15 25 15 15 25 15 15 25 15 15 25 15 15 25 15 15 25 15 15 25 15 15 25 15 15 25 15 15 25 15 15 25 15 15 25 15 15 25 15 15 25 15 15 25 15 15 25 15 15 25 15 15 25 15 15 25 15 15 25 15 15 25 15 15 25 15 15 25 15 15 25 15 15 25 15 15 25 15 15 25 15 15 25 15 15 25 15 15 25 15 15 25 15 15 25 15 15 25 15 15 25 15 15 25 15 15 25 255 0 0 15 15 25 15 15 25 15 15 25 15 15 25 15 15 25 15 15 25 15 15 25 15 15 25 15 15 25 15 15 25 15 15 25 15 15 25 15 15 25 15 15 25 15 15 25 15 15 25 15 15 25 15 15 25 15 15 25 15 15 25 15 15 25 15 15 25 15 15 25 15 15 25 15 15 25 15 15 25 15 15 25 15 15 25 15 15 25 15 15 25 15 15 25 15 15 25 15 15 25 15 15 25 15 15 25 15 15 25 15 15 25 15 15 25 15 15 25 15 15 25 0 255 0 15 15 25 15 15 25 15 15 25 15 15 25 15 15 25 15 15 25 15 15 25 15 15 25 15 15 25 15 15 25 15 15 25 15 15 25 15 15 25 15 15 25 15 15 25 255 0 255 255 0 255 255 0 255 15 15 25 15 15 25 15 15 25 15 15 25 15 15 25 15 15 25 15 15 25 15 15 25 15 15 25 15 15 25 15 15 25 15 15 25 15 15 25 15 15 25 15 15 25 15 15 25 15 15 25 15 15 25 15 15 25 15 15 25 15 15 25 15 15 25 15 15 25 15 15 25 15 15 25 15 15 25 15 15 25 255 0 255 255 0 255 255 0 255 15 15 25 15 15 25 15 15 25 15 15 25 15 15 25 15 15 25 15 15 25 15 15 25 15 15 25 15 15 25 15 15 25 15 15 25 15 15 25 15 15 25 15 15 25 15 15 25 15 15 25 15 15 25 15 15 25 15 15 25 15 15 25 15 15 25 15 15 25 15 15 25 15 15 25 15 15 25 15 15 25 15 15 25 15 15 25 15 15 25 15 15 25 15 15 25 15 15 25 15 15 25 15 15 25 15 15 25 15 15 25 15 15 25 15 15 25 15 15 25 15 15 25 15 15 25 15 15 25 15 15 25 15 15 25 15 15 25 15 15 25 15 15 25 15 15 25 15 15 25 15 15 25 15 15 25 15 15 25 15 15 25 15 15 25 15 15 25 15 15 25 15 15 25 15 15 25 
15 15 25 15 15 25 15 15 25 15 15 25 15 15 25 15 15 25 15 15 25 15 15 25 15 15 25 15 15 25 15 15 25 15 15 25 15 15 25 15 15 25 15 15 25 15 15 25 15 15 25 15 15 25 15 15 25 15 15 25 15 15 25 15 15 25 15 15 25 15 15 25 15 15 25 15 15 25 15 15 25 15 15 25 15 15 25 15 15 25 15 15 25 15 15 25 15 15 25 15 15 25 15 15 25 15 15 25 15 15 25 15 15 25 15 15 25 15 15 25 15 15 25 15 15 25 15 15 25 15 15 25 15 15 25 15 15 25 15 15 25 15 15 25 15 15 25 15 15 25 15 15 25 15 15 25 15 15 25 15 15 25 15 15 25 15 15 25 15 15 25 15 15 25 15 15 25 15 15 25 15 15 25 15 15 25 15 15 25 15 15 25 15 15 25 15 15 25 15 15 25 15 15 25 15 15 25 15 15 25 15 15 25 15 15 25 15 15 25 15 15 25 15 15 25 15 15 25 15 15 25 15 15 25 15 15 25 15 15 25 15 15 25 15 15 25 15 15 25 15 15 25 15 15 25 15 15 25 15 15 25 15 15 25 15 15 25 15 15 25 15 15 25 15 15 25 15 15 25 15 15 25 15 15 25 15 15 25 15 15 25 15 15 25 15 15 25 15 15 25 15 15 25 15 15 25 15 15 25 15 15 25 15 15 25 15 15 25 15 15 25 15 15 25 255 0 0 15 15 25 15 15 25 15 15 25 15 15 25 15 15 25 15 15 25 15 15 25 15 15 25 15 15 25 15 15 25 15 15 25 15 15 25 15 15 25 15 15 25 15 15 25 15 15 25 15 15 25 15 15 25 15 15 25 15 15 25 15 15 25 15 15 25 15 15 25 15 15 25 15 15 25 15 15 25 15 15 25 15 15 25 15 15 25 15 15 25 15 15 25 15 15 25 15 15 25 15 15 25 15 15 25 15 15 25 15 15 25 15 15 25 0 255 0 15 15 25 15 15 25 15 15 25 15 15 25 15 15 25 15 15 25 15 15 25 15 15 25 15 15 25 15 15 25 15 15 25 15 15 25 15 15 25 15 15 25 15 15 25 15 15 25 15 15 25 15 15 25 15 15 25 255 0 255 255 0 255 255 0 255 15 15 25 15 15 25 15 15 25 15 15 25 15 15 25 15 15 25 15 15 25 15 15 25 15 15 25 15 15 25 15 15 25 15 15 25 15 15 25 15 15 25 15 15 25 15 15 25 15 15 25 15 15 25 15 15 25 15 15 25 15 15 25 255 0 255 255 0 255 255 0 255 15 15 25 15 15 25 15 15 25 15 15 25 15 15 25 15 15 25 15 15 25 15 15 25 15 15 25 15 15 25 15 15 25 15 15 25 15 15 25 15 15 25 15 15 25 15 15 25 15 15 25 15 15 25 15 15 25 15 15 25 15 15 25 15 15 25 15 15 25 15 15 25 15 15 25 15 15 25 15 15 25 15 15 25 15 15 25 15 15 25 15 15 25 15 15 25 15 15 25 15 15 25 15 15 25 15 15 25 15 15 25 15 15 25 15 15 25 15 15 25 15 15 25 15 15 25 15 15 25 15 15 25 15 15 25 15 15 25 15 15 25 15 15 25 15 15 25 15 15 25 15 15 25 15 15 25 15 15 25 15 15 25 15 15 25 15 15 25 15 15 25 15 15 25 15 15 25 15 15 25 15 15 25 15 15 25 
15 15 25 15 15 25 15 15 25 15 15 25 15 15 25 15 15 25 15 15 25 15 15 25 15 15 25 15 15 25 15 15 25 15 15 25 15 15 25 15 15 25 15 15 25 15 15 25 15 15 25 15 15 25 15 15 25 15 15 25 15 15 25 15 15 25 15 15 25 15 15 25 15 15 25 15 15 25 15 15 25 15 15 25 15 15 25 15 15 25 15 15 25 15 15 25 15 15 25 15 15 25 15 15 25 15 15 25 15 15 25 15 15 25 15 15 25 15 15 25 15 15 25 15 15 25 15 15 25 15 15 25 15 15 25 15 15 25 15 15 25 15 15 25 15 15 25 15 15 25 15 15 25 15 15 25 15 15 25 15 15 25 15 15 25 15 15 25 15 15 25 15 15 25 15 15 25 15 15 25 15 15 25 15 15 25 15 15 25 15 15 25 15 15 25 15 15 25 15 15 25 15 15 25 15 15 25 15 15 25 15 15 25 15 15 25 15 15 25 15 15 25 15 15 25 15 15 25 15 15 25 15 15 25 15 15 25 15 15 25 15 15 25 15 15 25 15 15 25 15 15 25 15 15 25 15 15 25 15 15 25 15 15 25 15 15 25 15 15 25 15 15 25 15 15 25 15 15 25 15 15 25 15 15 25 15 15 25 15 15 25 15 15 25 15 15 25 15 15 25 15 15 25 15 15 25 15 15 25 15 15 25 15 15 25 15 15 25 15 15 25 15 15 25 15 15 25 255 0 0 15 15 25 15 15 25 15 15 25 15 15 25 15 15 25 15 15 25 15 15 25 15 15 25 15 15 25 15 15 25 15 15 25 15 15 25 15 15 25 15 15 25 15 15 25 15 15 25 15 15 25 15 15 25 15 15 25 15 15 25 15 15 25 15 15 25 15 15 25 15 15 25 15 15 25 15 15 25 15 15 25 15 15 25 15 15 25 15 15 25 15 15 25 15 15 25 15 15 25 15 15 25 15 15 25 15 15 25 0 255 0 15 15 25 15 15 25 15 15 25 15 15 25 15 15 25 15 15 25 15 15 25 15 15 25 15 15 25 15 15 25 15 15 25 15 15 25 15 15 25 15 15 25 15 15 25 15 15 25 15 15 25 15 15 25 15 15 25 15 15 25 15 15 25 15 15 25 15 15 25 255 0 255 255 0 255 255 0 255 255 0 255 15 15 25 15 15 25 15 15 25 15 15 25 15 15 25 15 15 25 15 15 25 15 15 25 15 15 25 15 15 25 15 15 25 15 15 25 15 15 25 255 0 255 255 0 255 255 0 255 255 0 255 15 15 25 15 15 25 15 15 25 15 15 25 15 15 25 15 15 25 15 15 25 15 15 25 15 15 25 15 15 25 15 15 25 15 15 25 15 15 25 15 15 25 15 15 25 15 15 25 15 15 25 15 15 25 15 15 25 15 15 25 15 15 25 15 15 25 15 15 25 15 15 25 15 15 25 15 15 25 15 15 25 15 15 25 15 15 25 15 15 25 15 15 25 15 15 25 15 15 25 15 15 25 15 15 25 15 15 25 15 15 25 15 15 25 15 15 25 15 15 25 15 15 25 15 15 25 15 15 25 15 15 25 15 15 25 15 15 25 15 15 25 15 15 25 15 15 25 15 15 25 15 15 25 15 15 25 15 15 25 15 15 25 15 15 25 15 15 25 15 15 25 15 15 25 15 15 25 15 15 25 15 15 25 15 15 25 15 15 25 15 15 25 15 15 25 
15 15 25 15 15 25 15 15 25 15 15 25 15 15 25 15 15 25 15 15 25 15 15 25 15 15 25 15 15 25 15 15 25 15 15 25 15 15 25 15 15 25 15 15 25 15 15 25 15 15 25 15 15 25 15 15 25 15 15 25 15 15 25 15 15 25 15 15 25 15 15 25 15 15 25 15 15 25 15 15 25 15 15 25 15 15 25 15 15 25 15 15 25 15 15 25 15 15 25 15 15 25 15 15 25 15 15 25 15 15 25 15 15 25 15 15 25 15 15 25 15 15 25 15 15 25 15 15 25 15 15 25 15 15 25 15 15 25 15 15 25 15 15 25 15 15 25 15 15 25 15 15 25 15 15 25 15 15 25 15 15 25 15 15 25 15 15 25 15 15 25 15 15 25 15 15 25 15 15 25 15 15 25 15 15 25 15 15 25 15 15 25 15 15 25 15 15 25 15 15 25 15 15 25 15 15 25 15 15 25 15 15 25 15 15 25 15 15 25 15 15 25 15 15 25 15 15 25 15 15 25 15 15 25 15 15 25 15 15 25 15 15 25 15 15 25 15 15 25 15 15 25 15 15 25 15 15 25 15 15 25 15 15 25 15 15 25 15 15 25 15 15 25 15 15 25 15 15 25 15 15 25 15 15 25 15 15 25 15 15 25 15 15 25 15 15 25 15 15 25 15 15 25 15 15 25 15 15 25 15 15 25 15 15 25 15 15 25 15 15 25 15 15 25 15 15 25 15 15 25 255 0 0 15 15 25 15 15 25 15 15 25 15 15 25 15 15 25 15 15 25 15 15 25 15 15 25 15 15 25 15 15 25 15 15 25 15 15 25 15 15 25 15 15 25 15 15 25 15 15 25 15 15 25 15 15 25 15 15 25 15 15 25 15 15 25 15 15 25 15 15 25 15 15 25 15 15 25 15 15 25 15 15 25 15 15 25 15 15 25 15 15 25 15 15 25 15 15 25 15 15 25 15 15 25 0 255 0 15 15 25 15 15 25 15 15 25 15 15 25 15 15 25 15 15 25 15 15 25 15 15 25 15 15 25 15 15 25 15 15 25 15 15 25 15 15 25 15 15 25 15 15 25 15 15 25 15 15 25 15 15 25 15 15 25 15 15 25 15 15 25 15 15 25 15 15 25 15 15 25 15 15 25 15 15 25 15 15 25 15 15 25 255 0 255 255 0 255 255 0 255 255 0 255 255 0 255 255 0 255 255 0 255 255 0 255 255 0 255 255 0 255 255 0 255 255 0 255 255 0 255 15 15 25 15 15 25 15 15 25 15 15 25 15 15 25 15 15 25 15 15 25 15 15 25 15 15 25 15 15 25 15 15 25 15 15 25 15 15 25 15 15 25 15 15 25 15 15 25 15 15 25 15 15 25 15 15 25 15 15 25 15 15 25 15 15 25 15 15 25 15 15 25 15 15 25 15 15 25 15 15 25 15 15 25 15 15 25 15 15 25 15 15 25 15 15 25 15 15 25 15 15 25 15 15 25 15 15 25 15 15 25 15 15 25 15 15 25 15 15 25 15 15 25 15 15 25 15 15 25 15 15 25 15 15 25 15 15 25 15 15 25 15 15 25 15 15 25 15 15 25 15 15 25 15 15 25 15 15 25 15 15 25 15 15 25 15 15 25 15 15 25 15 15 25 15 15 25 15 15 25 15 15 25 15 15 25 15 15 25 15 15 25 15 15 25 15 15 25 15 15 25 15 15 25 15 15 25 
15 15 25 15 15 25 15 15 25 15 15 25 15 15 25 15 15 25 15 15 25 15 15 25 15 15 25 15 15 25 15 15 25 15 15 25 15 15 25 15 15 25 15 15 25 15 15 25 15 15 25 15 15 25 15 15 25 15 15 25 15 15 25 15 15 25 15 15 25 15 15 25 15 15 25 15 15 25 15 15 25 15 15 25 15 15 25 15 15 25 15 15 25 15 15 25 15 15 25 15 15 25 15 15 25 15 15 25 15 15 25 15 15 25 15 15 25 15 15 25 15 15 25 15 15 25 15 15 25 15 15 25 15 15 25 15 15 25 15 15 25 15 15 25 15 15 25 15 15 25 15 15 25 15 15 25 15 15 25 15 15 25 15 15 25 15 15 25 15 15 25 15 15 25 15 15 25 15 15 25 15 15 25 15 15 25 15 15 25 15 15 25 15 15 25 15 15 25 15 15 25 15 15 25 15 15 25 15 15 25 15 15 25 15 15 25 15 15 25 15 15 25 15 15 25 15 15 25 15 15 25 15 15 25 15 15 25 15 15 25 15 15 25 15 15 25 15 15 25 15 15 25 15 15 25 15 15 25 15 15 25 15 15 25 15 15 25 15 15 25 15 15 25 15 15 25 15 15 25 15 15 25 15 15 25 15 15 25 15 15 25 15 15 25 15 15 25 15 15 25 15 15 25 15 15 25 15 15 25 15 15 25 15 15 25 15 15 25 15 15 25 15 15 25 15 15 25 15 15 25 15 15 25 255 0 0 15 15 25 15 15 25 15 15 25 15 15 25 15 15 25 15 15 25 15 15 25 15 15 25 15 15 25 15 15 25 15 15 25 15 15 25 15 15 25 15 15 25 15 15 25 15 15 25 15 15 25 15 15 25 15 15 25 15 15 25 15 15 25 15 15 25 15 15 25 15 15 25 15 15 25 15 15 25 15 15 25 15 15 25 15 15 25 15 15 25 15 15 25 15 15 25 0 255 0 15 15 25 15 15 25 15 15 25 15 15 25 15 15 25 15 15 25 15 15 25 15 15 25 15 15 25 15 15 25 15 15 25 15 15 25 15 15 25 15 15 25 15 15 25 15 15 25 15 15 25 15 15 25 15 15 25 15 15 25 15 15 25 15 15 25 15 15 25 15 15 25 15 15 25 15 15 25 15 15 25 15 15 25 15 15 25 15 15 25 15 15 25 15 15 25 15 15 25 15 15 25 15 15 25 15 15 25 15 15 25 15 15 25 15 15 25 15 15 25 15 15 25 15 15 25 15 15 25 15 15 25 15 15 25 15 15 25 15 15 25 15 15 25 15 15 25 15 15 25 15 15 25 15 15 25 15 15 25 15 15 25 15 15 25 15 15 25 15 15 25 15 15 25 15 15 25 15 15 25 15 15 25 15 15 25 15 15 25 15 15 25 15 15 25 15 15 25 15 15 25 15 15 25 15 15 25 15 15 25 15 15 25 15 15 25 15 15 25 15 15 25 15 15 25 15 15 25 15 15 25 15 15 25 15 15 25 15 15 25 15 15 25 15 15 25 15 15 25 15 15 25 15 15 25 15 15 25 15 15 25 15 15 25 15 15 25 15 15 25 15 15 25 15 15 25 15 15 25 15 15 25 15 15 25 15 15 25 15 15 25 15 15 25 15 15 25 15 15 25 15 15 25 15 15 25 15 15 25 15 15 25 15 15 25 15 15 25 15 15 25 15 15 25 15 15 25 15 15 25 15 15 25 
15 15 25 15 15 25 15 15 25 15 15 25 15 15 25 15 15 25 15 15 25 15 15 25 15 15 25 15 15 25 15 15 25 15 15 25 15 15 25 15 15 25 15 15 25 15 15 25 15 15 25 15 15 25 15 15 25 15 15 25 15 15 25 15 15 25 15 15 25 15 15 25 15 15 25 15 15 25 15 15 25 15 15 25 15 15 25 15 15 25 15 15 25 15 15 25 15 15 25 15 15 25 15 15 25 15 15 25 15 15 25 15 15 25 15 15 25 15 15 25 15 15 25 15 15 25 15 15 25 15 15 25 15 15 25 15 15 25 15 15 25 15 15 25 15 15 25 15 15 25 15 15 25 15 15 25 15 15 25 15 15 25 15 15 25 15 15 25 15 15 25 15 15 25 15 15 25 15 15 25 15 15 25 15 15 25 15 15 25 15 15 25 15 15 25 15 15 25 15 15 25 15 15 25 15 15 25 15 15 25 15 15 25 15 15 25 15 15 25 15 15 25 15 15 25 15 15 25 15 15 25 15 15 25 15 15 25 15 15 25 15 15 25 15 15 25 15 15 25 15 15 25 15 15 25 15 15 25 15 15 25 15 15 25 15 15 25 15 15 25 15 15 25 15 15 25 15 15 25 15 15 25 15 15 25 15 15 25 15 15 25 15 15 25 15 15 25 15 15 25 15 15 25 15 15 25 15 15 25 15 15 25 15 15 25 15 15 25 15 15 25 15 15 25 15 15 25 15 15 25 15 15 25 15 15 25 255 0 0 15 15 25 15 15 25 15 15 25 15 15 25 15 15 25 15 15 25 15 15 25 15 15 25 15 15 25 15 15 25 15 15 25 15 15 25 15 15 25 15 15 25 15 15 25 15 15 25 15 15 25 15 15 25 15 15 25 15 15 25 15 15 25 15 15 25 15 15 25 15 15 25 15 15 25 15 15 25 15 15 25 15 15 25 15 15 25 15 15 25 0 255 0 15 15 25 15 15 25 15 15 25 15 15 25 15 15 25 15 15 25 15 15 25 15 15 25 15 15 25 15 15 25 15 15 25 15 15 25 15 15 25 15 15 25 15 15 25 15 15 25 15 15 25 15 15 25 15 15 25 15 15 25 15 15 25 15 15 25 15 15 25 15 15 25 15 15 25 15 15 25 15 15 25 15 15 25 15 15 25 15 15 25 15 15 25 15 15 25 15 15 25 15 15 25 15 15 25 15 15 25 15 15 25 15 15 25 15 15 25 15 15 25 15 15 25 15 15 25 15 15 25 15 15 25 15 15 25 15 15 25 15 15 25 15 15 25 15 15 25 15 15 25 15 15 25 15 15 25 15 15 25 15 15 25 15 15 25 15 15 25 15 15 25 15 15 25 15 15 25 15 15 25 15 15 25 15 15 25 15 15 25 15 15 25 15 15 25 15 15 25 15 15 25 15 15 25 15 15 25 15 15 25 15 15 25 15 15 25 15 15 25 15 15 25 15 15 25 15 15 25 15 15 25 15 15 25 15 15 25 15 15 25 15 15 25 15 15 25 15 15 25 15 15 25 15 15 25 15 15 25 15 15 25 15 15 25 15 15 25 15 15 25 15 15 25 15 15 25 15 15 25 15 15 25 15 15 25 15 15 25 15 15 25 15 15 25 15 15 25 15 15 25 15 15 25 15 15 25 15 15 25 15 15 25 15 15 25 15 15 25 15 15 25 15 15 25 15 15 25 15 15 25 15 15 25 15 15 25 
15 15 25 15 15 25 15 15 25 15 15 25 15 15 25 15 15 25 15 15 25 15 15 25 15 15 25 15 15 25 15 15 25 15 15 25 15 15 25 15 15 25 15 15 25 15 15 25 15 15 25 15 15 25 15 15 25 15 15 25 15 15 25 15 15 25 15 15 25 15 15 25 15 15 25 15 15 25 15 15 25 15 15 25 15 15 25 15 15 25 15 15 25 15 15 25 15 15 25 15 15 25 15 15 25 15 15 25 15 15 25 15 15 25 15 15 25 15 15 25 15 15 25 15 15 25 15 15 25 15 15 25 15 15 25 15 15 25 15 15 25 15 15 25 15 15 25 15 15 25 15 15 25 15 15 25 15 15 25 15 15 25 15 15 25 15 15 25 15 15 25 15 15 25 15 15 25 15 15 25 15 15 25 15 15 25 15 15 25 15 15 25 15 15 25 15 15 25 15 15 25 15 15 25 15 15 25 15 15 25 15 15 25 15 15 25 15 15 25 15 15 25 15 15 25 15 15 25 15 15 25 15 15 25 15 15 25 15 15 25 15 15 25 15 15 25 15 15 25 15 15 25 15 15 25 15 15 25 15 15 25 15 15 25 15 15 25 15 15 25 15 15 25 15 15 25 15 15 25 15 15 25 15 15 25 15 15 25 15 15 25 15 15 25 15 15 25 15 15 25 15 15 25 15 15 25 15 15 25 15 15 25 15 15 25 15 15 25 15 15 25 15 15 25 15 15 25 15 15 25 15 15 25 15 15 25 15 15 25 255 0 0 15 15 25 15 15 25 15 15 25 15 15 25 15 15 25 15 15 25 15 15 25 15 15 25 15 15 25 15 15 25 15 15 25 15 15 25 15 15 25 15 15 25 15 15 25 15 15 25 15 15 25 15 15 25 15 15 25 15 15 25 15 15 25 15 15 25 15 15 25 15 15 25 15 15 25 15 15 25 15 15 25 15 15 25 0 255 0 15 15 25 15 15 25 15 15 25 15 15 25 15 15 25 15 15 25 15 15 25 15 15 25 15 15 25 15 15 25 15 15 25 15 15 25 15 15 25 15 15 25 15 15 25 15 15 25 15 15 25 15 15 25 15 15 25 15 15 25 15 15 25 15 15 25 15 15 25 15 15 25 15 15 25 15 15 25 15 15 25 15 15 25 15 15 25 15 15 25 15 15 25 15 15 25 15 15 25 15 15 25 15 15 25 15 15 25 15 15 25 15 15 25 15 15 25 15 15 25 15 15 25 15 15 25 15 15 25 15 15 25 15 15 25 15 15 25 15 15 25 15 15 25 15 15 25 15 15 25 15 15 25 15 15 25 15 15 25 15 15 25 15 15 25 15 15 25 15 15 25 15 15 25 15 15 25 15 15 25 15 15 25 15 15 25 15 15 25 15 15 25 15 15 25 15 15 25 15 15 25 15 15 25 15 15 25 15 15 25 15 15 25 15 15 25 15 15 25 15 15 25 15 15 25 15 15 25 15 15 25 15 15 25 15 15 25 15 15 25 15 15 25 15 15 25 15 15 25 15 15 25 15 15 25 15 15 25 15 15 25 15 15 25 15 15 25 15 15 25 15 15 25 15 15 25 15 15 25 15 15 25 15 15 25 15 15 25 15 15 25 15 15 25 15 15 25 15 15 25 15 15 25 15 15 25 15 15 25 15 15 25 15 15 25 15 15 25 15 15 25 15 15 25 15 15 25 15 15 25 15 15 25 15 15 25 15 15 25 
15 15 25 15 15 25 15 15 25 15 15 25 15 15 25 15 15 25 15 15 25 15 15 25 15 15 25 15 15 25 15 15 25 15 15 25 15 15 25 15 15 25 15 15 25 15 15 25 15 15 25 15 15 25 15 15 25 15 15 25 15 15 25 15 15 25 15 15 25 15 15 25 15 15 25 15 15 25 15 15 25 15 15 25 15 15 25 15 15 25 15 15 25 15 15 25 15 15 25 15 15 25 15 15 25 15 15 25 15 15 25 15 15 25 15 15 25 15 15 25 15 15 25 15 15 25 15 15 25 15 15 25 15 15 25 15 15 25 15 15 25 15 15 25 15 15 25 15 15 25 15 15 25 15 15 25 15 15 25 15 15 25 15 15 25 15 15 25 15 15 25 15 15 25 15 15 25 15 15 25 15 15 25 15 15 25 15 15 25 15 15 25 15 15 25 15 15 25 15 15 25 15 15 25 15 15 25 15 15 25 15 15 25 15 15 25 15 15 25 15 15 25 15 15 25 15 15 25 15 15 25 15 15 25 15 15 25 15 15 25 15 15 25 15 15 25 15 15 25 15 15 25 15 15 25 15 15 25 15 15 25 15 15 25 15 15 25 15 15 25 15 15 25 15 15 25 15 15 25 15 15 25 15 15 25 15 15 25 15 15 25 15 15 25 15 15 25 15 15 25 15 15 25 15 15 25 15 15 25 15 15 25 15 15 25 15 15 25 15 15 25 15 15 25 15 15 25 15 15 25 15 15 25 15 15 25 15 15 25 15 15 25 255 0 0 15 15 25 15 15 25 15 15 25 15 15 25 15 15 25 15 15 25 15 15 25 15 15 25 15 15 25 15 15 25 15 15 25 15 15 25 15 15 25 15 15 25 15 15 25 15 15 25 15 15 25 15 15 25 15 15 25 15 15 25 15 15 25 15 15 25 15 15 25 15 15 25 15 15 25 15 15 25 0 255 0 15 15 25 15 15 25 15 15 25 15 15 25 15 15 25 15 15 25 15 15 25 15 15 25 15 15 25 15 15 25 15 15 25 15 15 25 15 15 25 15 15 25 15 15 25 15 15 25 15 15 25 15 15 25 15 15 25 15 15 25 15 15 25 15 15 25 15 15 25 15 15 25 15 15 25 15 15 25 15 15 25 15 15 25 15 15 25 15 15 25 15 15 25 15 15 25 15 15 25 15 15 25 15 15 25 15 15 25 15 15 25 15 15 25 15 15 25 15 15 25 15 15 25 15 15 25 15 15 25 15 15 25 15 15 25 15 15 25 15 15 25 15 15 25 15 15 25 15 15 25 15 15 25 15 15 25 15 15 25 15 15 25 15 15 25 15 15 25 15 15 25 15 15 25 15 15 25 15 15 25 15 15 25 15 15 25 15 15 25 15 15 25 15 15 25 15 15 25 15 15 25 15 15 25 15 15 25 15 15 25 15 15 25 15 15 25 15 15 25 15 15 25 15 15 25 15 15 25 15 15 25 15 15 25 15 15 25 15 15 25 15 15 25 15 15 25 15 15 25 15 15 25 15 15 25 15 15 25 15 15 25 15 15 25 15 15 25 15 15 25 15 15 25 15 15 25 15 15 25 15 15 25 15 15 25 15 15 25 15 15 25 15 15 25 15 15 25 15 15 25 15 15 25 15 15 25 15 15 25 15 15 25 15 15 25 15 15 25 15 15 25 15 15 25 15 15 25 15 15 25 15 15 25 15 15 25 15 15 25 15 15 25 
15 15 25 15 15 25 15 15 25 15 15 25 15 15 25 15 15 25 15 15 25 15 15 25 15 15 25 15 15 25 15 15 25 15 15 25 15 15 25 15 15 25 15 15 25 15 15 25 15 15 25 15 15 25 15 15 25 15 15 25 15 15 25 15 15 25 15 15 25 15 15 25 15 15 25 15 15 25 15 15 25 15 15 25 15 15 25 15 15 25 15 15 25 15 15 25 15 15 25 15 15 25 15 15 25 15 15 25 15 15 25 15 15 25 15 15 25 15 15 25 15 15 25 15 15 25 15 15 25 15 15 25 15 15 25 15 15 25 15 15 25 15 15 25 15 15 25 15 15 25 15 15 25 15 15 25 15 15 25 15 15 25 15 15 25 15 15 25 15 15 25 15 15 25 15 15 25 15 15 25 15 15 25 15 15 25 15 15 25 15 15 25 15 15 25 15 15 25 15 15 25 15 15 25 15 15 25 15 15 25 15 15 25 15 15 25 15 15 25 15 15 25 15 15 25 15 15 25 15 15 25 15 15 25 15 15 25 15 15 25 15 15 25 15 15 25 15 15 25 15 15 25 15 15 25 15 15 25 15 15 25 15 15 25 15 15 25 15 15 25 15 15 25 15 15 25 15 15 25 15 15 25 15 15 25 15 15 25 15 15 25 15 15 25 15 15 25 15 15 25 15 15 25 15 15 25 15 15 25 15 15 25 15 15 25 15 15 25 15 15 25 15 15 25 15 15 25 15 15 25 15 15 25 15 15 25 15 15 25 15 15 25 15 15 25 255 0 0 15 15 25 15 15 25 15 15 25 15 15 25 15 15 25 15 15 25 15 15 25 15 15 25 15 15 25 15 15 25 15 15 25 15 15 25 15 15 25 15 15 25 15 15 25 15 15 25 15 15 25 15 15 25 15 15 25 15 15 25 15 15 25 15 15 25 15 15 25 15 15 25 0 255 0 15 15 25 15 15 25 15 15 25 15 15 25 15 15 25 15 15 25 15 15 25 15 15 25 15 15 25 15 15 25 15 15 25 15 15 25 15 15 25 15 15 25 15 15 25 15 15 25 15 15 25 15 15 25 15 15 25 15 15 25 15 15 25 15 15 25 15 15 25 15 15 25 15 15 25 15 15 25 15 15 25 15 15 25 15 15 25 15 15 25 15 15 25 15 15 25 15 15 25 15 15 25 15 15 25 15 15 25 15 15 25 15 15 25 15 15 25 15 15 25 15 15 25 15 15 25 15 15 25 15 15 25 15 15 25 15 15 25 15 15 25 15 15 25 15 15 25 15 15 25 15 15 25 15 15 25 15 15 25 15 15 25 15 15 25 15 15 25 15 15 25 15 15 25 15 15 25 15 15 25 15 15 25 15 15 25 15 15 25 15 15 25 15 15 25 15 15 25 15 15 25 15 15 25 15 15 25 15 15 25 15 15 25 15 15 25 15 15 25 15 15 25 15 15 25 15 15 25 15 15 25 15 15 25 15 15 25 15 15 25 15 15 25 15 15 25 15 15 25 15 15 25 15 15 25 15 15 25 15 15 25 15 15 25 15 15 25 15 15 25 15 15 25 15 15 25 15 15 25 15 15 25 15 15 25 15 15 25 15 15 25 15 15 25 15 15 25 15 15 25 15 15 25 15 15 25 15 15 25 15 15 25 15 15 25 15 15 25 15 15 25 15 15 25 15 15 25 15 15 25 15 15 25 15 15 25 15 15 25 15 15 25 15 15 25 
15 15 25 15 15 25 15 15 25 15 15 25 15 15 25 15 15 25 15 15 25 15 15 25 15 15 25 15 15 25 15 15 25 15 15 25 15 15 25 15 15 25 15 15 25 15 15 25 15 15 25 15 15 25 15 15 25 15 15 25 15 15 25 15 15 25 15 15 25 15 15 25 15 15 25 15 15 25 15 15 25 15 15 25 15 15 25 15 15 25 15 15 25 15 15 25 15 15 25 15 15 25 15 15 25 15 15 25 15 15 25 15 15 25 15 15 25 15 15 25 15 15 25 15 15 25 15 15 25 15 15 25 15 15 25 15 15 25 15 15 25 15 15 25 15 15 25 15 15 25 15 15 25 15 15 25 15 15 25 15 15 25 15 15 25 15 15 25 15 15 25 15 15 25 15 15 25 15 15 25 15 15 25 15 15 25 15 15 25 15 15 25 15 15 25 15 15 25 15 15 25 15 15 25 15 15 25 15 15 25 15 15 25 15 15 25 15 15 25 15 15 25 15 15 25 15 15 25 15 15 25 15 15 25 15 15 25 15 15 25 15 15 25 15 15 25 15 15 25 15 15 25 15 15 25 15 15 25 15 15 25 15 15 25 15 15 25 15 15 25 15 15 25 15 15 25 15 15 25 15 15 25 15 15 25 15 15 25 15 15 25 15 15 25 15 15 25 15 15 25 15 15 25 15 15 25 15 15 25 15 15 25 15 15 25 15 15 25 15 15 25 15 15 25 15 15 25 15 15 25 15 15 25 15 15 25 15 15 25 15 15 25 15 15 25 15 15 25 255 0 0 15 15 25 15 15 25 15 15 25 15 15 25 15 15 25 15 15 25 15 15 25 15 15 25 15 15 25 15 15 25 15 15 25 15 15 25 15 15 25 15 15 25 15 15 25 15 15 25 15 15 25 15 15 25 15 15 25 15 15 25 15 15 25 15 15 25 0 255 0 15 15 25 15 15 25 15 15 25 15 15 25 15 15 25 15 15 25 15 15 25 15 15 25 15 15 25 15 15 25 15 15 25 15 15 25 15 15 25 15 15 25 15 15 25 15 15 25 15 15 25 15 15 25 15 15 25 15 15 25 15 15 25 15 15 25 15 15 25 15 15 25 15 15 25 15 15 25 15 15 25 15 15 25 15 15 25 15 15 25 15 15 25 15 15 25 15 15 25 15 15 25 15 15 25 15 15 25 15 15 25 15 15 25 15 15 25 15 15 25 15 15 25 15 15 25 15 15 25 15 15 25 15 15 25 15 15 25 15 15 25 15 15 25 15 15 25 15 15 25 15 15 25 15 15 25 15 15 25 15 15 25 15 15 25 15 15 25 15 15 25 15 15 25 15 15 25 15 15 25 15 15 25 15 15 25 15 15 25 15 15 25 15 15 25 15 15 25 15 15 25 15 15 25 15 15 25 15 15 25 15 15 25 15 15 25 15 15 25 15 15 25 15 15 25 15 15 25 15 15 25 15 15 25 15 15 25 15 15 25 15 15 25 15 15 25 15 15 25 15 15 25 15 15 25 15 15 25 15 15 25 15 15 25 15 15 25 15 15 25 15 15 25 15 15 25 15 15 25 15 15 25 15 15 25 15 15 25 15 15 25 15 15 25 15 15 25 15 15 25 15 15 25 15 15 25 15 15 25 15 15 25 15 15 25 15 15 25 15 15 25 15 15 25 15 15 25 15 15 25 15 15 25 15 15 25 15 15 25 15 15 25 15 15 25 15 15 25 
15 15 25 15 15 25 15 15 25 15 15 25 15 15 25 15 15 25 15 15 25 15 15 25 15 15 25 15 15 25 15 15 25 15 15 25 15 15 25 15 15 25 15 15 25 15 15 25 15 15 25 15 15 25 15 15 25 15 15 25 15 15 25 15 15 25 15 15 25 15 15 25 15 15 25 15 15 25 15 15 25 15 15 25 15 15 25 15 15 25 15 15 25 15 15 25 15 15 25 15 15 25 15 15 25 15 15 25 15 15 25 15 15 25 15 15 25 15 15 25 15 15 25 15 15 25 15 15 25 15 15 25 15 15 25 15 15 25 15 15 25 15 15 25 15 15 25 15 15 25 15 15 25 15 15 25 15 15 25 15 15 25 15 15 25 15 15 25 15 15 25 15 15 25 15 15 25 15 15 25 15 15 25 15 15 25 15 15 25 15 15 25 15 15 25 15 15 25 15 15 25 15 15 25 15 15 25 15 15 25 15 15 25 15 15 25 15 15 25 15 15 25 15 15 25 15 15 25 15 15 25 15 15 25 15 15 25 15 15 25 15 15 25 15 15 25 15 15 25 15 15 25 15 15 25 15 15 25 15 15 25 15 15 25 15 15 25 15 15 25 15 15 25 15 15 25 15 15 25 15 15 25 15 15 25 15 15 25 15 15 25 15 15 25 15 15 25 15 15 25 15 15 25 15 15 25 15 15 25 15 15 25 15 15 25 15 15 25 15 15 25 15 15 25 15 15 25 15 15 25 15 15 25 15 15 25 15 15 25 15 15 25 15 15 25 15 15 25 15 15 25 255 0 0 15 15 25 15 15 25 15 15 25 15 15 25 15 15 25 15 15 25 15 15 25 15 15 25 15 15 25 15 15 25 15 15 25 15 15 25 15 15 25 15 15 25 15 15 25 15 15 25 15 15 25 15 15 25 15 15 25 15 15 25 0 255 0 15 15 25 15 15 25 15 15 25 15 15 25 15 15 25 15 15 25 15 15 25 15 15 25 15 15 25 15 15 25 15 15 25 15 15 25 15 15 25 15 15 25 15 15 25 15 15 25 15 15 25 15 15 25 15 15 25 15 15 25 15 15 25 15 15 25 15 15 25 15 15 25 15 15 25 15 15 25 15 15 25 15 15 25 15 15 25 15 15 25 15 15 25 15 15 25 15 15 25 15 15 25 15 15 25 15 15 25 15 15 25 15 15 25 15 15 25 15 15 25 15 15 25 15 15 25 15 15 25 15 15 25 15 15 25 15 15 25 15 15 25 15 15 25 15 15 25 15 15 25 15 15 25 15 15 25 15 15 25 15 15 25 15 15 25 15 15 25 15 15 25 15 15 25 15 15 25 15 15 25 15 15 25 15 15 25 15 15 25 15 15 25 15 15 25 15 15 25 15 15 25 15 15 25 15 15 25 15 15 25 15 15 25 15 15 25 15 15 25 15 15 25 15 15 25 15 15 25 15 15 25 15 15 25 15 15 25 15 15 25 15 15 25 15 15 25 15 15 25 15 15 25 15 15 25 15 15 25 15 15 25 15 15 25 15 15 25 15 15 25 15 15 25 15 15 25 15 15 25 15 15 25 15 15 25 15 15 25 15 15 25 15 15 25 15 15 25 15 15 25 15 15 25 15 15 25 15 15 25 15 15 25 15 15 25 15 15 25 15 15 25 15 15 25 15 15 25 15 15 25 15 15 25 15 15 25 15 15 25 15 15 25 15 15 25 15 15 25 15 15 25 
15 15 25 15 15 25 15 15 25 15 15 25 15 15 25 15 15 25 15 15 25 15 15 25 15 15 25 15 15 25 15 15 25 15 15 25 15 15 25 15 15 25 15 15 25 15 15 25 15 15 25 15 15 25 15 15 25 15 15 25 15 15 25 15 15 25 15 15 25 15 15 25 15 15 25 15 15 25 15 15 25 15 15 25 15 15 25 15 15 25 15 15 25 15 15 25 15 15 25 15 15 25 15 15 25 15 15 25 15 15 25 15 15 25 15 15 25 15 15 25 15 15 25 15 15 25 15 15 25 15 15 25 15 15 25 15 15 25 15 15 25 15 15 25 15 15 25 15 15 25 15 15 25 15 15 25 15 15 25 15 15 25 15 15 25 15 15 25 15 15 25 15 15 25 15 15 25 15 15 25 15 15 25 15 15 25 15 15 25 15 15 25 15 15 25 15 15 25 15 15 25 15 15 25 15 15 25 15 15 25 15 15 25 15 15 25 15 15 25 15 15 25 15 15 25 15 15 25 15 15 25 15 15 25 15 15 25 15 15 25 15 15 25 15 15 25 15 15 25 15 15 25 15 15 25 15 15 25 15 15 25 15 15 25 15 15 25 15 15 25 15 15 25 15 15 25 15 15 25 15 15 25 15 15 25 15 15 25 15 15 25 15 15 25 15 15 25 15 15 25 15 15 25 15 15 25 15 15 25 15 15 25 15 15 25 15 15 25 15 15 25 15 15 25 15 15 25 15 15 25 15 15 25 15 15 25 15 15 25 15 15 25 15 15 25 15 15 25 15 15 25 15 15 25 255 0 0 15 15 25 15 15 25 15 15 25 15 15 25 15 15 25 15 15 25 15 15 25 15 15 25 15 15 25 15 15 25 15 15 25 15 15 25 15 15 25 15 15 25 15 15 25 15 15 25 15 15 25 15 15 25 0 255 0 15 15 25 15 15 25 15 15 25 15 15 25 15 15 25 15 15 25 15 15 25 15 15 25 15 15 25 15 15 25 15 15 25 15 15 25 15 15 25 15 15 25 15 15 25 15 15 25 15 15 25 15 15 25 15 15 25 15 15 25 15 15 25 15 15 25 15 15 25 15 15 25 15 15 25 15 15 25 15 15 25 15 15 25 15 15 25 15 15 25 15 15 25 15 15 25 15 15 25 15 15 25 15 15 25 15 15 25 15 15 25 15 15 25 15 15 25 15 15 25 15 15 25 15 15 25 15 15 25 15 15 25 15 15 25 15 15 25 15 15 25 15 15 25 15 15 25 15 15 25 15 15 25 15 15 25 15 15 25 15 15 25 15 15 25 15 15 25 15 15 25 15 15 25 15 15 25 15 15 25 15 15 25 15 15 25 15 15 25 15 15 25 15 15 25 15 15 25 15 15 25 15 15 25 15 15 25 15 15 25 15 15 25 15 15 25 15 15 25 15 15 25 15 15 25 15 15 25 15 15 25 15 15 25 15 15 25 15 15 25 15 15 25 15 15 25 15 15 25 15 15 25 15 15 25 15 15 25 15 15 25 15 15 25 15 15 25 15 15 25 15 15 25 15 15 25 15 15 25 15 15 25 15 15 25 15 15 25 15 15 25 15 15 25 15 15 25 15 15 25 15 15 25 15 15 25 15 15 25 15 15 25 15 15 25 15 15 25 15 15 25 15 15 25 15 15 25 15 15 25 15 15 25 15 15 25 15 15 25 15 15 25 15 15 25 15 15 25 15 15 25 15 15 25 
15 15 25 15 15 25 15 15 25 15 15 25 15 15 25 15 15 25 15 15 25 15 15 25 15 15 25 15 15 25 15 15 25 15 15 25 15 15 25 15 15 25 15 15 25 15 15 25 15 15 25 15 15 25 15 15 25 15 15 25 15 15 25 15 15 25 15 15 25 15 15 25 15 15 25 15 15 25 15 15 25 15 15 25 15 15 25 15 15 25 15 15 25 15 15 25 15 15 25 15 15 25 15 15 25 15 15 25 15 15 25 15 15 25 15 15 25 15 15 25 15 15 25 15 15 25 15 15 25 15 15 25 15 15 25 15 15 25 15 15 25 15 15 25 15 15 25 15 15 25 15 15 25 15 15 25 15 15 25 15 15 25 15 15 25 15 15 25 15 15 25 15 15 25 15 15 25 15 15 25 15 15 25 15 15 25 15 15 25 15 15 25 15 15 25 15 15 25 15 15 25 15 15 25 15 15 25 15 15 25 15 15 25 15 15 25 15 15 25 15 15 25 15 15 25 15 15 25 15 15 25 15 15 25 15 15 25 15 15 25 15 15 25 15 15 25 15 15 25 15 15 25 15 15 25 15 15 25 15 15 25 15 15 25 15 15 25 15 15 25 15 15 25 15 15 25 15 15 25 15 15 25 15 15 25 15 15 25 15 15 25 15 15 25 15 15 25 15 15 25 15 15 25 15 15 25 15 15 25 15 15 25 15 15 25 15 15 25 15 15 25 15 15 25 15 15 25 15 15 25 15 15 25 15 15 25 15 15 25 15 15 25 15 15 25 15 15 25 15 15 25 15 15 25 15 15 25 255 0 0 15 15 25 15 15 25 15 15 25 15 15 25 15 15 25 15 15 25 15 15 25 15 15 25 15 15 25 15 15 25 15 15 25 15 15 25 15 15 25 15 15 25 15 15 25 15 15 25 0 255 0 15 15 25 15 15 25 15 15 25 15 15 25 15 15 25 15 15 25 15 15 25 15 15 25 15 15 25 15 15 25 15 15 25 15 15 25 15 15 25 15 15 25 15 15 25 15 15 25 15 15 25 15 15 25 15 15 25 15 15 25 15 15 25 15 15 25 15 15 25 15 15 25 15 15 25 15 15 25 15 15 25 15 15 25 15 15 25 15 15 25 15 15 25 15 15 25 15 15 25 15 15 25 15 15 25 15 15 25 15 15 25 15 15 25 15 15 25 15 15 25 15 15 25 15 15 25 15 15 25 15 15 25 15 15 25 15 15 25 15 15 25 15 15 25 15 15 25 15 15 25 15 15 25 15 15 25 15 15 25 15 15 25 15 15 25 15 15 25 15 15 25 15 15 25 15 15 25 15 15 25 15 15 25 15 15 25 15 15 25 15 15 25 15 15 25 15 15 25 15 15 25 15 15 25 15 15 25 15 15 25 15 15 25 15 15 25 15 15 25 15 15 25 15 15 25 15 15 25 15 15 25 15 15 25 15 15 25 15 15 25 15 15 25 15 15 25 15 15 25 15 15 25 15 15 25 15 15 25 15 15 25 15 15 25 15 15 25 15 15 25 15 15 25 15 15 25 15 15 25 15 15 25 15 15 25 15 15 25 15 15 25 15 15 25 15 15 25 15 15 25 15 15 25 15 15 25 15 15 25 15 15 25 15 15 25 15 15 25 15 15 25 15 15 25 15 15 25 15 15 25 15 15 25 15 15 25 15 15 25 15 15 25 15 15 25 15 15 25 15 15 25 15 15 25 15 15 25 
15 15 25 15 15 25 15 15 25 15 15 25 15 15 25 15 15 25 15 15 25 15 15 25 15 15 25 15 15 25 15 15 25 15 15 25 15 15 25 15 15 25 15 15 25 15 15 25 15 15 25 15 15 25 15 15 25 15 15 25 15 15 25 15 15 25 15 15 25 15 15 25 15 15 25 15 15 25 15 15 25 15 15 25 15 15 25 15 15 25 15 15 25 15 15 25 15 15 25 15 15 25 15 15 25 15 15 25 15 15 25 15 15 25 15 15 25 15 15 25 15 15 25 15 15 25 15 15 25 15 15 25 15 15 25 15 15 25 15 15 25 15 15 25 15 15 25 15 15 25 15 15 25 15 15 25 15 15 25 15 15 25 15 15 25 15 15 25 15 15 25 15 15 25 15 15 25 15 15 25 15 15 25 15 15 25 15 15 25 15 15 25 15 15 25 15 15 25 15 15 25 15 15 25 15 15 25 15 15 25 15 15 25 15 15 25 15 15 25 15 15 25 15 15 25 15 15 25 15 15 25 15 15 25 15 15 25 15 15 25 15 15 25 15 15 25 15 15 25 15 15 25 15 15 25 15 15 25 15 15 25 15 15 25 15 15 25 15 15 25 15 15 25 15 15 25 15 15 25 15 15 25 15 15 25 15 15 25 15 15 25 15 15 25 15 15 25 15 15 25 15 15 25 15 15 25 15 15 25 15 15 25 15 15 25 15 15 25 15 15 25 15 15 25 15 15 25 15 15 25 15 15 25 15 15 25 15 15 25 15 15 25 15 15 25 15 15 25 15 15 25 15 15 25 15 15 25 15 15 25 255 0 0 15 15 25 15 15 25 15 15 25 15 15 25 15 15 25 15 15 25 15 15 25 15 15 25 15 15 25 15 15 25 15 15 25 15 15 25 15 15 25 15 15 25 0 255 0 15 15 25 15 15 25 15 15 25 15 15 25 15 15 25 15 15 25 15 15 25 15 15 25 15 15 25 15 15 25 15 15 25 15 15 25 15 15 25 15 15 25 15 15 25 15 15 25 15 15 25 15 15 25 15 15 25 15 15 25 15 15 25 15 15 25 15 15 25 15 15 25 15 15 25 15 15 25 15 15 25 15 15 25 15 15 25 15 15 25 15 15 25 15 15 25 15 15 25 15 15 25 15 15 25 15 15 25 15 15 25 15 15 25 15 15 25 15 15 25 15 15 25 15 15 25 15 15 25 15 15 25 15 15 25 15 15 25 15 15 25 15 15 25 15 15 25 15 15 25 15 15 25 15 15 25 15 15 25 15 15 25 15 15 25 15 15 25 15 15 25 15 15 25 15 15 25 15 15 25 15 15 25 15 15 25 15 15 25 15 15 25 15 15 25 15 15 25 15 15 25 15 15 25 15 15 25 15 15 25 15 15 25 15 15 25 15 15 25 15 15 25 15 15 25 15 15 25 15 15 25 15 15 25 15 15 25 15 15 25 15 15 25 15 15 25 15 15 25 15 15 25 15 15 25 15 15 25 15 15 25 15 15 25 15 15 25 15 15 25 15 15 25 15 15 25 15 15 25 15 15 25 15 15 25 15 15 25 15 15 25 15 15 25 15 15 25 15 15 25 15 15 25 15 15 25 15 15 25 15 15 25 15 15 25 15 15 25 15 15 25 15 15 25 15 15 25 15 15 25 15 15 25 15 15 25 15 15 25 15 15 25 15 15 25 15 15 25 15 15 25 15 15 25 15 15 25 15 15 25 
15 15 25 15 15 25 15 15 25 15 15 25 15 15 25 15 15 25 15 15 25 15 15 25 15 15 25 15 15 25 15 15 25 15 15 25 15 15 25 15 15 25 15 15 25 15 15 25 15 15 25 15 15 25 15 15 25 15 15 25 15 15 25 15 15 25 15 15 25 15 15 25 15 15 25 15 15 25 15 15 25 15 15 25 15 15 25 15 15 25 15 15 25 15 15 25 15 15 25 15 15 25 15 15 25 15 15 25 15 15 25 15 15 25 15 15 25 15 15 25 15 15 25 15 15 25 15 15 25 15 15 25 15 15 25 15 15 25 15 15 25 15 15 25 15 15 25 15 15 25 15 15 25 15 15 25 15 15 25 15 15 25 15 15 25 15 15 25 15 15 25 15 15 25 15 15 25 15 15 25 15 15 25 15 15 25 15 15 25 15 15 25 15 15 25 15 15 25 15 15 25 15 15 25 15 15 25 15 15 25 15 15 25 15 15 25 15 15 25 15 15 25 15 15 25 15 15 25 15 15 25 15 15 25 15 15 25 15 15 25 15 15 25 15 15 25 15 15 25 15 15 25 15 15 25 15 15 25 15 15 25 15 15 25 15 15 25 15 15 25 15 15 25 15 15 25 15 15 25 15 15 25 15 15 25 15 15 25 15 15 25 15 15 25 15 15 25 15 15 25 15 15 25 15 15 25 15 15 25 15 15 25 15 15 25 15 15 25 15 15 25 15 15 25 15 15 25 15 15 25 15 15 25 15 15 25 15 15 25 15 15 25 15 15 25 15 15 25 15 15 25 15 15 25 15 15 25 15 15 25 15 15 25 255 0 0 15 15 25 15 15 25 15 15 25 15 15 25 15 15 25 15 15 25 15 15 25 15 15 25 15 15 25 15 15 25 15 15 25 15 15 25 0 255 0 15 15 25 15 15 25 15 15 25 15 15 25 15 15 25 15 15 25 15 15 25 15 15 25 15 15 25 15 15 25 15 15 25 15 15 25 15 15 25 15 15 25 15 15 25 15 15 25 15 15 25 15 15 25 15 15 25 15 15 25 15 15 25 15 15 25 15 15 25 15 15 25 15 15 25 15 15 25 15 15 25 15 15 25 15 15 25 15 15 25 15 15 25 15 15 25 15 15 25 15 15 25 15 15 25 15 15 25 15 15 25 15 15 25 15 15 25 15 15 25 15 15 25 15 15 25 15 15 25 15 15 25 15 15 25 15 15 25 15 15 25 15 15 25 15 15 25 15 15 25 15 15 25 15 15 25 15 15 25 15 15 25 15 15 25 15 15 25 15 15 25 15 15 25 15 15 25 15 15 25 15 15 25 15 15 25 15 15 25 15 15 25 15 15 25 15 15 25 15 15 25 15 15 25 15 15 25 15 15 25 15 15 25 15 15 25 15 15 25 15 15 25 15 15 25 15 15 25 15 15 25 15 15 25 15 15 25 15 15 25 15 15 25 15 15 25 15 15 25 15 15 25 15 15 25 15 15 25 15 15 25 15 15 25 15 15 25 15 15 25 15 15 25 15 15 25 15 15 25 15 15 25 15 15 25 15 15 25 15 15 25 15 15 25 15 15 25 15 15 25 15 15 25 15 15 25 15 15 25 15 15 25 15 15 25 15 15 25 15 15 25 15 15 25 15 15 25 15 15 25 15 15 25 15 15 25 15 15 25 15 15 25 15 15 25 15 15 25 15 15 25 15 15 25 15 15 25 15 15 25 15 15 25 
15 15 25 15 15 25 15 15 25 15 15 25 15 15 25 15 15 25 15 15 25 15 15 25 15 15 25 15 15 25 15 15 25 15 15 25 15 15 25 15 15 25 15 15 25 15 15 25 15 15 25 15 15 25 15 15 25 15 15 25 15 15 25 15 15 25 15 15 25 15 15 25 15 15 25 15 15 25 15 15 25 15 15 25 15 15 25 15 15 25 15 15 25 15 15 25 15 15 25 15 15 25 15 15 25 15 15 25 15 15 25 15 15 25 15 15 25 15 15 25 15 15 25 15 15 25 15 15 25 15 15 25 15 15 25 15 15 25 15 15 25 15 15 25 15 15 25 15 15 25 15 15 25 15 15 25 15 15 25 15 15 25 15 15 25 15 15 25 15 15 25 15 15 25 15 15 25 15 15 25 15 15 25 15 15 25 15 15 25 15 15 25 15 15 25 15 15 25 15 15 25 15 15 25 15 15 25 15 15 25 15 15 25 15 15 25 15 15 25 15 15 25 15 15 25 15 15 25 15 15 25 15 15 25 15 15 25 15 15 25 15 15 25 15 15 25 15 15 25 15 15 25 15 15 25 15 15 25 15 15 25 15 15 25 15 15 25 15 15 25 15 15 25 15 15 25 15 15 25 15 15 25 15 15 25 15 15 25 15 15 25 15 15 25 15 15 25 15 15 25 15 15 25 15 15 25 15 15 25 15 15 25 15 15 25 15 15 25 15 15 25 15 15 25 15 15 25 15 15 25 15 15 25 15 15 25 15 15 25 15 15 25 15 15 25 15 15 25 15 15 25 15 15 25 15 15 25 15 15 25 15 15 25 15 15 25 255 0 0 15 15 25 15 15 25 15 15 25 15 15 25 15 15 25 15 15 25 15 15 25 15 15 25 15 15 25 15 15 25 0 255 0 15 15 25 15 15 25 15 15 25 15 15 25 15 15 25 15 15 25 15 15 25 15 15 25 15 15 25 15 15 25 15 15 25 15 15 25 15 15 25 15 15 25 15 15 25 15 15 25 15 15 25 15 15 25 15 15 25 15 15 25 15 15 25 15 15 25 15 15 25 15 15 25 15 15 25 15 15 25 15 15 25 15 15 25 15 15 25 15 15 25 15 15 25 15 15 25 15 15 25 15 15 25 15 15 25 15 15 25 15 15 25 15 15 25 15 15 25 15 15 25 15 15 25 15 15 25 15 15 25 15 15 25 15 15 25 15 15 25 15 15 25 15 15 25 15 15 25 15 15 25 15 15 25 15 15 25 15 15 25 15 15 25 15 15 25 15 15 25 15 15 25 15 15 25 15 15 25 15 15 25 15 15 25 15 15 25 15 15 25 15 15 25 15 15 25 15 15 25 15 15 25 15 15 25 15 15 25 15 15 25 15 15 25 15 15 25 15 15 25 15 15 25 15 15 25 15 15 25 15 15 25 15 15 25 15 15 25 15 15 25 15 15 25 15 15 25 15 15 25 15 15 25 15 15 25 15 15 25 15 15 25 15 15 25 15 15 25 15 15 25 15 15 25 15 15 25 15 15 25 15 15 25 15 15 25 15 15 25 15 15 25 15 15 25 15 15 25 15 15 25 15 15 25 15 15 25 15 15 25 15 15 25 15 15 25 15 15 25 15 15 25 15 15 25 15 15 25 15 15 25 15 15 25 15 15 25 15 15 25 15 15 25 15 15 25 15 15 25 15 15 25 15 15 25 15 15 25 15 15 25 15 15 25 15 15 25 
15 15 25 15 15 25 15 15 25 15 15 25 15 15 25 15 15 25 15 15 25 15 15 25 15 15 25 15 15 25 15 15 25 15 15 25 15 15 25 15 15 25 15 15 25 15 15 25 15 15 25 15 15 25 15 15 25 15 15 25 15 15 25 15 15 25 15 15 25 15 15 25 15 15 25 15 15 25 15 15 25 15 15 25 15 15 25 15 15 25 15 15 25 15 15 25 15 15 25 15 15 25 15 15 25 15 15 25 15 15 25 15 15 25 15 15 25 15 15 25 15 15 25 15 15 25 15 15 25 15 15 25 15 15 25 15 15 25 15 15 25 15 15 25 15 15 25 15 15 25 15 15 25 15 15 25 15 15 25 15 15 25 15 15 25 15 15 25 15 15 25 15 15 25 15 15 25 15 15 25 15 15 25 15 15 25 15 15 25 15 15 25 15 15 25 15 15 25 15 15 25 15 15 25 15 15 25 15 15 25 15 15 25 15 15 25 15 15 25 15 15 25 15 15 25 15 15 25 15 15 25 15 15 25 15 15 25 15 15 25 15 15 25 15 15 25 15 15 25 15 15 25 15 15 25 15 15 25 15 15 25 15 15 25 15 15 25 15 15 25 15 15 25 15 15 25 15 15 25 15 15 25 15 15 25 15 15 25 15 15 25 15 15 25 15 15 25 15 15 25 15 15 25 15 15 25 15 15 25 15 15 25 15 15 25 15 15 25 15 15 25 15 15 25 15 15 25 15 15 25 15 15 25 15 15 25 15 15 25 15 15 25 15 15 25 15 15 25 15 15 25 15 15 25 15 15 25 15 15 25 15 15 25 15 15 25 15 15 25 255 0 0 15 15 25 15 15 25 15 15 25 15 15 25 15 15 25 15 15 25 15 15 25 15 15 25 0 255 0 15 15 25 15 15 25 15 15 25 15 15 25 15 15 25 15 15 25 15 15 25 15 15 25 15 15 25 15 15 25 15 15 25 15 15 25 15 15 25 15 15 25 15 15 25 15 15 25 15 15 25 15 15 25 15 15 25 15 15 25 15 15 25 15 15 25 15 15 25 15 15 25 15 15 25 15 15 25 15 15 25 15 15 25 15 15 25 15 15 25 15 15 25 15 15 25 15 15 25 15 15 25 15 15 25 15 15 25 15 15 25 15 15 25 15 15 25 15 15 25 15 15 25 15 15 25 15 15 25 15 15 25 15 15 25 15 15 25 15 15 25 15 15 25 15 15 25 15 15 25 15 15 25 15 15 25 15 15 25 15 15 25 15 15 25 15 15 25 15 15 25 15 15 25 15 15 25 15 15 25 15 15 25 15 15 25 15 15 25 15 15 25 15 15 25 15 15 25 15 15 25 15 15 25 15 15 25 15 15 25 15 15 25 15 15 25 15 15 25 15 15 25 15 15 25 15 15 25 15 15 25 15 15 25 15 15 25 15 15 25 15 15 25 15 15 25 15 15 25 15 15 25 15 15 25 15 15 25 15 15 25 15 15 25 15 15 25 15 15 25 15 15 25 15 15 25 15 15 25 15 15 25 15 15 25 15 15 25 15 15 25 15 15 25 15 15 25 15 15 25 15 15 25 15 15 25 15 15 25 15 15 25 15 15 25 15 15 25 15 15 25 15 15 25 15 15 25 15 15 25 15 15 25 15 15 25 15 15 25 15 15 25 15 15 25 15 15 25 15 15 25 15 15 25 15 15 25 15 15 25 15 15 25 15 15 25 15 15 25 
15 15 25 15 15 25 15 15 25 15 15 25 15 15 25 15 15 25 15 15 25 15 15 25 15 15 25 15 15 25 15 15 25 15 15 25 15 15 25 15 15 25 15 15 25 15 15 25 15 15 25 15 15 25 15 15 25 15 15 25 15 15 25 15 15 25 15 15 25 15 15 25 15 15 25 15 15 25 15 15 25 15 15 25 15 15 25 15 15 25 15 15 25 15 15 25 15 15 25 15 15 25 15 15 25 15 15 25 15 15 25 15 15 25 15 15 25 15 15 25 15 15 25 15 15 25 15 15 25 15 15 25 15 15 25 15 15 25 15 15 25 15 15 25 15 15 25 15 15 25 15 15 25 15 15 25 15 15 25 15 15 25 15 15 25 15 15 25 15 15 25 15 15 25 15 15 25 15 15 25 15 15 25 15 15 25 15 15 25 15 15 25 15 15 25 15 15 25 15 15 25 15 15 25 15 15 25 15 15 25 15 15 25 15 15 25 15 15 25 15 15 25 15 15 25 15 15 25 15 15 25 15 15 25 15 15 25 15 15 25 15 15 25 15 15 25 15 15 25 15 15 25 15 15 25 15 15 25 15 15 25 15 15 25 15 15 25 15 15 25 15 15 25 15 15 25 15 15 25 15 15 25 15 15 25 15 15 25 15 15 25 15 15 25 15 15 25 15 15 25 15 15 25 15 15 25 15 15 25 15 15 25 15 15 25 15 15 25 15 15 25 15 15 25 15 15 25 15 15 25 15 15 25 15 15 25 15 15 25 15 15 25 15 15 25 15 15 25 15 15 25 15 15 25 15 15 25 15 15 25 15 15 25 15 15 25 15 15 25 15 15 25 255 0 0 15 15 25 15 15 25 15 15 25 15 15 25 15 15 25 15 15 25 0 255 0 15 15 25 15 15 25 15 15 25 15 15 25 15 15 25 15 15 25 15 15 25 15 15 25 15 15 25 15 15 25 15 15 25 15 15 25 15 15 25 15 15 25 15 15 25 15 15 25 15 15 25 15 15 25 15 15 25 15 15 25 15 15 25 15 15 25 15 15 25 15 15 25 15 15 25 15 15 25 15 15 25 15 15 25 15 15 25 15 15 25 15 15 25 15 15 25 15 15 25 15 15 25 15 15 25 15 15 25 15 15 25 15 15 25 15 15 25 15 15 25 15 15 25 15 15 25 15 15 25 15 15 25 15 15 25 15 15 25 15 15 25 15 15 25 15 15 25 15 15 25 15 15 25 15 15 25 15 15 25 15 15 25 15 15 25 15 15 25 15 15 25 15 15 25 15 15 25 15 15 25 15 15 25 15 15 25 15 15 25 15 15 25 15 15 25 15 15 25 15 15 25 15 15 25 15 15 25 15 15 25 15 15 25 15 15 25 15 15 25 15 15 25 15 15 25 15 15 25 15 15 25 15 15 25 15 15 25 15 15 25 15 15 25 15 15 25 15 15 25 15 15 25 15 15 25 15 15 25 15 15 25 15 15 25 15 15 25 15 15 25 15 15 25 15 15 25 15 15 25 15 15 25 15 15 25 15 15 25 15 15 25 15 15 25 15 15 25 15 15 25 15 15 25 15 15 25 15 15 25 15 15 25 15 15 25 15 15 25 15 15 25 15 15 25 15 15 25 15 15 25 15 15 25 15 15 25 15 15 25 15 15 25 15 15 25 15 15 25 15 15 25 15 15 25 15 15 25 15 15 25 15 15 25 15 15 25 15 15 25 15 15 25 
15 15 25 15 15 25 15 15 25 15 15 25 15 15 25 15 15 25 15 15 25 15 15 25 15 15 25 15 15 25 15 15 25 15 15 25 15 15 25 15 15 25 15 15 25 15 15 25 15 15 25 15 15 25 15 15 25 15 15 25 15 15 25 15 15 25 15 15 25 15 15 25 15 15 25 15 15 25 15 15 25 15 15 25 15 15 25 15 15 25 15 15 25 15 15 25 15 15 25 15 15 25 15 15 25 15 15 25 15 15 25 15 15 25 15 15 25 15 15 25 15 15 25 15 15 25 15 15 25 15 15 25 15 15 25 15 15 25 15 15 25 15 15 25 15 15 25 15 15 25 15 15 25 15 15 25 15 15 25 15 15 25 15 15 25 15 15 25 15 15 25 15 15 25 15 15 25 15 15 25 15 15 25 15 15 25 15 15 25 15 15 25 15 15 25 15 15 25 15 15 25 15 15 25 15 15 25 15 15 25 15 15 25 15 15 25 15 15 25 15 15 25 15 15 25 15 15 25 15 15 25 15 15 25 15 15 25 15 15 25 15 15 25 15 15 25 15 15 25 15 15 25 15 15 25 15 15 25 15 15 25 15 15 25 15 15 25 15 15 25 15 15 25 15 15 25 15 15 25 15 15 25 15 15 25 15 15 25 15 15 25 15 15 25 15 15 25 15 15 25 15 15 25 15 15 25 15 15 25 15 15 25 15 15 25 15 15 25 15 15 25 15 15 25 15 15 25 15 15 25 15 15 25 15 15 25 15 15 25 15 15 25 15 15 25 15 15 25 15 15 25 15 15 25 15 15 25 15 15 25 15 15 25 15 15 25 15 15 25 15 15 25 15 15 25 255 0 0 15 15 25 15 15 25 15 15 25 15 15 25 0 255 0 15 15 25 15 15 25 15 15 25 15 15 25 15 15 25 15 15 25 15 15 25 15 15 25 15 15 25 15 15 25 15 15 25 15 15 25 15 15 25 15 15 25 15 15 25 15 15 25 15 15 25 15 15 25 15 15 25 15 15 25 15 15 25 15 15 25 15 15 25 15 15 25 15 15 25 15 15 25 15 15 25 15 15 25 15 15 25 15 15 25 15 15 25 15 15 25 15 15 25 15 15 25 15 15 25 15 15 25 15 15 25 15 15 25 15 15 25 15 15 25 15 15 25 15 15 25 15 15 25 15 15 25 15 15 25 15 15 25 15 15 25 15 15 25 15 15 25 15 15 25 15 15 25 15 15 25 15 15 25 15 15 25 15 15 25 15 15 25 15 15 25 15 15 25 15 15 25 15 15 25 15 15 25 15 15 25 15 15 25 15 15 25 15 15 25 15 15 25 15 15 25 15 15 25 15 15 25 15 15 25 15 15 25 15 15 25 15 15 25 15 15 25 15 15 25 15 15 25 15 15 25 15 15 25 15 15 25 15 15 25 15 15 25 15 15 25 15 15 25 15 15 25 15 15 25 15 15 25 15 15 25 15 15 25 15 15 25 15 15 25 15 15 25 15 15 25 15 15 25 15 15 25 15 15 25 15 15 25 15 15 25 15 15 25 15 15 25 15 15 25 15 15 25 15 15 25 15 15 25 15 15 25 15 15 25 15 15 25 15 15 25 15 15 25 15 15 25 15 15 25 15 15 25 15 15 25 15 15 25 15 15 25 15 15 25 15 15 25 15 15 25 15 15 25 15 15 25 15 15 25 15 15 25 15 15 25 15 15 25 15 15 25 15 15 25 
15 15 25 15 15 25 15 15 25 15 15 25 15 15 25 15 15 25 15 15 25 15 15 25 15 15 25 15 15 25 15 15 25 15 15 25 15 15 25 15 15 25 15 15 25 15 15 25 15 15 25 15 15 25 15 15 25 15 15 25 15 15 25 15 15 25 15 15 25 15 15 25 15 15 25 15 15 25 15 15 25 15 15 25 15 15 25 15 15 25 15 15 25 15 15 25 15 15 25 15 15 25 15 15 25 15 15 25 15 15 25 15 15 25 15 15 25 15 15 25 15 15 25 15 15 25 15 15 25 15 15 25 15 15 25 15 15 25 15 15 25 15 15 25 15 15 25 15 15 25 15 15 25 15 15 25 15 15 25 15 15 25 15 15 25 15 15 25 15 15 25 15 15 25 15 15 25 15 15 25 15 15 25 15 15 25 15 15 25 15 15 25 15 15 25 15 15 25 15 15 25 15 15 25 15 15 25 15 15 25 15 15 25 15 15 25 15 15 25 15 15 25 15 15 25 15 15 25 15 15 25 15 15 25 15 15 25 15 15 25 15 15 25 15 15 25 15 15 25 15 15 25 15 15 25 15 15 25 15 15 25 15 15 25 15 15 25 15 15 25 15 15 25 15 15 25 15 15 25 15 15 25 15 15 25 15 15 25 15 15 25 15 15 25 15 15 25 15 15 25 15 15 25 15 15 25 15 15 25 15 15 25 15 15 25 15 15 25 15 15 25 15 15 25 15 15 25 15 15 25 15 15 25 15 15 25 15 15 25 15 15 25 15 15 25 15 15 25 15 15 25 15 15 25 15 15 25 15 15 25 15 15 25 15 15 25 15 15 25 15 15 25 15 15 25 15 15 25 255 0 0 15 15 25 15 15 25 0 255 0 15 15 25 15 15 25 15 15 25 15 15 25 15 15 25 15 15 25 15 15 25 15 15 25 15 15 25 15 15 25 15 15 25 15 15 25 15 15 25 15 15 25 15 15 25 15 15 25 15 15 25 15 15 25 15 15 25 15 15 25 15 15 25 15 15 25 15 15 25 15 15 25 15 15 25 15 15 25 15 15 25 15 15 25 15 15 25 15 15 25 15 15 25 15 15 25 15 15 25 15 15 25 15 15 25 15 15 25 15 15 25 15 15 25 15 15 25 15 15 25 15 15 25 15 15 25 15 15 25 15 15 25 15 15 25 15 15 25 15 15 25 15 15 25 15 15 25 15 15 25 15 15 25 15 15 25 15 15 25 15 15 25 15 15 25 15 15 25 15 15 25 15 15 25 15 15 25 15 15 25 15 15 25 15 15 25 15 15 25 15 15 25 15 15 25 15 15 25 15 15 25 15 15 25 15 15 25 15 15 25 15 15 25 15 15 25 15 15 25 15 15 25 15 15 25 15 15 25 15 15 25 15 15 25 15 15 25 15 15 25 15 15 25 15 15 25 15 15 25 15 15 25 15 15 25 15 15 25 15 15 25 15 15 25 15 15 25 15 15 25 15 15 25 15 15 25 15 15 25 15 15 25 15 15 25 15 15 25 15 15 25 15 15 25 15 15 25 15 15 25 15 15 25 15 15 25 15 15 25 15 15 25 15 15 25 15 15 25 15 15 25 15 15 25 15 15 25 15 15 25 15 15 25 15 15 25 15 15 25 15 15 25 15 15 25 15 15 25 15 15 25 15 15 25 15 15 25 15 15 25 15 15 25 15 15 25 15 15 25 15 15 25 15 15 25 15 15 25 
15 15 25 15 15 25 15 15 25 15 15 25 15 15 25 15 15 25 15 15 25 15 15 25 15 15 25 15 15 25 15 15 25 15 15 25 15 15 25 15 15 25 15 15 25 15 15 25 15 15 25 15 15 25 15 15 25 15 15 25 15 15 25 15 15 25 15 15 25 15 15 25 15 15 25 15 15 25 15 15 25 15 15 25 15 15 25 15 15 25 15 15 25 15 15 25 15 15 25 15 15 25 15 15 25 15 15 25 15 15 25 15 15 25 15 15 25 15 15 25 15 15 25 15 15 25 15 15 25 15 15 25 15 15 25 15 15 25 15 15 25 15 15 25 15 15 25 15 15 25 15 15 25 15 15 25 15 15 25 15 15 25 15 15 25 15 15 25 15 15 25 15 15 25 15 15 25 15 15 25 15 15 25 15 15 25 15 15 25 15 15 25 15 15 25 15 15 25 15 15 25 15 15 25 15 15 25 15 15 25 15 15 25 15 15 25 15 15 25 15 15 25 15 15 25 15 15 25 15 15 25 15 15 25 15 15 25 15 15 25 15 15 25 15 15 25 15 15 25 15 15 25 15 15 25 15 15 25 15 15 25 15 15 25 15 15 25 15 15 25 15 15 25 15 15 25 15 15 25 15 15 25 15 15 25 15 15 25 15 15 25 15 15 25 15 15 25 15 15 25 15 15 25 15 15 25 15 15 25 15 15 25 15 15 25 15 15 25 15 15 25 15 15 25 15 15 25 15 15 25 15 15 25 15 15 25 15 15 25 15 15 25 15 15 25 15 15 25 15 15 25 15 15 25 15 15 25 15 15 25 15 15 25 15 15 25 15 15 25 15 15 25 15 15 25 15 15 25 15 15 25 255 0 0 0 255 0 15 15 25 15 15 25 15 15 25 15 15 25 15 15 25 15 15 25 15 15 25 15 15 25 15 15 25 15 15 25 15 15 25 15 15 25 15 15 25 15 15 25 15 15 25 15 15 25 15 15 25 15 15 25 15 15 25 15 15 25 15 15 25 15 15 25 15 15 25 15 15 25 15 15 25 15 15 25 15 15 25 15 15 25 15 15 25 15 15 25 15 15 25 15 15 25 15 15 25 15 15 25 15 15 25 15 15 25 15 15 25 15 15 25 15 15 25 15 15 25 15 15 25 15 15 25 15 15 25 15 15 25 15 15 25 15 15 25 15 15 25 15 15 25 15 15 25 15 15 25 15 15 25 15 15 25 15 15 25 15 15 25 15 15 25 15 15 25 15 15 25 15 15 25 15 15 25 15 15 25 15 15 25 15 15 25 15 15 25 15 15 25 15 15 25 15 15 25 15 15 25 15 15 25 15 15 25 15 15 25 15 15 25 15 15 25 15 15 25 15 15 25 15 15 25 15 15 25 15 15 25 15 15 25 15 15 25 15 15 25 15 15 25 15 15 25 15 15 25 15 15 25 15 15 25 15 15 25 15 15 25 15 15 25 15 15 25 15 15 25 15 15 25 15 15 25 15 15 25 15 15 25 15 15 25 15 15 25 15 15 25 15 15 25 15 15 25 15 15 25 15 15 25 15 15 25 15 15 25 15 15 25 15 15 25 15 15 25 15 15 25 15 15 25 15 15 25 15 15 25 15 15 25 15 15 25 15 15 25 15 15 25 15 15 25 15 15 25 15 15 25 15 15 25 15 15 25 15 15 25 15 15 25 15 15 25 15 15 25 15 15 25 15 15 25 15 15 25 15 15 25 
15 15 25 15 15 25 15 15 25 15 15 25 15 15 25 15 15 25 15 15 25 15 15 25 15 15 25 15 15 25 15 15 25 15 15 25 15 15 25 15 15 25 15 15 25 15 15 25 15 15 25 15 15 25 15 15 25 15 15 25 15 15 25 15 15 25 15 15 25 15 15 25 15 15 25 15 15 25 15 15 25 15 15 25 15 15 25 15 15 25 15 15 25 15 15 25 15 15 25 15 15 25 15 15 25 15 15 25 15 15 25 15 15 25 15 15 25 15 15 25 15 15 25 15 15 25 15 15 25 15 15 25 15 15 25 15 15 25 15 15 25 15 15 25 15 15 25 15 15 25 15 15 25 15 15 25 15 15 25 15 15 25 15 15 25 15 15 25 15 15 25 15 15 25 15 15 25 15 15 25 15 15 25 15 15 25 15 15 25 15 15 25 15 15 25 15 15 25 15 15 25 15 15 25 15 15 25 15 15 25 15 15 25 15 15 25 15 15 25 15 15 25 15 15 25 15 15 25 15 15 25 15 15 25 15 15 25 15 15 25 15 15 25 15 15 25 15 15 25 15 15 25 15 15 25 15 15 25 15 15 25 15 15 25 15 15 25 15 15 25 15 15 25 15 15 25 15 15 25 15 15 25 15 15 25 15 15 25 15 15 25 15 15 25 15 15 25 15 15 25 15 15 25 15 15 25 15 15 25 15 15 25 15 15 25 15 15 25 15 15 25 15 15 25 15 15 25 15 15 25 15 15 25 15 15 25 15 15 25 15 15 25 15 15 25 15 15 25 15 15 25 15 15 25 15 15 25 15 15 25 15 15 25 15 15 25 15 15 25 15 15 25 15 15 25 15 15 25 15 15 25 0 255 0 255 0 0 15 15 25 15 15 25 15 15 25 15 15 25 15 15 25 15 15 25 15 15 25 15 15 25 15 15 25 15 15 25 15 15 25 15 15 25 15 15 25 15 15 25 15 15 25 15 15 25 15 15 25 15 15 25 15 15 25 15 15 25 15 15 25 15 15 25 15 15 25 15 15 25 15 15 25 15 15 25 15 15 25 15 15 25 15 15 25 15 15 25 15 15 25 15 15 25 15 15 25 15 15 25 15 15 25 15 15 25 15 15 25 15 15 25 15 15 25 15 15 25 15 15 25 15 15 25 15 15 25 15 15 25 15 15 25 15 15 25 15 15 25 15 15 25 15 15 25 15 15 25 15 15 25 15 15 25 15 15 25 15 15 25 15 15 25 15 15 25 15 15 25 15 15 25 15 15 25 15 15 25 15 15 25 15 15 25 15 15 25 15 15 25 15 15 25 15 15 25 15 15 25 15 15 25 15 15 25 15 15 25 15 15 25 15 15 25 15 15 25 15 15 25 15 15 25 15 15 25 15 15 25 15 15 25 15 15 25 15 15 25 15 15 25 15 15 25 15 15 25 15 15 25 15 15 25 15 15 25 15 15 25 15 15 25 15 15 25 15 15 25 15 15 25 15 15 25 15 15 25 15 15 25 15 15 25 15 15 25 15 15 25 15 15 25 15 15 25 15 15 25 15 15 25 15 15 25 15 15 25 15 15 25 15 15 25 15 15 25 15 15 25 15 15 25 15 15 25 15 15 25 15 15 25 15 15 25 15 15 25 15 15 25 15 15 25 15 15 25 15 15 25 15 15 25 15 15 25 15 15 25 15 15 25 15 15 25 15 15 25 15 15 25 15 15 25 15 15 25 15 15 25 
15 15 25 15 15 25 15 15 25 15 15 25 15 15 25 15 15 25 15 15 25 15 15 25 15 15 25 15 15 25 15 15 25 15 15 25 15 15 25 15 15 25 15 15 25 15 15 25 15 15 25 15 15 25 15 15 25 15 15 25 15 15 25 15 15 25 15 15 25 15 15 25 15 15 25 15 15 25 15 15 25 15 15 25 15 15 25 15 15 25 15 15 25 15 15 25 15 15 25 15 15 25 15 15 25 15 15 25 15 15 25 15 15 25 15 15 25 15 15 25 15 15 25 15 15 25 15 15 25 15 15 25 15 15 25 15 15 25 15 15 25 15 15 25 15 15 25 15 15 25 15 15 25 15 15 25 15 15 25 15 15 25 15 15 25 15 15 25 15 15 25 15 15 25 15 15 25 15 15 25 15 15 25 15 15 25 15 15 25 15 15 25 15 15 25 15 15 25 15 15 25 15 15 25 15 15 25 15 15 25 15 15 25 15 15 25 15 15 25 15 15 25 15 15 25 15 15 25 15 15 25 15 15 25 15 15 25 15 15 25 15 15 25 15 15 25 15 15 25 15 15 25 15 15 25 15 15 25 15 15 25 15 15 25 15 15 25 15 15 25 15 15 25 15 15 25 15 15 25 15 15 25 15 15 25 15 15 25 15 15 25 15 15 25 15 15 25 15 15 25 15 15 25 15 15 25 15 15 25 15 15 25 15 15 25 15 15 25 15 15 25 15 15 25 15 15 25 15 15 25 15 15 25 15 15 25 15 15 25 15 15 25 15 15 25 15 15 25 15 15 25 15 15 25 15 15 25 15 15 25 15 15 25 15 15 25 15 15 25 15 15 25 15 15 25 15 15 25 0 255 0 15 15 25 15 15 25 255 0 0 15 15 25 15 15 25 15 15 25 15 15 25 15 15 25 15 15 25 15 15 25 15 15 25 15 15 25 15 15 25 15 15 25 15 15 25 15 15 25 15 15 25 15 15 25 15 15 25 15 15 25 15 15 25 15 15 25 15 15 25 15 15 25 15 15 25 15 15 25 15 15 25 15 15 25 15 15 25 15 15 25 15 15 25 15 15 25 15 15 25 15 15 25 15 15 25 15 15 25 15 15 25 15 15 25 15 15 25 15 15 25 15 15 25 15 15 25 15 15 25 15 15 25 15 15 25 15 15 25 15 15 25 15 15 25 15 15 25 15 15 25 15 15 25 15 15 25 15 15 25 15 15 25 15 15 25 15 15 25 15 15 25 15 15 25 15 15 25 15 15 25 15 15 25 15 15 25 15 15 25 15 15 25 15 15 25 15 15 25 15 15 25 15 15 25 15 15 25 15 15 25 15 15 25 15 15 25 15 15 25 15 15 25 15 15 25 15 15 25 15 15 25 15 15 25 15 15 25 15 15 25 15 15 25 15 15 25 15 15 25 15 15 25 15 15 25 15 15 25 15 15 25 15 15 25 15 15 25 15 15 25 15 15 25 15 15 25 15 15 25 15 15 25 15 15 25 15 15 25 15 15 25 15 15 25 15 15 25 15 15 25 15 15 25 15 15 25 15 15 25 15 15 25 15 15 25 15 15 25 15 15 25 15 15 25 15 15 25 15 15 25 15 15 25 15 15 25 15 15 25 15 15 25 15 15 25 15 15 25 15 15 25 15 15 25 15 15 25 15 15 25 15 15 25 15 15 25 15 15 25 15 15 25 15 15 25 15 15 25 15 15 25 15 15 25 15 15 25 
15 15 25 15 15 25 15 15 25 15 15 25 15 15 25 15 15 25 15 15 25 15 15 25 15 15 25 15 15 25 15 15 25 15 15 25 15 15 25 15 15 25 15 15 25 15 15 25 15 15 25 15 15 25 15 15 25 15 15 25 15 15 25 15 15 25 15 15 25 15 15 25 15 15 25 15 15 25 15 15 25 15 15 25 15 15 25 15 15 25 15 15 25 15 15 25 15 15 25 15 15 25 15 15 25 15 15 25 15 15 25 15 15 25 15 15 25 15 15 25 15 15 25 15 15 25 15 15 25 15 15 25 15 15 25 15 15 25 15 15 25 15 15 25 15 15 25 15 15 25 15 15 25 15 15 25 15 15 25 15 15 25 15 15 25 15 15 25 15 15 25 15 15 25 15 15 25 15 15 25 15 15 25 15 15 25 15 15 25 15 15 25 15 15 25 15 15 25 15 15 25 15 15 25 15 15 25 15 15 25 15 15 25 15 15 25 15 15 25 15 15 25 15 15 25 15 15 25 15 15 25 15 15 25 15 15 25 15 15 25 15 15 25 15 15 25 15 15 25 15 15 25 15 15 25 15 15 25 15 15 25 15 15 25 15 15 25 15 15 25 15 15 25 15 15 25 15 15 25 15 15 25 15 15 25 15 15 25 15 15 25 15 15 25 15 15 25 15 15 25 15 15 25 15 15 25 15 15 25 15 15 25 15 15 25 15 15 25 15 15 25 15 15 25 15 15 25 15 15 25 15 15 25 15 15 25 15 15 25 15 15 25 15 15 25 15 15 25 15 15 25 15 15 25 15 15 25 15 15 25 15 15 25 15 15 25 15 15 25 15 15 25 15 15 25 0 255 0 15 15 25 15 15 25 15 15 25 15 15 25 255 0 0 15 15 25 15 15 25 15 15 25 15 15 25 15 15 25 15 15 25 15 15 25 15 15 25 15 15 25 15 15 25 15 15 25 15 15 25 15 15 25 15 15 25 15 15 25 15 15 25 15 15 25 15 15 25 15 15 25 15 15 25 15 15 25 15 15 25 15 15 25 15 15 25 15 15 25 15 15 25 15 15 25 15 15 25 15 15 25 15 15 25 15 15 25 15 15 25 15 15 25 15 15 25 15 15 25 15 15 25 15 15 25 15 15 25 15 15 25 15 15 25 15 15 25 15 15 25 15 15 25 15 15 25 15 15 25 15 15 25 15 15 25 15 15 25 15 15 25 15 15 25 15 15 25 15 15 25 15 15 25 15 15 25 15 15 25 15 15 25 15 15 25 15 15 25 15 15 25 15 15 25 15 15 25 15 15 25 15 15 25 15 15 25 15 15 25 15 15 25 15 15 25 15 15 25 15 15 25 15 15 25 15 15 25 15 15 25 15 15 25 15 15 25 15 15 25 15 15 25 15 15 25 15 15 25 15 15 25 15 15 25 15 15 25 15 15 25 15 15 25 15 15 25 15 15 25 15 15 25 15 15 25 15 15 25 15 15 25 15 15 25 15 15 25 15 15 25 15 15 25 15 15 25 15 15 25 15 15 25 15 15 25 15 15 25 15 15 25 15 15 25 15 15 25 15 15 25 15 15 25 15 15 25 15 15 25 15 15 25 15 15 25 15 15 25 15 15 25 15 15 25 15 15 25 15 15 25 15 15 25 15 15 25 15 15 25 15 15 25 15 15 25 15 15 25 15 15 25 15 15 25 15 15 25 15 15 25 15 15 25 15 15 25 15 15 25 
15 15 25 15 15 25 15 15 25 15 15 25 15 15 25 15 15 25 15 15 25 15 15 25 15 15 25 15 15 25 15 15 25 15 15 25 15 15 25 15 15 25 15 15 25 15 15 25 15 15 25 15 15 25 15 15 25 15 15 25 15 15 25 15 15 25 15 15 25 15 15 25 15 15 25 15 15 25 15 15 25 15 15 25 15 15 25 15 15 25 15 15 25 15 15 25 15 15 25 15 15 25 15 15 25 15 15 25 15 15 25 15 15 25 15 15 25 15 15 25 15 15 25 15 15 25 15 15 25 15 15 25 15 15 25 15 15 25 15 15 25 15 15 25 15 15 25 15 15 25 15 15 25 15 15 25 15 15 25 15 15 25 15 15 25 15 15 25 15 15 25 15 15 25 15 15 25 15 15 25 15 15 25 15 15 25 15 15 25 15 15 25 15 15 25 15 15 25 15 15 25 15 15 25 15 15 25 15 15 25 15 15 25 15 15 25 15 15 25 15 15 25 15 15 25 15 15 25 15 15 25 15 15 25 15 15 25 15 15 25 15 15 25 15 15 25 15 15 25 15 15 25 15 15 25 15 15 25 15 15 25 15 15 25 15 15 25 15 15 25 15 15 25 15 15 25 15 15 25 15 15 25 15 15 25 15 15 25 15 15 25 15 15 25 15 15 25 15 15 25 15 15 25 15 15 25 15 15 25 15 15 25 15 15 25 15 15 25 15 15 25 15 15 25 15 15 25 15 15 25 15 15 25 15 15 25 15 15 25 15 15 25 15 15 25 15 15 25 15 15 25 15 15 25 15 15 25 15 15 25 15 15 25 15 15 25 15 15 25 15 15 25 0 255 0 15 15 25 15 15 25 15 15 25 15 15 25 15 15 25 15 15 25 255 0 0 15 15 25 15 15 25 15 15 25 15 15 25 15 15 25 15 15 25 15 15 25 15 15 25 15 15 25 15 15 25 15 15 25 15 15 25 15 15 25 15 15 25 15 15 25 15 15 25 15 15 25 15 15 25 15 15 25 15 15 25 15 15 25 15 15 25 15 15 25 15 15 25 15 15 25 15 15 25 15 15 25 15 15 25 15 15 25 15 15 25 15 15 25 15 15 25 15 15 25 15 15 25 15 15 25 15 15 25 15 15 25 15 15 25 15 15 25 15 15 25 15 15 25 15 15 25 15 15 25 15 15 25 15 15 25 15 15 25 15 15 25 15 15 25 15 15 25 15 15 25 15 15 25 15 15 25 15 15 25 15 15 25 15 15 25 15 15 25 15 15 25 15 15 25 15 15 25 15 15 25 15 15 25 15 15 25 15 15 25 15 15 25 15 15 25 15 15 25 15 15 25 15 15 25 15 15 25 15 15 25 15 15 25 15 15 25 15 15 25 15 15 25 15 15 25 15 15 25 15 15 25 15 15 25 15 15 25 15 15 25 15 15 25 15 15 25 15 15 25 15 15 25 15 15 25 15 15 25 15 15 25 15 15 25 15 15 25 15 15 25 15 15 25 15 15 25 15 15 25 15 15 25 15 15 25 15 15 25 15 15 25 15 15 25 15 15 25 15 15 25 15 15 25 15 15 25 15 15 25 15 15 25 15 15 25 15 15 25 15 15 25 15 15 25 15 15 25 15 15 25 15 15 25 15 15 25 15 15 25 15 15 25 15 15 25 15 15 25 15 15 25 15 15 25 15 15 25 15 15 25 15 15 25 15 15 25 15 15 25 15 15 25 
15 15 25 15 15 25 15 15 25 15 15 25 15 15 25 15 15 25 15 15 25 15 15 25 15 15 25 15 15 25 15 15 25 15 15 25 15 15 25 15 15 25 15 15 25 15 15 25 15 15 25 15 15 25 15 15 25 15 15 25 15 15 25 15 15 25 15 15 25 15 15 25 15 15 25 15 15 25 15 15 25 15 15 25 15 15 25 15 15 25 15 15 25 15 15 25 15 15 25 15 15 25 15 15 25 15 15 25 15 15 25 15 15 25 15 15 25 15 15 25 15 15 25 15 15 25 15 15 25 15 15 25 15 15 25 15 15 25 15 15 25 15 15 25 15 15 25 15 15 25 15 15 25 15 15 25 15 15 25 15 15 25 15 15 25 15 15 25 15 15 25 15 15 25 15 15 25 15 15 25 15 15 25 15 15 25 15 15 25 15 15 25 15 15 25 15 15 25 15 15 25 15 15 25 15 15 25 15 15 25 15 15 25 15 15 25 15 15 25 15 15 25 15 15 25 15 15 25 15 15 25 15 15 25 15 15 25 15 15 25 15 15 25 15 15 25 15 15 25 15 15 25 15 15 25 15 15 25 15 15 25 15 15 25 15 15 25 15 15 25 15 15 25 15 15 25 15 15 25 15 15 25 15 15 25 15 15 25 15 15 25 15 15 25 15 15 25 15 15 25 15 15 25 15 15 25 15 15 25 15 15 25 15 15 25 15 15 25 15 15 25 15 15 25 15 15 25 15 15 25 15 15 25 15 15 25 15 15 25 15 15 25 15 15 25 15 15 25 15 15 25 15 15 25 15 15 25 15 15 25 15 15 25 15 15 25 15 15 25 0 255 0 15 15 25 15 15 25 15 15 25 15 15 25 15 15 25 15 15 25 15 15 25 15 15 25 255 0 0 15 15 25 15 15 25 15 15 25 15 15 25 15 15 25 15 15 25 15 15 25 15 15 25 15 15 25 15 15 25 15 15 25 15 15 25 15 15 25 15 15 25 15 15 25 15 15 25 15 15 25 15 15 25 15 15 25 15 15 25 15 15 25 15 15 25 15 15 25 15 15 25 15 15 25 15 15 25 15 15 25 15 15 25 15 15 25 15 15 25 15 15 25 15 15 25 15 15 25 15 15 25 15 15 25 15 15 25 15 15 25 15 15 25 15 15 25 15 15 25 15 15 25 15 15 25 15 15 25 15 15 25 15 15 25 15 15 25 15 15 25 15 15 25 15 15 25 15 15 25 15 15 25 15 15 25 15 15 25 15 15 25 15 15 25 15 15 25 15 15 25 15 15 25 15 15 25 15 15 25 15 15 25 15 15 25 15 15 25 15 15 25 15 15 25 15 15 25 15 15 25 15 15 25 15 15 25 15 15 25 15 15 25 15 15 25 15 15 25 15 15 25 15 15 25 15 15 25 15 15 25 15 15 25 15 15 25 15 15 25 15 15 25 15 15 25 15 15 25 15 15 25 15 15 25 15 15 25 15 15 25 15 15 25 15 15 25 15 15 25 15 15 25 15 15 25 15 15 25 15 15 25 15 15 25 15 15 25 15 15 25 15 15 25 15 15 25 15 15 25 15 15 25 15 15 25 15 15 25 15 15 25 15 15 25 15 15 25 15 15 25 15 15 25 15 15 25 15 15 25 15 15 25 15 15 25 15 15 25 15 15 25 15 15 25 15 15 25 15 15 25 15 15 25 15 15 25 15 15 25 15 15 25 15 15 25 15 15 25 
15 15 25 15 15 25 15 15 25 15 15 25 15 15 25 15 15 25 15 15 25 15 15 25 15 15 25 15 15 25 15 15 25 15 15 25 15 15 25 15 15 25 15 15 25 15 15 25 15 15 25 15 15 25 15 15 25 15 15 25 15 15 25 15 15 25 15 15 25 15 15 25 15 15 25 15 15 25 15 15 25 15 15 25 15 15 25 15 15 25 15 15 25 15 15 25 15 15 25 15 15 25 15 15 25 15 15 25 15 15 25 15 15 25 15 15 25 15 15 25 15 15 25 15 15 25 15 15 25 15 15 25 15 15 25 15 15 25 15 15 25 15 15 25 15 15 25 15 15 25 15 15 25 15 15 25 15 15 25 15 15 25 15 15 25 15 15 25 15 15 25 15 15 25 15 15 25 15 15 25 15 15 25 15 15 25 15 15 25 15 15 25 15 15 25 15 15 25 15 15 25 15 15 25 15 15 25 15 15 25 15 15 25 15 15 25 15 15 25 15 15 25 15 15 25 15 15 25 15 15 25 15 15 25 15 15 25 15 15 25 15 15 25 15 15 25 15 15 25 15 15 25 15 15 25 15 15 25 15 15 25 15 15 25 15 15 25 15 15 25 15 15 25 15 15 25 15 15 25 15 15 25 15 15 25 15 15 25 15 15 25 15 15 25 15 15 25 15 15 25 15 15 25 15 15 25 15 15 25 15 15 25 15 15 25 15 15 25 15 15 25 15 15 25 15 15 25 15 15 25 15 15 25 15 15 25 15 15 25 15 15 25 15 15 25 15 15 25 15 15 25 15 15 25 15 15 25 15 15 25 15 15 25 15 15 25 0 255 0 15 15 25 15 15 25 15 15 25 15 15 25 15 15 25 15 15 25 15 15 25 15 15 25 15 15 25 15 15 25 255 0 0 15 15 25 15 15 25 15 15 25 15 15 25 15 15 25 15 15 25 15 15 25 15 15 25 15 15 25 15 15 25 15 15 25 15 15 25 15 15 25 15 15 25 15 15 25 15 15 25 15 15 25 15 15 25 15 15 25 15 15 25 15 15 25 15 15 25 15 15 25 15 15 25 15 15 25 15 15 25 15 15 25 15 15 25 15 15 25 15 15 25 15 15 25 15 15 25 15 15 25 15 15 25 15 15 25 15 15 25 15 15 25 15 15 25 15 15 25 15 15 25 15 15 25 15 15 25 15 15 25 15 15 25 15 15 25 15 15 25 15 15 25 15 15 25 15 15 25 15 15 25 15 15 25 15 15 25 15 15 25 15 15 25 15 15 25 15 15 25 15 15 25 15 15 25 15 15 25 15 15 25 15 15 25 15 15 25 15 15 25 15 15 25 15 15 25 15 15 25 15 15 25 15 15 25 15 15 25 15 15 25 15 15 25 15 15 25 15 15 25 15 15 25 15 15 25 15 15 25 15 15 25 15 15 25 15 15 25 15 15 25 15 15 25 15 15 25 15 15 25 15 15 25 15 15 25 15 15 25 15 15 25 15 15 25 15 15 25 15 15 25 15 15 25 15 15 25 15 15 25 15 15 25 15 15 25 15 15 25 15 15 25 15 15 25 15 15 25 15 15 25 15 15 25 15 15 25 15 15 25 15 15 25 15 15 25 15 15 25 15 15 25 15 15 25 15 15 25 15 15 25 15 15 25 15 15 25 15 15 25 15 15 25 15 15 25 15 15 25 15 15 25 15 15 25 15 15 25 15 15 25 15 15 25 15 15 25 
15 15 25 15 15 25 15 15 25 15 15 25 15 15 25 15 15 25 15 15 25 15 15 25 15 15 25 15 15 25 15 15 25 15 15 25 15 15 25 15 15 25 15 15 25 15 15 25 15 15 25 15 15 25 15 15 25 15 15 25 15 15 25 15 15 25 15 15 25 15 15 25 15 15 25 15 15 25 15 15 25 15 15 25 15 15 25 15 15 25 15 15 25 15 15 25 15 15 25 15 15 25 15 15 25 15 15 25 15 15 25 15 15 25 15 15 25 15 15 25 15 15 25 15 15 25 15 15 25 15 15 25 15 15 25 15 15 25 15 15 25 15 15 25 15 15 25 15 15 25 15 15 25 15 15 25 15 15 25 15 15 25 15 15 25 15 15 25 15 15 25 15 15 25 15 15 25 15 15 25 15 15 25 15 15 25 15 15 25 15 15 25 15 15 25 15 15 25 15 15 25 15 15 25 15 15 25 15 15 25 15 15 25 15 15 25 15 15 25 15 15 25 15 15 25 15 15 25 15 15 25 15 15 25 15 15 25 15 15 25 15 15 25 15 15 25 15 15 25 15 15 25 15 15 25 15 15 25 15 15 25 15 15 25 15 15 25 15 15 25 15 15 25 15 15 25 15 15 25 15 15 25 15 15 25 15 15 25 15 15 25 15 15 25 15 15 25 15 15 25 15 15 25 15 15 25 15 15 25 15 15 25 15 15 25 15 15 25 15 15 25 15 15 25 15 15 25 15 15 25 15 15 25 15 15 25 15 15 25 15 15 25 15 15 25 15 15 25 15 15 25 15 15 25 15 15 25 15 15 25 15 15 25 0 255 0 15 15 25 15 15 25 15 15 25 15 15 25 15 15 25 15 15 25 15 15 25 15 15 25 15 15 25 15 15 25 15 15 25 15 15 25 255 0 0 15 15 25 15 15 25 15 15 25 15 15 25 15 15 25 15 15 25 15 15 25 15 15 25 15 15 25 15 15 25 15 15 25 15 15 25 15 15 25 15 15 25 15 15 25 15 15 25 15 15 25 15 15 25 15 15 25 15 15 25 15 15 25 15 15 25 15 15 25 15 15 25 15 15 25 15 15 25 15 15 25 15 15 25 15 15 25 15 15 25 15 15 25 15 15 25 15 15 25 15 15 25 15 15 25 15 15 25 15 15 25 15 15 25 15 15 25 15 15 25 15 15 25 15 15 25 15 15 25 15 15 25 15 15 25 15 15 25 15 15 25 15 15 25 15 15 25 15 15 25 15 15 25 15 15 25 15 15 25 15 15 25 15 15 25 15 15 25 15 15 25 15 15 25 15 15 25 15 15 25 15 15 25 15 15 25 15 15 25 15 15 25 15 15 25 15 15 25 15 15 25 15 15 25 15 15 25 15 15 25 15 15 25 15 15 25 15 15 25 15 15 25 15 15 25 15 15 25 15 15 25 15 15 25 15 15 25 15 15 25 15 15 25 15 15 25 15 15 25 15 15 25 15 15 25 15 15 25 15 15 25 15 15 25 15 15 25 15 15 25 15 15 25 15 15 25 15 15 25 15 15 25 15 15 25 15 15 25 15 15 25 15 15 25 15 15 25 15 15 25 15 15 25 15 15 25 15 15 25 15 15 25 15 15 25 15 15 25 15 15 25 15 15 25 15 15 25 15 15 25 15 15 25 15 15 25 15 15 25 15 15 25 15 15 25 15 15 25 15 15 25 15 15 25 15 15 25 15 15 25 15 15 25 
15 15 25 15 15 25 15 15 25 15 15 25 15 15 25 15 15 25 15 15 25 15 15 25 15 15 25 15 15 25 15 15 25 15 15 25 15 15 25 15 15 25 15 15 25 15 15 25 15 15 25 15 15 25 15 15 25 15 15 25 15 15 25 15 15 25 15 15 25 15 15 25 15 15 25 15 15 25 15 15 25 15 15 25 15 15 25 15 15 25 15 15 25 15 15 25 15 15 25 15 15 25 15 15 25 15 15 25 15 15 25 15 15 25 15 15 25 15 15 25 15 15 25 15 15 25 15 15 25 15 15 25 15 15 25 15 15 25 15 15 25 15 15 25 15 15 25 15 15 25 15 15 25 15 15 25 15 15 25 15 15 25 15 15 25 15 15 25 15 15 25 15 15 25 15 15 25 15 15 25 15 15 25 15 15 25 15 15 25 15 15 25 15 15 25 15 15 25 15 15 25 15 15 25 15 15 25 15 15 25 15 15 25 15 15 25 15 15 25 15 15 25 15 15 25 15 15 25 15 15 25 15 15 25 15 15 25 15 15 25 15 15 25 15 15 25 15 15 25 15 15 25 15 15 25 15 15 25 15 15 25 15 15 25 15 15 25 15 15 25 15 15 25 15 15 25 15 15 25 15 15 25 15 15 25 15 15 25 15 15 25 15 15 25 15 15 25 15 15 25 15 15 25 15 15 25 15 15 25 15 15 25 15 15 25 15 15 25 15 15 25 15 15 25 15 15 25 15 15 25 15 15 25 15 15 25 15 15 25 15 15 25 15 15 25 15 15 25 15 15 25 15 15 25 15 15 25 15 15 25 0 255 0 15 15 25 15 15 25 15 15 25 15 15 25 15 15 25 15 15 25 15 15 25 15 15 25 15 15 25 15 15 25 15 15 25 15 15 25 15 15 25 15 15 25 255 0 0 15 15 25 15 15 25 15 15 25 15 15 25 15 15 25 15 15 25 15 15 25 15 15 25 15 15 25 15 15 25 15 15 25 15 15 25 15 15 25 15 15 25 15 15 25 15 15 25 15 15 25 15 15 25 15 15 25 15 15 25 15 15 25 15 15 25 15 15 25 15 15 25 15 15 25 15 15 25 15 15 25 15 15 25 15 15 25 15 15 25 15 15 25 15 15 25 15 15 25 15 15 25 15 15 25 15 15 25 15 15 25 15 15 25 15 15 25 15 15 25 15 15 25 15 15 25 15 15 25 15 15 25 15 15 25 15 15 25 15 15 25 15 15 25 15 15 25 15 15 25 15 15 25 15 15 25 15 15 25 15 15 25 15 15 25 15 15 25 15 15 25 15 15 25 15 15 25 15 15 25 15 15 25 15 15 25 15 15 25 15 15 25 15 15 25 15 15 25 15 15 25 15 15 25 15 15 25 15 15 25 15 15 25 15 15 25 15 15 25 15 15 25 15 15 25 15 15 25 15 15 25 15 15 25 15 15 25 15 15 25 15 15 25 15 15 25 15 15 25 15 15 25 15 15 25 15 15 25 15 15 25 15 15 25 15 15 25 15 15 25 15 15 25 15 15 25 15 15 25 15 15 25 15 15 25 15 15 25 15 15 25 15 15 25 15 15 25 15 15 25 15 15 25 15 15 25 15 15 25 15 15 25 15 15 25 15 15 25 15 15 25 15 15 25 15 15 25 15 15 25 15 15 25 15 15 25 15 15 25 15 15 25 15 15 25 15 15 25 15 15 25 15 15 25 15 15 25 15 15 25 
15 15 25 15 15 25 15 15 25 15 15 25 15 15 25 15 15 25 15 15 25 15 15 25 15 15 25 15 15 25 15 15 25 15 15 25 15 15 25 15 15 25 15 15 25 15 15 25 15 15 25 15 15 25 15 15 25 15 15 25 15 15 25 15 15 25 15 15 25 15 15 25 15 15 25 15 15 25 15 15 25 15 15 25 15 15 25 15 15 25 15 15 25 15 15 25 15 15 25 15 15 25 15 15 25 15 15 25 15 15 25 15 15 25 15 15 25 15 15 25 15 15 25 15 15 25 15 15 25 15 15 25 15 15 25 15 15 25 15 15 25 15 15 25 15 15 25 15 15 25 15 15 25 15 15 25 15 15 25 15 15 25 15 15 25 15 15 25 15 15 25 15 15 25 15 15 25 15 15 25 15 15 25 15 15 25 15 15 25 15 15 25 15 15 25 15 15 25 15 15 25 15 15 25 15 15 25 15 15 25 15 15 25 15 15 25 15 15 25 15 15 25 15 15 25 15 15 25 15 15 25 15 15 25 15 15 25 15 15 25 15 15 25 15 15 25 15 15 25 15 15 25 15 15 25 15 15 25 15 15 25 15 15 25 15 15 25 15 15 25 15 15 25 15 15 25 15 15 25 15 15 25 15 15 25 15 15 25 15 15 25 15 15 25 15 15 25 15 15 25 15 15 25 15 15 25 15 15 25 15 15 25 15 15 25 15 15 25 15 15 25 15 15 25 15 15 25 15 15 25 15 15 25 15 15 25 15 15 25 15 15 25 15 15 25 15 15 25 15 15 25 15 15 25 15 15 25 0 255 0 15 15 25 15 15 25 15 15 25 15 15 25 15 15 25 15 15 25 15 15 25 15 15 25 15 15 25 15 15 25 15 15 25 15 15 25 15 15 25 15 15 25 15 15 25 15 15 25 255 0 0 15 15 25 15 15 25 15 15 25 15 15 25 15 15 25 15 15 25 15 15 25 15 15 25 15 15 25 15 15 25 15 15 25 15 15 25 15 15 25 15 15 25 15 15 25 15 15 25 15 15 25 15 15 25 15 15 25 15 15 25 15 15 25 15 15 25 15 15 25 15 15 25 15 15 25 15 15 25 15 15 25 15 15 25 15 15 25 15 15 25 15 15 25 15 15 25 15 15 25 15 15 25 15 15 25 15 15 25 15 15 25 15 15 25 15 15 25 15 15 25 15 15 25 15 15 25 15 15 25 15 15 25 15 15 25 15 15 25 15 15 25 15 15 25 15 15 25 15 15 25 15 15 25 15 15 25 15 15 25 15 15 25 15 15 25 15 15 25 15 15 25 15 15 25 15 15 25 15 15 25 15 15 25 15 15 25 15 15 25 15 15 25 15 15 25 15 15 25 15 15 25 15 15 25 15 15 25 15 15 25 15 15 25 15 15 25 15 15 25 15 15 25 15 15 25 15 15 25 15 15 25 15 15 25 15 15 25 15 15 25 15 15 25 15 15 25 15 15 25 15 15 25 15 15 25 15 15 25 15 15 25 15 15 25 15 15 25 15 15 25 15 15 25 15 15 25 15 15 25 15 15 25 15 15 25 15 15 25 15 15 25 15 15 25 15 15 25 15 15 25 15 15 25 15 15 25 15 15 25 15 15 25 15 15 25 15 15 25 15 15 25 15 15 25 15 15 25 15 15 25 15 15 25 15 15 25 15 15 25 15 15 25 15 15 25 15 15 25 15 15 25 15 15 25 15 15 25 
15 15 25 15 15 25 15 15 25 15 15 25 15 15 25 15 15 25 15 15 25 15 15 25 15 15 25 15 15 25 15 15 25 15 15 25 15 15 25 15 15 25 15 15 25 15 15 25 15 15 25 15 15 25 15 15 25 15 15 25 15 15 25 15 15 25 15 15 25 15 15 25 15 15 25 15 15 25 15 15 25 15 15 25 15 15 25 15 15 25 15 15 25 15 15 25 15 15 25 15 15 25 15 15 25 15 15 25 15 15 25 15 15 25 15 15 25 15 15 25 15 15 25 15 15 25 15 15 25 15 15 25 15 15 25 15 15 25 15 15 25 15 15 25 15 15 25 15 15 25 15 15 25 15 15 25 15 15 25 15 15 25 15 15 25 15 15 25 15 15 25 15 15 25 15 15 25 15 15 25 15 15 25 15 15 25 15 15 25 15 15 25 15 15 25 15 15 25 15 15 25 15 15 25 15 15 25 15 15 25 15 15 25 15 15 25 15 15 25 15 15 25 15 15 25 15 15 25 15 15 25 15 15 25 15 15 25 15 15 25 15 15 25 15 15 25 15 15 25 15 15 25 15 15 25 15 15 25 15 15 25 15 15 25 15 15 25 15 15 25 15 15 25 15 15 25 15 15 25 15 15 25 15 15 25 15 15 25 15 15 25 15 15 25 15 15 25 15 15 25 15 15 25 15 15 25 15 15 25 15 15 25 15 15 25 15 15 25 15 15 25 15 15 25 15 15 25 15 15 25 15 15 25 15 15 25 15 15 25 15 15 25 15 15 25 15 15 25 15 15 25 15 15 25 0 255 0 15 15 25 15 15 25 15 15 25 15 15 25 15 15 25 15 15 25 15 15 25 15 15 25 15 15 25 15 15 25 15 15 25 15 15 25 15 15 25 15 15 25 15 15 25 15 15 25 15 15 25 15 15 25 255 0 0 15 15 25 15 15 25 15 15 25 15 15 25 15 15 25 15 15 25 15 15 25 15 15 25 15 15 25 15 15 25 15 15 25 15 15 25 15 15 25 15 15 25 15 15 25 15 15 25 15 15 25 15 15 25 15 15 25 15 15 25 15 15 25 15 15 25 15 15 25 15 15 25 15 15 25 15 15 25 15 15 25 15 15 25 15 15 25 15 15 25 15 15 25 15 15 25 15 15 25 15 15 25 15 15 25 15 15 25 15 15 25 15 15 25 15 15 25 15 15 25 15 15 25 15 15 25 15 15 25 15 15 25 15 15 25 15 15 25 15 15 25 15 15 25 15 15 25 15 15 25 15 15 25 15 15 25 15 15 25 15 15 25 15 15 25 15 15 25 15 15 25 15 15 25 15 15 25 15 15 25 15 15 25 15 15 25 15 15 25 15 15 25 15 15 25 15 15 25 15 15 25 15 15 25 15 15 25 15 15 25 15 15 25 15 15 25 15 15 25 15 15 25 15 15 25 15 15 25 15 15 25 15 15 25 15 15 25 15 15 25 15 15 25 15 15 25 15 15 25 15 15 25 15 15 25 15 15 25 15 15 25 15 15 25 15 15 25 15 15 25 15 15 25 15 15 25 15 15 25 15 15 25 15 15 25 15 15 25 15 15 25 15 15 25 15 15 25 15 15 25 15 15 25 15 15 25 15 15 25 15 15 25 15 15 25 15 15 25 15 15 25 15 15 25 15 15 25 15 15 25 15 15 25 15 15 25 15 15 25 15 15 25 15 15 25 15 15 25 15 15 25 15 15 25 
15 15 25 15 15 25 15 15 25 15 15 25 15 15 25 15 15 25 15 15 25 15 15 25 15 15 25 15 15 25 15 15 25 15 15 25 15 15 25 15 15 25 15 15 25 15 15 25 15 15 25 15 15 25 15 15 25 15 15 25 15 15 25 15 15 25 15 15 25 15 15 25 15 15 25 15 15 25 15 15 25 15 15 25 15 15 25 15 15 25 15 15 25 15 15 25 15 15 25 15 15 25 15 15 25 15 15 25 15 15 25 15 15 25 15 15 25 15 15 25 15 15 25 15 15 25 15 15 25 15 15 25 15 15 25 15 15 25 15 15 25 15 15 25 15 15 25 15 15 25 15 15 25 15 15 25 15 15 25 15 15 25 15 15 25 15 15 25 15 15 25 15 15 25 15 15 25 15 15 25 15 15 25 15 15 25 15 15 25 15 15 25 15 15 25 15 15 25 15 15 25 15 15 25 15 15 25 15 15 25 15 15 25 15 15 25 15 15 25 15 15 25 15 15 25 15 15 25 15 15 25 15 15 25 15 15 25 15 15 25 15 15 25 15 15 25 15 15 25 15 15 25 15 15 25 15 15 25 15 15 25 15 15 25 15 15 25 15 15 25 15 15 25 15 15 25 15 15 25 15 15 25 15 15 25 15 15 25 15 15 25 15 15 25 15 15 25 15 15 25 15 15 25 15 15 25 15 15 25 15 15 25 15 15 25 15 15 25 15 15 25 15 15 25 15 15 25 15 15 25 15 15 25 15 15 25 15 15 25 15 15 25 15 15 25 15 15 25 15 15 25 0 255 0 15 15 25 15 15 25 15 15 25 15 15 25 15 15 25 15 15 25 15 15 25 15 15 25 15 15 25 15 15 25 15 15 25 15 15 25 15 15 25 15 15 25 15 15 25 15 15 25 15 15 25 15 15 25 15 15 25 15 15 25 255 0 0 15 15 25 15 15 25 15 15 25 15 15 25 15 15 25 15 15 25 15 15 25 15 15 25 15 15 25 15 15 25 15 15 25 15 15 25 15 15 25 15 15 25 15 15 25 15 15 25 15 15 25 15 15 25 15 15 25 15 15 25 15 15 25 15 15 25 15 15 25 15 15 25 15 15 25 15 15 25 15 15 25 15 15 25 15 15 25 15 15 25 15 15 25 15 15 25 15 15 25 15 15 25 15 15 25 15 15 25 15 15 25 15 15 25 15 15 25 15 15 25 15 15 25 15 15 25 15 15 25 15 15 25 15 15 25 15 15 25 15 15 25 15 15 25 15 15 25 15 15 25 15 15 25 15 15 25 15 15 25 15 15 25 15 15 25 15 15 25 15 15 25 15 15 25 15 15 25 15 15 25 15 15 25 15 15 25 15 15 25 15 15 25 15 15 25 15 15 25 15 15 25 15 15 25 15 15 25 15 15 25 15 15 25 15 15 25 15 15 25 15 15 25 15 15 25 15 15 25 15 15 25 15 15 25 15 15 25 15 15 25 15 15 25 15 15 25 15 15 25 15 15 25 15 15 25 15 15 25 15 15 25 15 15 25 15 15 25 15 15 25 15 15 25 15 15 25 15 15 25 15 15 25 15 15 25 15 15 25 15 15 25 15 15 25 15 15 25 15 15 25 15 15 25 15 15 25 15 15 25 15 15 25 15 15 25 15 15 25 15 15 25 15 15 25 15 15 25 15 15 25 15 15 25 15 15 25 15 15 25 15 15 25 15 15 25 15 15 25 15 15 25 
15 15 25 15 15 25 15 15 25 15 15 25 15 15 25 15 15 25 15 15 25 15 15 25 15 15 25 15 15 25 15 15 25 15 15 25 15 15 25 15 15 25 15 15 25 15 15 25 15 15 25 15 15 25 15 15 25 15 15 25 15 15 25 15 15 25 15 15 25 15 15 25 15 15 25 15 15 25 15 15 25 15 15 25 15 15 25 15 15 25 15 15 25 15 15 25 15 15 25 15 15 25 15 15 25 15 15 25 15 15 25 15 15 25 15 15 25 15 15 25 15 15 25 15 15 25 15 15 25 15 15 25 15 15 25 15 15 25 15 15 25 15 15 25 15 15 25 15 15 25 15 15 25 15 15 25 15 15 25 15 15 25 15 15 25 15 15 25 15 15 25 15 15 25 15 15 25 15 15 25 15 15 25 15 15 25 15 15 25 15 15 25 15 15 25 15 15 25 15 15 25 15 15 25 15 15 25 15 15 25 15 15 25 15 15 25 15 15 25 15 15 25 15 15 25 15 15 25 15 15 25 15 15 25 15 15 25 15 15 25 15 15 25 15 15 25 15 15 25 15 15 25 15 15 25 15 15 25 15 15 25 15 15 25 15 15 25 15 15 25 15 15 25 15 15 25 15 15 25 15 15 25 15 15 25 15 15 25 15 15 25 15 15 25 15 15 25 15 15 25 15 15 25 15 15 25 15 15 25 15 15 25 15 15 25 15 15 25 15 15 25 15 15 25 15 15 25 15 15 25 15 15 25 15 15 25 15 15 25 15 15 25 15 15 25 15 15 25 0 255 0 15 15 25 15 15 25 15 15 25 15 15 25 15 15 25 15 15 25 15 15 25 15 15 25 15 15 25 15 15 25 15 15 25 15 15 25 15 15 25 15 15 25 15 15 25 15 15 25 15 15 25 15 15 25 15 15 25 15 15 25 15 15 25 15 15 25 255 0 0 15 15 25 15 15 25 15 15 25 15 15 25 15 15 25 15 15 25 15 15 25 15 15 25 15 15 25 15 15 25 15 15 25 15 15 25 15 15 25 15 15 25 15 15 25 15 15 25 15 15 25 15 15 25 15 15 25 15 15 25 15 15 25 15 15 25 15 15 25 15 15 25 15 15 25 15 15 25 15 15 25 15 15 25 15 15 25 15 15 25 15 15 25 15 15 25 15 15 25 15 15 25 15 15 25 15 15 25 15 15 25 15 15 25 15 15 25 15 15 25 15 15 25 15 15 25 15 15 25 15 15 25 15 15 25 15 15 25 15 15 25 15 15 25 15 15 25 15 15 25 15 15 25 15 15 25 15 15 25 15 15 25 15 15 25 15 15 25 15 15 25 15 15 25 15 15 25 15 15 25 15 15 25 15 15 25 15 15 25 15 15 25 15 15 25 15 15 25 15 15 25 15 15 25 15 15 25 15 15 25 15 15 25 15 15 25 15 15 25 15 15 25 15 15 25 15 15 25 15 15 25 15 15 25 15 15 25 15 15 25 15 15 25 15 15 25 15 15 25 15 15 25 15 15 25 15 15 25 15 15 25 15 15 25 15 15 25 15 15 25 15 15 25 15 15 25 15 15 25 15 15 25 15 15 25 15 15 25 15 15 25 15 15 25 15 15 25 15 15 25 15 15 25 15 15 25 15 15 25 15 15 25 15 15 25 15 15 25 15 15 25 15 15 25 15 15 25 15 15 25 15 15 25 15 15 25 15 15 25 15 15 25 15 15 25 15 15 25 
15 15 25 15 15 25 15 15 25 15 15 25 15 15 25 15 15 25 15 15 25 15 15 25 15 15 25 15 15 25 15 15 25 15 15 25 15 15 25 15 15 25 15 15 25 15 15 25 15 15 25 15 15 25 15 15 25 15 15 25 15 15 25 15 15 25 15 15 25 15 15 25 15 15 25 15 15 25 15 15 25 15 15 25 15 15 25 15 15 25 15 15 25 15 15 25 15 15 25 15 15 25 15 15 25 15 15 25 15 15 25 15 15 25 15 15 25 15 15 25 15 15 25 15 15 25 15 15 25 15 15 25 15 15 25 15 15 25 15 15 25 15 15 25 15 15 25 15 15 25 15 15 25 15 15 25 15 15 25 15 15 25 15 15 25 15 15 25 15 15 25 15 15 25 15 15 25 15 15 25 15 15 25 15 15 25 15 15 25 15 15 25 15 15 25 15 15 25 15 15 25 15 15 25 15 15 25 15 15 25 15 15 25 15 15 25 15 15 25 15 15 25 15 15 25 15 15 25 15 15 25 15 15 25 15 15 25 15 15 25 15 15 25 15 15 25 15 15 25 15 15 25 15 15 25 15 15 25 15 15 25 15 15 25 15 15 25 15 15 25 15 15 25 15 15 25 15 15 25 15 15 25 15 15 25 15 15 25 15 15 25 15 15 25 15 15 25 15 15 25 15 15 25 15 15 25 15 15 25 15 15 25 15 15 25 15 15 25 15 15 25 15 15 25 15 15 25 15 15 25 15 15 25 15 15 25 15 15 25 15 15 25 15 15 25 0 255 0 15 15 25 15 15 25 15 15 25 15 15 25 15 15 25 15 15 25 15 15 25 15 15 25 15 15 25 15 15 25 15 15 25 15 15 25 15 15 25 15 15 25 15 15 25 15 15 25 15 15 25 15 15 25 15 15 25 15 15 25 15 15 25 15 15 25 15 15 25 15 15 25 255 0 0 15 15 25 15 15 25 15 15 25 15 15 25 15 15 25 15 15 25 15 15 25 15 15 25 15 15 25 15 15 25 15 15 25 15 15 25 15 15 25 15 15 25 15 15 25 15 15 25 15 15 25 15 15 25 15 15 25 15 15 25 15 15 25 15 15 25 15 15 25 15 15 25 15 15 25 15 15 25 15 15 25 15 15 25 15 15 25 15 15 25 15 15 25 15 15 25 15 15 25 15 15 25 15 15 25 15 15 25 15 15 25 15 15 25 15 15 25 15 15 25 15 15 25 15 15 25 15 15 25 15 15 25 15 15 25 15 15 25 15 15 25 15 15 25 15 15 25 15 15 25 15 15 25 15 15 25 15 15 25 15 15 25 15 15 25 15 15 25 15 15 25 15 15 25 15 15 25 15 15 25 15 15 25 15 15 25 15 15 25 15 15 25 15 15 25 15 15 25 15 15 25 15 15 25 15 15 25 15 15 25 15 15 25 15 15 25 15 15 25 15 15 25 15 15 25 15 15 25 15 15 25 15 15 25 15 15 25 15 15 25 15 15 25 15 15 25 15 15 25 15 15 25 15 15 25 15 15 25 15 15 25 15 15 25 15 15 25 15 15 25 15 15 25 15 15 25 15 15 25 15 15 25 15 15 25 15 15 25 15 15 25 15 15 25 15 15 25 15 15 25 15 15 25 15 15 25 15 15 25 15 15 25 15 15 25 15 15 25 15 15 25 15 15 25 15 15 25 15 15 25 15 15 25 15 15 25 15 15 25 15 15 25 15 15 25 
15 15 25 15 15 25 15 15 25 15 15 25 15 15 25 15 15 25 15 15 25 15 15 25 15 15 25 15 15 25 15 15 25 15 15 25 15 15 25 15 15 25 15 15 25 15 15 25 15 15 25 15 15 25 15 15 25 15 15 25 15 15 25 15 15 25 15 15 25 15 15 25 15 15 25 15 15 25 15 15 25 15 15 25 15 15 25 15 15 25 15 15 25 15 15 25 15 15 25 15 15 25 15 15 25 15 15 25 15 15 25 15 15 25 15 15 25 15 15 25 15 15 25 15 15 25 15 15 25 15 15 25 15 15 25 15 15 25 15 15 25 15 15 25 15 15 25 15 15 25 15 15 25 15 15 25 15 15 25 15 15 25 15 15 25 15 15 25 15 15 25 15 15 25 15 15 25 15 15 25 15 15 25 15 15 25 15 15 25 15 15 25 15 15 25 15 15 25 15 15 25 15 15 25 15 15 25 15 15 25 15 15 25 15 15 25 15 15 25 15 15 25 15 15 25 15 15 25 15 15 25 15 15 25 15 15 25 15 15 25 15 15 25 15 15 25 15 15 25 15 15 25 15 15 25 15 15 25 15 15 25 15 15 25 15 15 25 15 15 25 15 15 25 15 15 25 15 15 25 15 15 25 15 15 25 15 15 25 15 15 25 15 15 25 15 15 25 15 15 25 15 15 25 15 15 25 15 15 25 15 15 25 15 15 25 15 15 25 15 15 25 15 15 25 15 15 25 15 15 25 15 15 25 15 15 25 15 15 25 15 15 25 0 255 0 15 15 25 15 15 25 15 15 25 15 15 25 15 15 25 15 15 25 15 15 25 15 15 25 15 15 25 15 15 25 15 15 25 15 15 25 15 15 25 15 15 25 15 15 25 15 15 25 15 15 25 15 15 25 15 15 25 15 15 25 15 15 25 15 15 25 15 15 25 15 15 25 15 15 25 15 15 25 255 0 0 15 15 25 15 15 25 15 15 25 15 15 25 15 15 25 15 15 25 15 15 25 15 15 25 15 15 25 15 15 25 15 15 25 15 15 25 15 15 25 15 15 25 15 15 25 15 15 25 15 15 25 15 15 25 15 15 25 15 15 25 15 15 25 15 15 25 15 15 25 15 15 25 15 15 25 15 15 25 15 15 25 15 15 25 15 15 25 15 15 25 15 15 25 15 15 25 15 15 25 15 15 25 15 15 25 15 15 25 15 15 25 15 15 25 15 15 25 15 15 25 15 15 25 15 15 25 15 15 25 15 15 25 15 15 25 15 15 25 15 15 25 15 15 25 15 15 25 15 15 25 15 15 25 15 15 25 15 15 25 15 15 25 15 15 25 15 15 25 15 15 25 15 15 25 15 15 25 15 15 25 15 15 25 15 15 25 15 15 25 15 15 25 15 15 25 15 15 25 15 15 25 15 15 25 15 15 25 15 15 25 15 15 25 15 15 25 15 15 25 15 15 25 15 15 25 15 15 25 15 15 25 15 15 25 15 15 25 15 15 25 15 15 25 15 15 25 15 15 25 15 15 25 15 15 25 15 15 25 15 15 25 15 15 25 15 15 25 15 15 25 15 15 25 15 15 25 15 15 25 15 15 25 15 15 25 15 15 25 15 15 25 15 15 25 15 15 25 15 15 25 15 15 25 15 15 25 15 15 25 15 15 25 15 15 25 15 15 25 15 15 25 15 15 25 15 15 25 15 15 25 15 15 25 15 15 25 15 15 25 15 15 25 
15 15 25 15 15 25 15 15 25 15 15 25 15 15 25 15 15 25 15 15 25 15 15 25 15 15 25 15 15 25 15 15 25 15 15 25 15 15 25 15 15 25 15 15 25 15 15 25 15 15 25 15 15 25 15 15 25 15 15 25 15 15 25 15 15 25 15 15 25 15 15 25 15 15 25 15 15 25 15 15 25 15 15 25 15 15 25 15 15 25 15 15 25 15 15 25 15 15 25 15 15 25 15 15 25 15 15 25 15 15 25 15 15 25 15 15 25 15 15 25 15 15 25 15 15 25 15 15 25 15 15 25 15 15 25 15 15 25 15 15 25 15 15 25 15 15 25 15 15 25 15 15 25 15 15 25 15 15 25 15 15 25 15 15 25 15 15 25 15 15 25 15 15 25 15 15 25 15 15 25 15 15 25 15 15 25 15 15 25 15 15 25 15 15 25 15 15 25 15 15 25 15 15 25 15 15 25 15 15 25 15 15 25 15 15 25 15 15 25 15 15 25 15 15 25 15 15 25 15 15 25 15 15 25 15 15 25 15 15 25 15 15 25 15 15 25 15 15 25 15 15 25 15 15 25 15 15 25 15 15 25 15 15 25 15 15 25 15 15 25 15 15 25 15 15 25 15 15 25 15 15 25 15 15 25 15 15 25 15 15 25 15 15 25 15 15 25 15 15 25 15 15 25 15 15 25 15 15 25 15 15 25 15 15 25 15 15 25 15 15 25 15 15 25 15 15 25 15 15 25 15 15 25 15 15 25 15 15 25 0 255 0 15 15 25 15 15 25 15 15 25 15 15 25 15 15 25 15 15 25 15 15 25 15 15 25 15 15 25 15 15 25 15 15 25 15 15 25 15 15 25 15 15 25 15 15 25 15 15 25 15 15 25 15 15 25 15 15 25 15 15 25 15 15 25 15 15 25 15 15 25 15 15 25 15 15 25 15 15 25 15 15 25 15 15 25 255 0 0 15 15 25 15 15 25 15 15 25 15 15 25 15 15 25 15 15 25 15 15 25 15 15 25 15 15 25 15 15 25 15 15 25 15 15 25 15 15 25 15 15 25 15 15 25 15 15 25 15 15 25 15 15 25 15 15 25 15 15 25 15 15 25 15 15 25 15 15 25 15 15 25 15 15 25 15 15 25 15 15 25 15 15 25 15 15 25 15 15 25 15 15 25 15 15 25 15 15 25 15 15 25 15 15 25 15 15 25 15 15 25 15 15 25 15 15 25 15 15 25 15 15 25 15 15 25 15 15 25 15 15 25 15 15 25 15 15 25 15 15 25 15 15 25 15 15 25 15 15 25 15 15 25 15 15 25 15 15 25 15 15 25 15 15 25 15 15 25 15 15 25 15 15 25 15 15 25 15 15 25 15 15 25 15 15 25 15 15 25 15 15 25 15 15 25 15 15 25 15 15 25 15 15 25 15 15 25 15 15 25 15 15 25 15 15 25 15 15 25 15 15 25 15 15 25 15 15 25 15 15 25 15 15 25 15 15 25 15 15 25 15 15 25 15 15 25 15 15 25 15 15 25 15 15 25 15 15 25 15 15 25 15 15 25 15 15 25 15 15 25 15 15 25 15 15 25 15 15 25 15 15 25 15 15 25 15 15 25 15 15 25 15 15 25 15 15 25 15 15 25 15 15 25 15 15 25 15 15 25 15 15 25 15 15 25 15 15 25 15 15 25 15 15 25 15 15 25 15 15 25 15 15 25 15 15 25 15 15 25 
15 15 25 15 15 25 15 15 25 15 15 25 15 15 25 15 15 25 15 15 25 15 15 25 15 15 25 15 15 25 15 15 25 15 15 25 15 15 25 15 15 25 15 15 25 15 15 25 15 15 25 15 15 25 15 15 25 15 15 25 15 15 25 15 15 25 15 15 25 15 15 25 15 15 25 15 15 25 15 15 25 15 15 25 15 15 25 15 15 25 15 15 25 15 15 25 15 15 25 15 15 25 15 15 25 15 15 25 15 15 25 15 15 25 15 15 25 15 15 25 15 15 25 15 15 25 15 15 25 15 15 25 15 15 25 15 15 25 15 15 25 15 15 25 15 15 25 15 15 25 15 15 25 15 15 25 15 15 25 15 15 25 15 15 25 15 15 25 15 15 25 15 15 25 15 15 25 15 15 25 15 15 25 15 15 25 15 15 25 15 15 25 15 15 25 15 15 25 15 15 25 15 15 25 15 15 25 15 15 25 15 15 25 15 15 25 15 15 25 15 15 25 15 15 25 15 15 25 15 15 25 15 15 25 15 15 25 15 15 25 15 15 25 15 15 25 15 15 25 15 15 25 15 15 25 15 15 25 15 15 25 15 15 25 15 15 25 15 15 25 15 15 25 15 15 25 15 15 25 15 15 25 15 15 25 15 15 25 15 15 25 15 15 25 15 15 25 15 15 25 15 15 25 15 15 25 15 15 25 15 15 25 15 15 25 15 15 25 15 15 25 15 15 25 15 15 25 15 15 25 15 15 25 15 15 25 0 255 0 15 15 25 15 15 25 15 15 25 15 15 25 15 15 25 15 15 25 15 15 25 15 15 25 15 15 25 15 15 25 15 15 25 15 15 25 15 15 25 15 15 25 15 15 25 15 15 25 15 15 25 15 15 25 15 15 25 15 15 25 15 15 25 15 15 25 15 15 25 15 15 25 15 15 25 15 15 25 15 15 25 15 15 25 15 15 25 15 15 25 255 0 0 15 15 25 15 15 25 15 15 25 15 15 25 15 15 25 15 15 25 15 15 25 15 15 25 15 15 25 15 15 25 15 15 25 15 15 25 15 15 25 15 15 25 15 15 25 15 15 25 15 15 25 15 15 25 15 15 25 15 15 25 15 15 25 15 15 25 15 15 25 15 15 25 15 15 25 15 15 25 15 15 25 15 15 25 15 15 25 15 15 25 15 15 25 15 15 25 15 15 25 15 15 25 15 15 25 15 15 25 15 15 25 15 15 25 15 15 25 15 15 25 15 15 25 15 15 25 15 15 25 15 15 25 15 15 25 15 15 25 15 15 25 15 15 25 15 15 25 15 15 25 15 15 25 15 15 25 15 15 25 15 15 25 15 15 25 15 15 25 15 15 25 15 15 25 15 15 25 15 15 25 15 15 25 15 15 25 15 15 25 15 15 25 15 15 25 15 15 25 15 15 25 15 15 25 15 15 25 15 15 25 15 15 25 15 15 25 15 15 25 15 15 25 15 15 25 15 15 25 15 15 25 15 15 25 15 15 25 15 15 25 15 15 25 15 15 25 15 15 25 15 15 25 15 15 25 15 15 25 15 15 25 15 15 25 15 15 25 15 15 25 15 15 25 15 15 25 15 15 25 15 15 25 15 15 25 15 15 25 15 15 25 15 15 25 15 15 25 15 15 25 15 15 25 15 15 25 15 15 25 15 15 25 15 15 25 15 15 25 15 15 25 15 15 25 15 15 25 15 15 25 15 15 25 15 15 25 
15 15 25 15 15 25 15 15 25 15 15 25 15 15 25 15 15 25 15 15 25 15 15 25 15 15 25 15 15 25 15 15 25 15 15 25 15 15 25 15 15 25 15 15 25 15 15 25 15 15 25 15 15 25 15 15 25 15 15 25 15 15 25 15 15 25 15 15 25 15 15 25 15 15 25 15 15 25 15 15 25 15 15 25 15 15 25 15 15 25 15 15 25 15 15 25 15 15 25 15 15 25 15 15 25 15 15 25 15 15 25 15 15 25 15 15 25 15 15 25 15 15 25 15 15 25 15 15 25 15 15 25 15 15 25 15 15 25 15 15 25 15 15 25 15 15 25 15 15 25 15 15 25 15 15 25 15 15 25 15 15 25 15 15 25 15 15 25 15 15 25 15 15 25 15 15 25 15 15 25 15 15 25 15 15 25 15 15 25 15 15 25 15 15 25 15 15 25 15 15 25 15 15 25 15 15 25 15 15 25 15 15 25 15 15 25 15 15 25 15 15 25 15 15 25 15 15 25 15 15 25 15 15 25 15 15 25 15 15 25 15 15 25 15 15 25 15 15 25 15 15 25 15 15 25 15 15 25 15 15 25 15 15 25 15 15 25 15 15 25 15 15 25 15 15 25 15 15 25 15 15 25 15 15 25 15 15 25 15 15 25 15 15 25 15 15 25 15 15 25 15 15 25 15 15 25 15 15 25 15 15 25 15 15 25 15 15 25 15 15 25 15 15 25 15 15 25 15 15 25 15 15 25 0 255 0 15 15 25 15 15 25 15 15 25 15 15 25 15 15 25 15 15 25 15 15 25 15 15 25 15 15 25 15 15 25 15 15 25 15 15 25 15 15 25 15 15 25 15 15 25 15 15 25 15 15 25 15 15 25 15 15 25 15 15 25 15 15 25 15 15 25 15 15 25 15 15 25 15 15 25 15 15 25 15 15 25 15 15 25 15 15 25 15 15 25 15 15 25 15 15 25 255 0 0 15 15 25 15 15 25 15 15 25 15 15 25 15 15 25 15 15 25 15 15 25 15 15 25 15 15 25 15 15 25 15 15 25 15 15 25 15 15 25 15 15 25 15 15 25 15 15 25 15 15 25 15 15 25 15 15 25 15 15 25 15 15 25 15 15 25 15 15 25 15 15 25 15 15 25 15 15 25 15 15 25 15 15 25 15 15 25 15 15 25 15 15 25 15 15 25 15 15 25 15 15 25 15 15 25 15 15 25 15 15 25 15 15 25 15 15 25 15 15 25 15 15 25 15 15 25 15 15 25 15 15 25 15 15 25 15 15 25 15 15 25 15 15 25 15 15 25 15 15 25 15 15 25 15 15 25 15 15 25 15 15 25 15 15 25 15 15 25 15 15 25 15 15 25 15 15 25 15 15 25 15 15 25 15 15 25 15 15 25 15 15 25 15 15 25 15 15 25 15 15 25 15 15 25 15 15 25 15 15 25 15 15 25 15 15 25 15 15 25 15 15 25 15 15 25 15 15 25 15 15 25 15 15 25 15 15 25 15 15 25 15 15 25 15 15 25 15 15 25 15 15 25 15 15 25 15 15 25 15 15 25 15 15 25 15 15 25 15 15 25 15 15 25 15 15 25 15 15 25 15 15 25 15 15 25 15 15 25 15 15 25 15 15 25 15 15 25 15 15 25 15 15 25 15 15 25 15 15 25 15 15 25 15 15 25 15 15 25 15 15 25 15 15 25 15 15 25 15 15 25 15 15 25 
15 15 25 15 15 25 15 15 25 15 15 25 15 15 25 15 15 25 15 15 25 15 15 25 15 15 25 15 15 25 15 15 25 15 15 25 15 15 25 15 15 25 15 15 25 15 15 25 15 15 25 15 15 25 15 15 25 15 15 25 15 15 25 15 15 25 15 15 25 15 15 25 15 15 25 15 15 25 15 15 25 15 15 25 15 15 25 15 15 25 15 15 25 15 15 25 15 15 25 15 15 25 15 15 25 15 15 25 15 15 25 15 15 25 15 15 25 15 15 25 15 15 25 15 15 25 15 15 25 15 15 25 15 15 25 15 15 25 15 15 25 15 15 25 15 15 25 15 15 25 15 15 25 15 15 25 15 15 25 15 15 25 15 15 25 15 15 25 15 15 25 15 15 25 15 15 25 15 15 25 15 15 25 15 15 25 15 15 25 15 15 25 15 15 25 15 15 25 15 15 25 15 15 25 15 15 25 15 15 25 15 15 25 15 15 25 15 15 25 15 15 25 15 15 25 15 15 25 15 15 25 15 15 25 15 15 25 15 15 25 15 15 25 15 15 25 15 15 25 15 15 25 15 15 25 15 15 25 15 15 25 15 15 25 15 15 25 15 15 25 15 15 25 15 15 25 15 15 25 15 15 25 15 15 25 15 15 25 15 15 25 15 15 25 15 15 25 15 15 25 15 15 25 15 15 25 15 15 25 15 15 25 15 15 25 15 15 25 15 15 25 15 15 25 15 15 25 15 15 25 0 255 0 15 15 25 15 15 25 15 15 25 15 15 25 15 15 25 15 15 25 15 15 25 15 15 25 15 15 25 15 15 25 15 15 25 15 15 25 15 15 25 15 15 25 15 15 25 15 15 25 15 15 25 15 15 25 15 15 25 15 15 25 15 15 25 15 15 25 15 15 25 15 15 25 15 15 25 15 15 25 15 15 25 15 15 25 15 15 25 15 15 25 15 15 25 15 15 25 15 15 25 15 15 25 255 0 0 15 15 25 15 15 25 15 15 25 15 15 25 15 15 25 15 15 25 15 15 25 15 15 25 15 15 25 15 15 25 15 15 25 15 15 25 15 15 25 15 15 25 15 15 25 15 15 25 15 15 25 15 15 25 15 15 25 15 15 25 15 15 25 15 15 25 15 15 25 15 15 25 15 15 25 15 15 25 15 15 25 15 15 25 15 15 25 15 15 25 15 15 25 15 15 25 15 15 25 15 15 25 15 15 25 15 15 25 15 15 25 15 15 25 15 15 25 15 15 25 15 15 25 15 15 25 15 15 25 15 15 25 15 15 25 15 15 25 15 15 25 15 15 25 15 15 25 15 15 25 15 15 25 15 15 25 15 15 25 15 15 25 15 15 25 15 15 25 15 15 25 15 15 25 15 15 25 15 15 25 15 15 25 15 15 25 15 15 25 15 15 25 15 15 25 15 15 25 15 15 25 15 15 25 15 15 25 15 15 25 15 15 25 15 15 25 15 15 25 15 15 25 15 15 25 15 15 25 15 15 25 15 15 25 15 15 25 15 15 25 15 15 25 15 15 25 15 15 25 15 15 25 15 15 25 15 15 25 15 15 25 15 15 25 15 15 25 15 15 25 15 15 25 15 15 25 15 15 25 15 15 25 15 15 25 15 15 25 15 15 25 15 15 25 15 15 25 15 15 25 15 15 25 15 15 25 15 15 25 15 15 25 15 15 25 15 15 25 15 15 25 15 15 25 15 15 25 15 15 25 
15 15 25 15 15 25 15 15 25 15 15 25 15 15 25 15 15 25 15 15 25 15 15 25 15 15 25 15 15 25 15 15 25 15 15 25 15 15 25 15 15 25 15 15 25 15 15 25 15 15 25 15 15 25 15 15 25 15 15 25 15 15 25 15 15 25 15 15 25 15 15 25 15 15 25 15 15 25 15 15 25 15 15 25 15 15 25 15 15 25 15 15 25 15 15 25 15 15 25 15 15 25 15 15 25 15 15 25 15 15 25 15 15 25 15 15 25 15 15 25 15 15 25 15 15 25 15 15 25 15 15 25 15 15 25 15 15 25 15 15 25 15 15 25 15 15 25 15 15 25 15 15 25 15 15 25 15 15 25 15 15 25 15 15 25 15 15 25 15 15 25 15 15 25 15 15 25 15 15 25 15 15 25 15 15 25 15 15 25 15 15 25 15 15 25 15 15 25 15 15 25 15 15 25 15 15 25 15 15 25 15 15 25 15 15 25 15 15 25 15 15 25 15 15 25 15 15 25 15 15 25 15 15 25 15 15 25 15 15 25 15 15 25 15 15 25 15 15 25 15 15 25 15 15 25 15 15 25 15 15 25 15 15 25 15 15 25 15 15 25 15 15 25 15 15 25 15 15 25 15 15 25 15 15 25 15 15 25 15 15 25 15 15 25 15 15 25 15 15 25 15 15 25 15 15 25 15 15 25 15 15 25 15 15 25 15 15 25 15 15 25 15 15 25 15 15 25 0 255 0 15 15 25 15 15 25 15 15 25 15 15 25 15 15 25 15 15 25 15 15 25 15 15 25 15 15 25 15 15 25 15 15 25 15 15 25 15 15 25 15 15 25 15 15 25 15 15 25 15 15 25 15 15 25 15 15 25 15 15 25 15 15 25 15 15 25 15 15 25 15 15 25 15 15 25 15 15 25 15 15 25 15 15 25 15 15 25 15 15 25 15 15 25 15 15 25 15 15 25 15 15 25 15 15 25 15 15 25 255 0 0 15 15 25 15 15 25 15 15 25 15 15 25 15 15 25 15 15 25 15 15 25 15 15 25 15 15 25 15 15 25 15 15 25 15 15 25 15 15 25 15 15 25 15 15 25 15 15 25 15 15 25 15 15 25 15 15 25 15 15 25 15 15 25 15 15 25 15 15 25 15 15 25 15 15 25 15 15 25 15 15 25 15 15 25 15 15 25 15 15 25 15 15 25 15 15 25 15 15 25 15 15 25 15 15 25 15 15 25 15 15 25 15 15 25 15 15 25 15 15 25 15 15 25 15 15 25 15 15 25 15 15 25 15 15 25 15 15 25 15 15 25 15 15 25 15 15 25 15 15 25 15 15 25 15 15 25 15 15 25 15 15 25 15 15 25 15 15 25 15 15 25 15 15 25 15 15 25 15 15 25 15 15 25 15 15 25 15 15 25 15 15 25 15 15 25 15 15 25 15 15 25 15 15 25 15 15 25 15 15 25 15 15 25 15 15 25 15 15 25 15 15 25 15 15 25 15 15 25 15 15 25 15 15 25 15 15 25 15 15 25 15 15 25 15 15 25 15 15 25 15 15 25 15 15 25 15 15 25 15 15 25 15 15 25 15 15 25 15 15 25 15 15 25 15 15 25 15 15 25 15 15 25 15 15 25 15 15 25 15 15 25 15 15 25 15 15 25 15 15 25 15 15 25 15 15 25 15 15 25 15 15 25 15 15 25 15 15 25 15 15 25 15 15 25 15 15 25 
15 15 25 15 15 25 15 15 25 15 15 25 15 15 25 15 15 25 15 15 25 15 15 25 15 15 25 15 15 25 15 15 25 15 15 25 15 15 25 15 15 25 15 15 25 15 15 25 15 15 25 15 15 25 15 15 25 15 15 25 15 15 25 15 15 25 15 15 25 15 15 25 15 15 25 15 15 25 15 15 25 15 15 25 15 15 25 15 15 25 15 15 25 15 15 25 15 15 25 15 15 25 15 15 25 15 15 25 15 15 25 15 15 25 15 15 25 15 15 25 15 15 25 15 15 25 15 15 25 15 15 25 15 15 25 15 15 25 15 15 25 15 15 25 15 15 25 15 15 25 15 15 25 15 15 25 15 15 25 15 15 25 15 15 25 15 15 25 15 15 25 15 15 25 15 15 25 15 15 25 15 15 25 15 15 25 15 15 25 15 15 25 15 15 25 15 15 25 15 15 25 15 15 25 15 15 25 15 15 25 15 15 25 15 15 25 15 15 25 15 15 25 15 15 25 15 15 25 15 15 25 15 15 25 15 15 25 15 15 25 15 15 25 15 15 25 15 15 25 15 15 25 15 15 25 15 15 25 15 15 25 15 15 25 15 15 25 15 15 25 15 15 25 15 15 25 15 15 25 15 15 25 15 15 25 15 15 25 15 15 25 15 15 25 15 15 25 15 15 25 15 15 25 15 15 25 15 15 25 15 15 25 15 15 25 15 15 25 15 15 25 15 15 25 0 255 0 15 15 25 15 15 25 15 15 25 15 15 25 15 15 25 15 15 25 15 15 25 15 15 25 15 15 25 15 15 25 15 15 25 15 15 25 15 15 25 15 15 25 15 15 25 15 15 25 15 15 25 15 15 25 15 15 25 15 15 25 15 15 25 15 15 25 15 15 25 15 15 25 15 15 25 15 15 25 15 15 25 15 15 25 15 15 25 15 15 25 15 15 25 15 15 25 15 15 25 15 15 25 15 15 25 15 15 25 15 15 25 15 15 25 255 0 0 15 15 25 15 15 25 15 15 25 15 15 25 15 15 25 15 15 25 15 15 25 15 15 25 15 15 25 15 15 25 15 15 25 15 15 25 15 15 25 15 15 25 15 15 25 15 15 25 15 15 25 15 15 25 15 15 25 15 15 25 15 15 25 15 15 25 15 15 25 15 15 25 15 15 25 15 15 25 15 15 25 15 15 25 15 15 25 15 15 25 15 15 25 15 15 25 15 15 25 15 15 25 15 15 25 15 15 25 15 15 25 15 15 25 15 15 25 15 15 25 15 15 25 15 15 25 15 15 25 15 15 25 15 15 25 15 15 25 15 15 25 15 15 25 15 15 25 15 15 25 15 15 25 15 15 25 15 15 25 15 15 25 15 15 25 15 15 25 15 15 25 15 15 25 15 15 25 15 15 25 15 15 25 15 15 25 15 15 25 15 15 25 15 15 25 15 15 25 15 15 25 15 15 25 15 15 25 15 15 25 15 15 25 15 15 25 15 15 25 15 15 25 15 15 25 15 15 25 15 15 25 15 15 25 15 15 25 15 15 25 15 15 25 15 15 25 15 15 25 15 15 25 15 15 25 15 15 25 15 15 25 15 15 25 15 15 25 15 15 25 15 15 25 15 15 25 15 15 25 15 15 25 15 15 25 15 15 25 15 15 25 15 15 25 15 15 25 15 15 25 15 15 25 15 15 25 15 15 25 15 15 25 15 15 25 15 15 25 15 15 25 15 15 25 
15 15 25 15 15 25 15 15 25 15 15 25 15 15 25 15 15 25 15 15 25 15 15 25 15 15 25 15 15 25 15 15 25 15 15 25 15 15 25 15 15 25 15 15 25 15 15 25 15 15 25 15 15 25 15 15 25 15 15 25 15 15 25 15 15 25 15 15 25 15 15 25 15 15 25 15 15 25 15 15 25 15 15 25 15 15 25 15 15 25 15 15 25 15 15 25 15 15 25 15 15 25 15 15 25 15 15 25 15 15 25 15 15 25 15 15 25 15 15 25 15 15 25 15 15 25 15 15 25 15 15 25 15 15 25 15 15 25 15 15 25 15 15 25 15 15 25 15 15 25 15 15 25 15 15 25 15 15 25 15 15 25 15 15 25 15 15 25 15 15 25 15 15 25 15 15 25 15 15 25 15 15 25 15 15 25 15 15 25 15 15 25 15 15 25 15 15 25 15 15 25 15 15 25 15 15 25 15 15 25 15 15 25 15 15 25 15 15 25 15 15 25 15 15 25 15 15 25 15 15 25 15 15 25 15 15 25 15 15 25 15 15 25 15 15 25 15 15 25 15 15 25 15 15 25 15 15 25 15 15 25 15 15 25 15 15 25 15 15 25 15 15 25 15 15 25 15 15 25 15 15 25 15 15 25 15 15 25 15 15 25 15 15 25 15 15 25 15 15 25 15 15 25 15 15 25 15 15 25 15 15 25 15 15 25 15 15 25 15 15 25 0 255 0 15 15 25 15 15 25 15 15 25 15 15 25 15 15 25 15 15 25 15 15 25 15 15 25 15 15 25 15 15 25 15 15 25 15 15 25 15 15 25 15 15 25 15 15 25 15 15 25 15 15 25 15 15 25 15 15 25 15 15 25 15 15 25 15 15 25 15 15 25 15 15 25 15 15 25 15 15 25 15 15 25 15 15 25 15 15 25 15 15 25 15 15 25 15 15 25 15 15 25 15 15 25 15 15 25 15 15 25 15 15 25 15 15 25 15 15 25 15 15 25 255 0 0 15 15 25 15 15 25 15 15 25 15 15 25 15 15 25 15 15 25 15 15 25 15 15 25 15 15 25 15 15 25 15 15 25 15 15 25 15 15 25 15 15 25 15 15 25 15 15 25 15 15 25 15 15 25 15 15 25 15 15 25 15 15 25 15 15 25 15 15 25 15 15 25 15 15 25 15 15 25 15 15 25 15 15 25 15 15 25 15 15 25 15 15 25 15 15 25 15 15 25 15 15 25 15 15 25 15 15 25 15 15 25 15 15 25 15 15 25 15 15 25 15 15 25 15 15 25 15 15 25 15 15 25 15 15 25 15 15 25 15 15 25 15 15 25 15 15 25 15 15 25 15 15 25 15 15 25 15 15 25 15 15 25 15 15 25 15 15 25 15 15 25 15 15 25 15 15 25 15 15 25 15 15 25 15 15 25 15 15 25 15 15 25 15 15 25 15 15 25 15 15 25 15 15 25 15 15 25 15 15 25 15 15 25 15 15 25 15 15 25 15 15 25 15 15 25 15 15 25 15 15 25 15 15 25 15 15 25 15 15 25 15 15 25 15 15 25 15 15 25 15 15 25 15 15 25 15 15 25 15 15 25 15 15 25 15 15 25 15 15 25 15 15 25 15 15 25 15 15 25 15 15 25 15 15 25 15 15 25 15 15 25 15 15 25 15 15 25 15 15 25 15 15 25 15 15 25 15 15 25 15 15 25 15 15 25 15 15 25 15 15 25 
15 15 25 15 15 25 15 15 25 15 15 25 15 15 25 15 15 25 15 15 25 15 15 25 15 15 25 15 15 25 15 15 25 15 15 25 15 15 25 15 15 25 15 15 25 15 15 25 15 15 25 15 15 25 15 15 25 15 15 25 15 15 25 15 15 25 15 15 25 15 15 25 15 15 25 15 15 25 15 15 25 15 15 25 15 15 25 15 15 25 15 15 25 15 15 25 15 15 25 15 15 25 15 15 25 15 15 25 15 15 25 15 15 25 15 15 25 15 15 25 15 15 25 15 15 25 15 15 25 15 15 25 15 15 25 15 15 25 15 15 25 15 15 25 15 15 25 15 15 25 15 15 25 15 15 25 15 15 25 15 15 25 15 15 25 15 15 25 15 15 25 15 15 25 15 15 25 15 15 25 15 15 25 15 15 25 15 15 25 15 15 25 15 15 25 15 15 25 15 15 25 15 15 25 15 15 25 15 15 25 15 15 25 15 15 25 15 15 25 15 15 25 15 15 25 15 15 25 15 15 25 15 15 25 15 15 25 15 15 25 15 15 25 15 15 25 15 15 25 15 15 25 15 15 25 15 15 25 15 15 25 15 15 25 15 15 25 15 15 25 15 15 25 15 15 25 15 15 25 15 15 25 15 15 25 15 15 25 15 15 25 15 15 25 15 15 25 15 15 25 15 15 25 15 15 25 15 15 25 15 15 25 15 15 25 15 15 25 0 255 0 15 15 25 15 15 25 15 15 25 15 15 25 15 15 25 15 15 25 15 15 25 15 15 25 15 15 25 15 15 25 15 15 25 15 15 25 15 15 25 15 15 25 15 15 25 15 15 25 15 15 25 15 15 25 15 15 25 15 15 25 15 15 25 15 15 25 15 15 25 15 15 25 15 15 25 15 15 25 15 15 25 15 15 25 15 15 25 15 15 25 15 15 25 15 15 25 15 15 25 15 15 25 15 15 25 15 15 25 15 15 25 15 15 25 15 15 25 15 15 25 15 15 25 15 15 25 255 0 0 15 15 25 15 15 25 15 15 25 15 15 25 15 15 25 15 15 25 15 15 25 15 15 25 15 15 25 15 15 25 15 15 25 15 15 25 15 15 25 15 15 25 15 15 25 15 15 25 15 15 25 15 15 25 15 15 25 15 15 25 15 15 25 15 15 25 15 15 25 15 15 25 15 15 25 15 15 25 15 15 25 15 15 25 15 15 25 15 15 25 15 15 25 15 15 25 15 15 25 15 15 25 15 15 25 15 15 25 15 15 25 15 15 25 15 15 25 15 15 25 15 15 25 15 15 25 15 15 25 15 15 25 15 15 25 15 15 25 15 15 25 15 15 25 15 15 25 15 15 25 15 15 25 15 15 25 15 15 25 15 15 25 15 15 25 15 15 25 15 15 25 15 15 25 15 15 25 15 15 25 15 15 25 15 15 25 15 15 25 15 15 25 15 15 25 15 15 25 15 15 25 15 15 25 15 15 25 15 15 25 15 15 25 15 15 25 15 15 25 15 15 25 15 15 25 15 15 25 15 15 25 15 15 25 15 15 25 15 15 25 15 15 25 15 15 25 15 15 25 15 15 25 15 15 25 15 15 25 15 15 25 15 15 25 15 15 25 15 15 25 15 15 25 15 15 25 15 15 25 15 15 25 15 15 25 15 15 25 15 15 25 15 15 25 15 15 25 15 15 25 15 15 25 15 15 25 15 15 25 15 15 25 15 15 25 15 15 25 
15 15 25 15 15 25 15 15 25 15 15 25 15 15 25 15 15 25 15 15 25 15 15 25 15 15 25 15 15 25 15 15 25 15 15 25 15 15 25 15 15 25 15 15 25 15 15 25 15 15 25 15 15 25 15 15 25 15 15 25 15 15 25 15 15 25 15 15 25 15 15 25 15 15 25 15 15 25 15 15 25 15 15 25 15 15 25 15 15 25 15 15 25 15 15 25 15 15 25 15 15 25 15 15 25 15 15 25 15 15 25 15 15 25 15 15 25 15 15 25 15 15 25 15 15 25 15 15 25 15 15 25 15 15 25 15 15 25 15 15 25 15 15 25 15 15 25 15 15 25 15 15 25 15 15 25 15 15 25 15 15 25 15 15 25 15 15 25 15 15 25 15 15 25 15 15 25 15 15 25 15 15 25 15 15 25 15 15 25 15 15 25 15 15 25 15 15 25 15 15 25 15 15 25 15 15 25 15 15 25 15 15 25 15 15 25 15 15 25 15 15 25 15 15 25 15 15 25 15 15 25 15 15 25 15 15 25 15 15 25 15 15 25 15 15 25 15 15 25 15 15 25 15 15 25 15 15 25 15 15 25 15 15 25 15 15 25 15 15 25 15 15 25 15 15 25 15 15 25 15 15 25 15 15 25 15 15 25 15 15 25 15 15 25 15 15 25 15 15 25 15 15 25 15 15 25 15 15 25 15 15 25 15 15 25 0 255 0 15 15 25 15 15 25 15 15 25 15 15 25 15 15 25 15 15 25 15 15 25 15 15 25 15 15 25 15 15 25 15 15 25 15 15 25 15 15 25 15 15 25 15 15 25 15 15 25 15 15 25 15 15 25 15 15 25 15 15 25 15 15 25 15 15 25 15 15 25 15 15 25 15 15 25 15 15 25 15 15 25 15 15 25 15 15 25 15 15 25 15 15 25 15 15 25 15 15 25 15 15 25 15 15 25 15 15 25 15 15 25 15 15 25 15 15 25 15 15 25 15 15 25 15 15 25 15 15 25 15 15 25 255 0 0 15 15 25 15 15 25 15 15 25 15 15 25 15 15 25 15 15 25 15 15 25 15 15 25 15 15 25 15 15 25 15 15 25 15 15 25 15 15 25 15 15 25 15 15 25 15 15 25 15 15 25 15 15 25 15 15 25 15 15 25 15 15 25 15 15 25 15 15 25 15 15 25 15 15 25 15 15 25 15 15 25 15 15 25 15 15 25 15 15 25 15 15 25 15 15 25 15 15 25 15 15 25 15 15 25 15 15 25 15 15 25 15 15 25 15 15 25 15 15 25 15 15 25 15 15 25 15 15 25 15 15 25 15 15 25 15 15 25 15 15 25 15 15 25 15 15 25 15 15 25 15 15 25 15 15 25 15 15 25 15 15 25 15 15 25 15 15 25 15 15 25 15 15 25 15 15 25 15 15 25 15 15 25 15 15 25 15 15 25 15 15 25 15 15 25 15 15 25 15 15 25 15 15 25 15 15 25 15 15 25 15 15 25 15 15 25 15 15 25 15 15 25 15 15 25 15 15 25 15 15 25 15 15 25 15 15 25 15 15 25 15 15 25 15 15 25 15 15 25 15 15 25 15 15 25 15 15 25 15 15 25 15 15 25 15 15 25 15 15 25 15 15 25 15 15 25 15 15 25 15 15 25 15 15 25 15 15 25 15 15 25 15 15 25 15 15 25 15 15 25 15 15 25 15 15 25 15 15 25 15 15 25 15 15 25 
15 15 25 15 15 25 15 15 25 15 15 25 15 15 25 15 15 25 15 15 25 15 15 25 15 15 25 15 15 25 15 15 25 15 15 25 15 15 25 15 15 25 15 15 25 15 15 25 15 15 25 15 15 25 15 15 25 15 15 25 15 15 25 15 15 25 15 15 25 15 15 25 15 15 25 15 15 25 15 15 25 15 15 25 15 15 25 15 15 25 15 15 25 15 15 25 15 15 25 15 15 25 15 15 25 15 15 25 15 15 25 15 15 25 15 15 25 15 15 25 15 15 25 15 15 25 15 15 25 15 15 25 15 15 25 15 15 25 15 15 25 15 15 25 15 15 25 15 15 25 15 15 25 15 15 25 15 15 25 15 15 25 15 15 25 15 15 25 15 15 25 15 15 25 15 15 25 15 15 25 15 15 25 15 15 25 15 15 25 15 15 25 15 15 25 15 15 25 15 15 25 15 15 25 15 15 25 15 15 25 15 15 25 15 15 25 15 15 25 15 15 25 15 15 25 15 15 25 15 15 25 15 15 25 15 15 25 15 15 25 15 15 25 15 15 25 15 15 25 15 15 25 15 15 25 15 15 25 15 15 25 15 15 25 15 15 25 15 15 25 15 15 25 15 15 25 15 15 25 15 15 25 15 15 25 15 15 25 15 15 25 15 15 25 15 15 25 15 15 25 15 15 25 15 15 25 15 15 25 15 15 25 0 255 0 15 15 25 15 15 25 15 15 25 15 15 25 15 15 25 15 15 25 15 15 25 15 15 25 15 15 25 15 15 25 15 15 25 15 15 25 15 15 25 15 15 25 15 15 25 15 15 25 15 15 25 15 15 25 15 15 25 15 15 25 15 15 25 15 15 25 15 15 25 15 15 25 15 15 25 15 15 25 15 15 25 15 15 25 15 15 25 15 15 25 15 15 25 15 15 25 15 15 25 15 15 25 15 15 25 15 15 25 15 15 25 15 15 25 15 15 25 15 15 25 15 15 25 15 15 25 15 15 25 15 15 25 15 15 25 15 15 25 255 0 0 15 15 25 15 15 25 15 15 25 15 15 25 15 15 25 15 15 25 15 15 25 15 15 25 15 15 25 15 15 25 15 15 25 15 15 25 15 15 25 15 15 25 15 15 25 15 15 25 15 15 25 15 15 25 15 15 25 15 15 25 15 15 25 15 15 25 15 15 25 15 15 25 15 15 25 15 15 25 15 15 25 15 15 25 15 15 25 15 15 25 15 15 25 15 15 25 15 15 25 15 15 25 15 15 25 15 15 25 15 15 25 15 15 25 15 15 25 15 15 25 15 15 25 15 15 25 15 15 25 15 15 25 15 15 25 15 15 25 15 15 25 15 15 25 15 15 25 15 15 25 15 15 25 15 15 25 15 15 25 15 15 25 15 15 25 15 15 25 15 15 25 15 15 25 15 15 25 15 15 25 15 15 25 15 15 25 15 15 25 15 15 25 15 15 25 15 15 25 15 15 25 15 15 25 15 15 25 15 15 25 15 15 25 15 15 25 15 15 25 15 15 25 15 15 25 15 15 25 15 15 25 15 15 25 15 15 25 15 15 25 15 15 25 15 15 25 15 15 25 15 15 25 15 15 25 15 15 25 15 15 25 15 15 25 15 15 25 15 15 25 15 15 25 15 15 25 15 15 25 15 15 25 15 15 25 15 15 25 15 15 25 15 15 25 15 15 25 15 15 25 15 15 25 15 15 25 15 15 25 15 15 25 
15 15 25 15 15 25 15 15 25 15 15 25 15 15 25 15 15 25 15 15 25 15 15 25 15 15 25 15 15 25 15 15 25 15 15 25 15 15 25 15 15 25 15 15 25 15 15 25 15 15 25 15 15 25 15 15 25 15 15 25 15 15 25 15 15 25 15 15 25 15 15 25 15 15 25 15 15 25 15 15 25 15 15 25 15 15 25 15 15 25 15 15 25 15 15 25 15 15 25 15 15 25 15 15 25 15 15 25 15 15 25 15 15 25 15 15 25 15 15 25 15 15 25 15 15 25 15 15 25 15 15 25 15 15 25 15 15 25 15 15 25 15 15 25 15 15 25 15 15 25 15 15 25 15 15 25 15 15 25 15 15 25 15 15 25 15 15 25 15 15 25 15 15 25 15 15 25 15 15 25 15 15 25 15 15 25 15 15 25 15 15 25 15 15 25 15 15 25 15 15 25 15 15 25 15 15 25 15 15 25 15 15 25 15 15 25 15 15 25 15 15 25 15 15 25 15 15 25 15 15 25 15 15 25 15 15 25 15 15 25 15 15 25 15 15 25 15 15 25 15 15 25 15 15 25 15 15 25 15 15 25 15 15 25 15 15 25 15 15 25 15 15 25 15 15 25 15 15 25 15 15 25 15 15 25 15 15 25 15 15 25 15 15 25 15 15 25 15 15 25 15 15 25 15 15 25 15 15 25 0 255 0 15 15 25 15 15 25 15 15 25 15 15 25 15 15 25 15 15 25 15 15 25 15 15 25 15 15 25 15 15 25 15 15 25 15 15 25 15 15 25 15 15 25 15 15 25 15 15 25 15 15 25 15 15 25 15 15 25 15 15 25 15 15 25 15 15 25 15 15 25 15 15 25 15 15 25 15 15 25 15 15 25 15 15 25 15 15 25 15 15 25 15 15 25 15 15 25 15 15 25 15 15 25 15 15 25 15 15 25 15 15 25 15 15 25 15 15 25 15 15 25 15 15 25 15 15 25 15 15 25 15 15 25 15 15 25 15 15 25 15 15 25 15 15 25 255 0 0 15 15 25 15 15 25 15 15 25 15 15 25 15 15 25 15 15 25 15 15 25 15 15 25 15 15 25 15 15 25 15 15 25 15 15 25 15 15 25 15 15 25 15 15 25 15 15 25 15 15 25 15 15 25 15 15 25 15 15 25 15 15 25 15 15 25 15 15 25 15 15 25 15 15 25 15 15 25 15 15 25 15 15 25 15 15 25 15 15 25 15 15 25 15 15 25 15 15 25 15 15 25 15 15 25 15 15 25 15 15 25 15 15 25 15 15 25 15 15 25 15 15 25 15 15 25 15 15 25 15 15 25 15 15 25 15 15 25 15 15 25 15 15 25 15 15 25 15 15 25 15 15 25 15 15 25 15 15 25 15 15 25 15 15 25 15 15 25 15 15 25 15 15 25 15 15 25 15 15 25 15 15 25 15 15 25 15 15 25 15 15 25 15 15 25 15 15 25 15 15 25 15 15 25 15 15 25 15 15 25 15 15 25 15 15 25 15 15 25 15 15 25 15 15 25 15 15 25 15 15 25 15 15 25 15 15 25 15 15 25 15 15 25 15 15 25 15 15 25 15 15 25 15 15 25 15 15 25 15 15 25 15 15 25 15 15 25 15 15 25 15 15 25 15 15 25 15 15 25 15 15 25 15 15 25 15 15 25 15 15 25 15 15 25 15 15 25 15 15 25 15 15 25 15 15 25 15 15 25 
15 15 25 15 15 25 15 15 25 15 15 25 15 15 25 15 15 25 15 15 25 15 15 25 15 15 25 15 15 25 15 15 25 15 15 25 15 15 25 15 15 25 15 15 25 15 15 25 15 15 25 15 15 25 15 15 25 15 15 25 15 15 25 15 15 25 15 15 25 15 15 25 15 15 25 15 15 25 15 15 25 15 15 25 15 15 25 15 15 25 15 15 25 15 15 25 15 15 25 15 15 25 15 15 25 15 15 25 15 15 25 15 15 25 15 15 25 15 15 25 15 15 25 15 15 25 15 15 25 15 15 25 15 15 25 15 15 25 15 15 25 15 15 25 15 15 25 15 15 25 15 15 25 15 15 25 15 15 25 15 15 25 15 15 25 15 15 25 15 15 25 15 15 25 15 15 25 15 15 25 15 15 25 15 15 25 15 15 25 15 15 25 15 15 25 15 15 25 15 15 25 15 15 25 15 15 25 15 15 25 15 15 25 15 15 25 15 15 25 15 15 25 15 15 25 15 15 25 15 15 25 15 15 25 15 15 25 15 15 25 15 15 25 15 15 25 15 15 25 15 15 25 15 15 25 15 15 25 15 15 25 15 15 25 15 15 25 15 15 25 15 15 25 15 15 25 15 15 25 15 15 25 15 15 25 15 15 25 15 15 25 15 15 25 15 15 25 15 15 25 15 15 25 15 15 25 0 255 0 15 15 25 15 15 25 15 15 25 15 15 25 15 15 25 15 15 25 15 15 25 15 15 25 15 15 25 15 15 25 15 15 25 15 15 25 15 15 25 15 15 25 15 15 25 15 15 25 15 15 25 15 15 25 15 15 25 15 15 25 15 15 25 15 15 25 15 15 25 15 15 25 15 15 25 15 15 25 15 15 25 15 15 25 15 15 25 15 15 25 15 15 25 15 15 25 15 15 25 15 15 25 15 15 25 15 15 25 15 15 25 15 15 25 15 15 25 15 15 25 15 15 25 15 15 25 15 15 25 15 15 25 15 15 25 15 15 25 15 15 25 15 15 25 15 15 25 15 15 25 255 0 0 15 15 25 15 15 25 15 15 25 15 15 25 15 15 25 15 15 25 15 15 25 15 15 25 15 15 25 15 15 25 15 15 25 15 15 25 15 15 25 15 15 25 15 15 25 15 15 25 15 15 25 15 15 25 15 15 25 15 15 25 15 15 25 15 15 25 15 15 25 15 15 25 15 15 25 15 15 25 15 15 25 15 15 25 15 15 25 15 15 25 15 15 25 15 15 25 15 15 25 15 15 25 15 15 25 15 15 25 15 15 25 15 15 25 15 15 25 15 15 25 15 15 25 15 15 25 15 15 25 15 15 25 15 15 25 15 15 25 15 15 25 15 15 25 15 15 25 15 15 25 15 15 25 15 15 25 15 15 25 15 15 25 15 15 25 15 15 25 15 15 25 15 15 25 15 15 25 15 15 25 15 15 25 15 15 25 15 15 25 15 15 25 15 15 25 15 15 25 15 15 25 15 15 25 15 15 25 15 15 25 15 15 25 15 15 25 15 15 25 15 15 25 15 15 25 15 15 25 15 15 25 15 15 25 15 15 25 15 15 25 15 15 25 15 15 25 15 15 25 15 15 25 15 15 25 15 15 25 15 15 25 15 15 25 15 15 25 15 15 25 15 15 25 15 15 25 15 15 25 15 15 25 15 15 25 15 15 25 15 15 25 15 15 25 15 15 25 15 15 25 15 15 25 15 15 25 
15 15 25 15 15 25 15 15 25 15 15 25 15 15 25 15 15 25 15 15 25 15 15 25 15 15 25 15 15 25 15 15 25 15 15 25 15 15 25 15 15 25 15 15 25 15 15 25 15 15 25 15 15 25 15 15 25 15 15 25 15 15 25 15 15 25 15 15 25 15 15 25 15 15 25 15 15 25 15 15 25 15 15 25 15 15 25 15 15 25 15 15 25 15 15 25 15 15 25 15 15 25 15 15 25 15 15 25 15 15 25 15 15 25 15 15 25 15 15 25 15 15 25 15 15 25 15 15 25 15 15 25 15 15 25 15 15 25 15 15 25 15 15 25 15 15 25 15 15 25 15 15 25 15 15 25 15 15 25 15 15 25 15 15 25 15 15 25 15 15 25 15 15 25 15 15 25 15 15 25 15 15 25 15 15 25 15 15 25 15 15 25 15 15 25 15 15 25 15 15 25 15 15 25 15 15 25 15 15 25 15 15 25 15 15 25 15 15 25 15 15 25 15 15 25 15 15 25 15 15 25 15 15 25 15 15 25 15 15 25 15 15 25 15 15 25 15 15 25 15 15 25 15 15 25 15 15 25 15 15 25 15 15 25 15 15 25 15 15 25 15 15 25 15 15 25 15 15 25 15 15 25 15 15 25 15 15 25 15 15 25 15 15 25 15 15 25 15 15 25 15 15 25 0 255 0 15 15 25 15 15 25 15 15 25 15 15 25 15 15 25 15 15 25 15 15 25 15 15 25 15 15 25 15 15 25 15 15 25 15 15 25 15 15 25 15 15 25 15 15 25 15 15 25 15 15 25 15 15 25 15 15 25 15 15 25 15 15 25 15 15 25 15 15 25 15 15 25 15 15 25 15 15 25 15 15 25 15 15 25 15 15 25 15 15 25 15 15 25 15 15 25 15 15 25 15 15 25 15 15 25 15 15 25 15 15 25 15 15 25 15 15 25 15 15 25 15 15 25 15 15 25 15 15 25 15 15 25 15 15 25 15 15 25 15 15 25 15 15 25 15 15 25 15 15 25 15 15 25 15 15 25 255 0 0 15 15 25 15 15 25 15 15 25 15 15 25 15 15 25 15 15 25 15 15 25 15 15 25 15 15 25 15 15 25 15 15 25 15 15 25 15 15 25 15 15 25 15 15 25 15 15 25 15 15 25 15 15 25 15 15 25 15 15 25 15 15 25 15 15 25 15 15 25 15 15 25 15 15 25 15 15 25 15 15 25 15 15 25 15 15 25 15 15 25 15 15 25 15 15 25 15 15 25 15 15 25 15 15 25 15 15 25 15 15 25 15 15 25 15 15 25 15 15 25 15 15 25 15 15 25 15 15 25 15 15 25 15 15 25 15 15 25 15 15 25 15 15 25 15 15 25 15 15 25 15 15 25 15 15 25 15 15 25 15 15 25 15 15 25 15 15 25 15 15 25 15 15 25 15 15 25 15 15 25 15 15 25 15 15 25 15 15 25 15 15 25 15 15 25 15 15 25 15 15 25 15 15 25 15 15 25 15 15 25 15 15 25 15 15 25 15 15 25 15 15 25 15 15 25 15 15 25 15 15 25 15 15 25 15 15 25 15 15 25 15 15 25 15 15 25 15 15 25 15 15 25 15 15 25 15 15 25 15 15 25 15 15 25 15 15 25 15 15 25 15 15 25 15 15 25 15 15 25 15 15 25 15 15 25 15 15 25 15 15 25 15 15 25 15 15 25 15 15 25 15 15 25 
15 15 25 15 15 25 15 15 25 15 15 25 15 15 25 15 15 25 15 15 25 15 15 25 15 15 25 15 15 25 15 15 25 15 15 25 15 15 25 15 15 25 15 15 25 15 15 25 15 15 25 15 15 25 15 15 25 15 15 25 15 15 25 15 15 25 15 15 25 15 15 25 15 15 25 15 15 25 15 15 25 15 15 25 15 15 25 15 15 25 15 15 25 15 15 25 15 15 25 15 15 25 15 15 25 15 15 25 15 15 25 15 15 25 15 15 25 15 15 25 15 15 25 15 15 25 15 15 25 15 15 25 15 15 25 15 15 25 15 15 25 15 15 25 15 15 25 15 15 25 15 15 25 15 15 25 15 15 25 15 15 25 15 15 25 15 15 25 15 15 25 15 15 25 15 15 25 15 15 25 15 15 25 15 15 25 15 15 25 15 15 25 15 15 25 15 15 25 15 15 25 15 15 25 15 15 25 15 15 25 15 15 25 15 15 25 15 15 25 15 15 25 15 15 25 15 15 25 15 15 25 15 15 25 15 15 25 15 15 25 15 15 25 15 15 25 15 15 25 15 15 25 15 15 25 15 15 25 15 15 25 15 15 25 15 15 25 15 15 25 15 15 25 15 15 25 15 15 25 15 15 25 15 15 25 15 15 25 15 15 25 15 15 25 15 15 25 15 15 25 0 255 0 15 15 25 15 15 25 15 15 25 15 15 25 15 15 25 15 15 25 15 15 25 15 15 25 15 15 25 15 15 25 15 15 25 15 15 25 15 15 25 15 15 25 15 15 25 15 15 25 15 15 25 15 15 25 15 15 25 15 15 25 15 15 25 15 15 25 15 15 25 15 15 25 15 15 25 15 15 25 15 15 25 15 15 25 15 15 25 15 15 25 15 15 25 15 15 25 15 15 25 15 15 25 15 15 25 15 15 25 15 15 25 15 15 25 15 15 25 15 15 25 15 15 25 15 15 25 15 15 25 15 15 25 15 15 25 15 15 25 15 15 25 15 15 25 15 15 25 15 15 25 15 15 25 15 15 25 15 15 25 15 15 25 255 0 0 15 15 25 15 15 25 15 15 25 15 15 25 15 15 25 15 15 25 15 15 25 15 15 25 15 15 25 15 15 25 15 15 25 15 15 25 15 15 25 15 15 25 15 15 25 15 15 25 15 15 25 15 15 25 15 15 25 15 15 25 15 15 25 15 15 25 15 15 25 15 15 25 15 15 25 15 15 25 15 15 25 15 15 25 15 15 25 15 15 25 15 15 25 15 15 25 15 15 25 15 15 25 15 15 25 15 15 25 15 15 25 15 15 25 15 15 25 15 15 25 15 15 25 15 15 25 15 15 25 15 15 25 15 15 25 15 15 25 15 15 25 15 15 25 15 15 25 15 15 25 15 15 25 15 15 25 15 15 25 15 15 25 15 15 25 15 15 25 15 15 25 15 15 25 15 15 25 15 15 25 15 15 25 15 15 25 15 15 25 15 15 25 15 15 25 15 15 25 15 15 25 15 15 25 15 15 25 15 15 25 15 15 25 15 15 25 15 15 25 15 15 25 15 15 25 15 15 25 15 15 25 15 15 25 15 15 25 15 15 25 15 15 25 15 15 25 15 15 25 15 15 25 15 15 25 15 15 25 15 15 25 15 15 25 15 15 25 15 15 25 15 15 25 15 15 25 15 15 25 15 15 25 15 15 25 15 15 25 15 15 25 15 15 25 15 15 25 15 15 25 
15 15 25 15 15 25 15 15 25 15 15 25 15 15 25 15 15 25 15 15 25 15 15 25 15 15 25 15 15 25 15 15 25 15 15 25 15 15 25 15 15 25 15 15 25 15 15 25 15 15 25 15 15 25 15 15 25 15 15 25 15 15 25 15 15 25 15 15 25 15 15 25 15 15 25 15 15 25 15 15 25 15 15 25 15 15 25 15 15 25 15 15 25 15 15 25 15 15 25 15 15 25 15 15 25 15 15 25 15 15 25 15 15 25 15 15 25 15 15 25 15 15 25 15 15 25 15 15 25 15 15 25 15 15 25 15 15 25 15 15 25 15 15 25 15 15 25 15 15 25 15 15 25 15 15 25 15 15 25 15 15 25 15 15 25 15 15 25 15 15 25 15 15 25 15 15 25 15 15 25 15 15 25 15 15 25 15 15 25 15 15 25 15 15 25 15 15 25 15 15 25 15 15 25 15 15 25 15 15 25 15 15 25 15 15 25 15 15 25 15 15 25 15 15 25 15 15 25 15 15 25 15 15 25 15 15 25 15 15 25 15 15 25 15 15 25 15 15 25 15 15 25 15 15 25 15 15 25 15 15 25 15 15 25 15 15 25 15 15 25 15 15 25 15 15 25 15 15 25 15 15 25 15 15 25 15 15 25 15 15 25 15 15 25 15 15 25 0 255 0 15 15 25 15 15 25 15 15 25 15 15 25 15 15 25 15 15 25 15 15 25 15 15 25 15 15 25 15 15 25 15 15 25 15 15 25 15 15 25 15 15 25 15 15 25 15 15 25 15 15 25 15 15 25 15 15 25 15 15 25 15 15 25 15 15 25 15 15 25 15 15 25 15 15 25 15 15 25 15 15 25 15 15 25 15 15 25 15 15 25 15 15 25 15 15 25 15 15 25 15 15 25 15 15 25 15 15 25 15 15 25 15 15 25 15 15 25 15 15 25 15 15 25 15 15 25 15 15 25 15 15 25 15 15 25 15 15 25 15 15 25 15 15 25 15 15 25 15 15 25 15 15 25 15 15 25 15 15 25 15 15 25 15 15 25 15 15 25 255 0 0 15 15 25 15 15 25 15 15 25 15 15 25 15 15 25 15 15 25 15 15 25 15 15 25 15 15 25 15 15 25 15 15 25 15 15 25 15 15 25 15 15 25 15 15 25 15 15 25 15 15 25 15 15 25 15 15 25 15 15 25 15 15 25 15 15 25 15 15 25 15 15 25 15 15 25 15 15 25 15 15 25 15 15 25 15 15 25 15 15 25 15 15 25 15 15 25 15 15 25 15 15 25 15 15 25 15 15 25 15 15 25 15 15 25 15 15 25 15 15 25 15 15 25 15 15 25 15 15 25 15 15 25 15 15 25 15 15 25 15 15 25 15 15 25 15 15 25 15 15 25 15 15 25 15 15 25 15 15 25 15 15 25 15 15 25 15 15 25 15 15 25 15 15 25 15 15 25 15 15 25 15 15 25 15 15 25 15 15 25 15 15 25 15 15 25 15 15 25 15 15 25 15 15 25 15 15 25 15 15 25 15 15 25 15 15 25 15 15 25 15 15 25 15 15 25 15 15 25 15 15 25 15 15 25 15 15 25 15 15 25 15 15 25 15 15 25 15 15 25 15 15 25 15 15 25 15 15 25 15 15 25 15 15 25 15 15 25 15 15 25 15 15 25 15 15 25 15 15 25 15 15 25 15 15 25 15 15 25 15 15 25 15 15 25 15 15 25 
15 15 25 15 15 25 15 15 25 15 15 25 15 15 25 15 15 25 15 15 25 15 15 25 15 15 25 15 15 25 15 15 25 15 15 25 15 15 25 15 15 25 15 15 25 15 15 25 15 15 25 15 15 25 15 15 25 15 15 25 15 15 25 15 15 25 15 15 25 15 15 25 15 15 25 15 15 25 15 15 25 15 15 25 15 15 25 15 15 25 15 15 25 15 15 25 15 15 25 15 15 25 15 15 25 15 15 25 15 15 25 15 15 25 15 15 25 15 15 25 15 15 25 15 15 25 15 15 25 15 15 25 15 15 25 15 15 25 15 15 25 15 15 25 15 15 25 15 15 25 15 15 25 15 15 25 15 15 25 15 15 25 15 15 25 15 15 25 15 15 25 15 15 25 15 15 25 15 15 25 15 15 25 15 15 25 15 15 25 15 15 25 15 15 25 15 15 25 15 15 25 15 15 25 15 15 25 15 15 25 15 15 25 15 15 25 15 15 25 15 15 25 15 15 25 15 15 25 15 15 25 15 15 25 15 15 25 15 15 25 15 15 25 15 15 25 15 15 25 15 15 25 15 15 25 15 15 25 15 15 25 15 15 25 15 15 25 15 15 25 15 15 25 15 15 25 15 15 25 15 15 25 15 15 25 15 15 25 15 15 25 15 15 25 0 255 0 15 15 25 15 15 25 15 15 25 15 15 25 15 15 25 15 15 25 15 15 25 15 15 25 15 15 25 15 15 25 15 15 25 15 15 25 15 15 25 15 15 25 15 15 25 15 15 25 15 15 25 15 15 25 15 15 25 15 15 25 15 15 25 15 15 25 15 15 25 15 15 25 15 15 25 15 15 25 15 15 25 15 15 25 15 15 25 15 15 25 15 15 25 15 15 25 15 15 25 15 15 25 15 15 25 15 15 25 15 15 25 15 15 25 15 15 25 15 15 25 15 15 25 15 15 25 15 15 25 15 15 25 15 15 25 15 15 25 15 15 25 15 15 25 15 15 25 15 15 25 15 15 25 15 15 25 15 15 25 15 15 25 15 15 25 15 15 25 15 15 25 15 15 25 255 0 0 15 15 25 15 15 25 15 15 25 15 15 25 15 15 25 15 15 25 15 15 25 15 15 25 15 15 25 15 15 25 15 15 25 15 15 25 15 15 25 15 15 25 15 15 25 15 15 25 15 15 25 15 15 25 15 15 25 15 15 25 15 15 25 15 15 25 15 15 25 15 15 25 15 15 25 15 15 25 15 15 25 15 15 25 15 15 25 15 15 25 15 15 25 15 15 25 15 15 25 15 15 25 15 15 25 15 15 25 15 15 25 15 15 25 15 15 25 15 15 25 15 15 25 15 15 25 15 15 25 15 15 25 15 15 25 15 15 25 15 15 25 15 15 25 15 15 25 15 15 25 15 15 25 15 15 25 15 15 25 15 15 25 15 15 25 15 15 25 15 15 25 15 15 25 15 15 25 15 15 25 15 15 25 15 15 25 15 15 25 15 15 25 15 15 25 15 15 25 15 15 25 15 15 25 15 15 25 15 15 25 15 15 25 15 15 25 15 15 25 15 15 25 15 15 25 15 15 25 15 15 25 15 15 25 15 15 25 15 15 25 15 15 25 15 15 25 15 15 25 15 15 25 15 15 25 15 15 25 15 15 25 15 15 25 15 15 25 15 15 25 15 15 25 15 15 25 15 15 25 15 15 25 15 15 25 15 15 25 15 15 25 15 15 25 
15 15 25 15 15 25 15 15 25 15 15 25 15 15 25 15 15 25 15 15 25 15 15 25 15 15 25 15 15 25 15 15 25 15 15 25 15 15 25 15 15 25 15 15 25 15 15 25 15 15 25 15 15 25 15 15 25 15 15 25 15 15 25 15 15 25 15 15 25 15 15 25 15 15 25 15 15 25 15 15 25 15 15 25 15 15 25 15 15 25 15 15 25 15 15 25 15 15 25 15 15 25 15 15 25 15 15 25 15 15 25 15 15 25 15 15 25 15 15 25 15 15 25 15 15 25 15 15 25 15 15 25 15 15 25 15 15 25 15 15 25 15 15 25 15 15 25 15 15 25 15 15 25 15 15 25 15 15 25 15 15 25 15 15 25 15 15 25 15 15 25 15 15 25 15 15 25 15 15 25 15 15 25 15 15 25 15 15 25 15 15 25 15 15 25 15 15 25 15 15 25 15 15 25 15 15 25 15 15 25 15 15 25 15 15 25 15 15 25 15 15 25 15 15 25 15 15 25 15 15 25 15 15 25 15 15 25 15 15 25 15 15 25 15 15 25 15 15 25 15 15 25 15 15 25 15 15 25 15 15 25 15 15 25 15 15 25 15 15 25 15 15 25 15 15 25 15 15 25 15 15 25 15 15 25 15 15 25 15 15 25 0 255 0 15 15 25 15 15 25 15 15 25 15 15 25 15 15 25 15 15 25 15 15 25 15 15 25 15 15 25 15 15 25 15 15 25 15 15 25 15 15 25 15 15 25 15 15 25 15 15 25 15 15 25 15 15 25 15 15 25 15 15 25 15 15 25 15 15 25 15 15 25 15 15 25 15 15 25 15 15 25 15 15 25 15 15 25 15 15 25 15 15 25 15 15 25 15 15 25 15 15 25 15 15 25 15 15 25 15 15 25 15 15 25 15 15 25 15 15 25 15 15 25 15 15 25 15 15 25 15 15 25 15 15 25 15 15 25 15 15 25 15 15 25 15 15 25 15 15 25 15 15 25 15 15 25 15 15 25 15 15 25 15 15 25 15 15 25 15 15 25 15 15 25 15 15 25 15 15 25 15 15 25 255 0 0 15 15 25 15 15 25 15 15 25 15 15 25 15 15 25 15 15 25 15 15 25 15 15 25 15 15 25 15 15 25 15 15 25 15 15 25 15 15 25 15 15 25 15 15 25 15 15 25 15 15 25 15 15 25 15 15 25 15 15 25 15 15 25 15 15 25 15 15 25 15 15 25 15 15 25 15 15 25 15 15 25 15 15 25 15 15 25 15 15 25 15 15 25 15 15 25 15 15 25 15 15 25 15 15 25 15 15 25 15 15 25 15 15 25 15 15 25 15 15 25 15 15 25 15 15 25 15 15 25 15 15 25 15 15 25 15 15 25 15 15 25 15 15 25 15 15 25 15 15 25 15 15 25 15 15 25 15 15 25 15 15 25 15 15 25 15 15 25 15 15 25 15 15 25 15 15 25 15 15 25 15 15 25 15 15 25 15 15 25 15 15 25 15 15 25 15 15 25 15 15 25 15 15 25 15 15 25 15 15 25 15 15 25 15 15 25 15 15 25 15 15 25 15 15 25 15 15 25 15 15 25 15 15 25 15 15 25 15 15 25 15 15 25 15 15 25 15 15 25 15 15 25 15 15 25 15 15 25 15 15 25 15 15 25 15 15 25 15 15 25 15 15 25 15 15 25 15 15 25 15 15 25 15 15 25 15 15 25 15 15 25 
15 15 25 15 15 25 15 15 25 15 15 25 15 15 25 15 15 25 15 15 25 15 15 25 15 15 25 15 15 25 15 15 25 15 15 25 15 15 25 15 15 25 15 15 25 15 15 25 15 15 25 15 15 25 15 15 25 15 15 25 15 15 25 15 15 25 15 15 25 15 15 25 15 15 25 15 15 25 15 15 25 15 15 25 15 15 25 15 15 25 15 15 25 15 15 25 15 15 25 15 15 25 15 15 25 15 15 25 15 15 25 15 15 25 15 15 25 15 15 25 15 15 25 15 15 25 15 15 25 15 15 25 15 15 25 15 15 25 15 15 25 15 15 25 15 15 25 15 15 25 15 15 25 15 15 25 15 15 25 15 15 25 15 15 25 15 15 25 15 15 25 15 15 25 15 15 25 15 15 25 15 15 25 15 15 25 15 15 25 15 15 25 15 15 25 15 15 25 15 15 25 15 15 25 15 15 25 15 15 25 15 15 25 15 15 25 15 15 25 15 15 25 15 15 25 15 15 25 15 15 25 15 15 25 15 15 25 15 15 25 15 15 25 15 15 25 15 15 25 15 15 25 15 15 25 15 15 25 15 15 25 15 15 25 15 15 25 15 15 25 15 15 25 15 15 25 15 15 25 15 15 25 15 15 25 15 15 25 0 255 0 15 15 25 15 15 25 15 15 25 15 15 25 15 15 25 15 15 25 15 15 25 15 15 25 15 15 25 15 15 25 15 15 25 15 15 25 15 15 25 15 15 25 15 15 25 15 15 25 15 15 25 15 15 25 15 15 25 15 15 25 15 15 25 15 15 25 15 15 25 15 15 25 15 15 25 15 15 25 15 15 25 15 15 25 15 15 25 15 15 25 15 15 25 15 15 25 15 15 25 15 15 25 15 15 25 15 15 25 15 15 25 15 15 25 15 15 25 15 15 25 15 15 25 15 15 25 15 15 25 15 15 25 15 15 25 15 15 25 15 15 25 15 15 25 15 15 25 15 15 25 15 15 25 15 15 25 15 15 25 15 15 25 15 15 25 15 15 25 15 15 25 15 15 25 15 15 25 15 15 25 15 15 25 15 15 25 255 0 0 15 15 25 15 15 25 15 15 25 15 15 25 15 15 25 15 15 25 15 15 25 15 15 25 15 15 25 15 15 25 15 15 25 15 15 25 15 15 25 15 15 25 15 15 25 15 15 25 15 15 25 15 15 25 15 15 25 15 15 25 15 15 25 15 15 25 15 15 25 15 15 25 15 15 25 15 15 25 15 15 25 15 15 25 15 15 25 15 15 25 15 15 25 15 15 25 15 15 25 15 15 25 15 15 25 15 15 25 15 15 25 15 15 25 15 15 25 15 15 25 15 15 25 15 15 25 15 15 25 15 15 25 15 15 25 15 15 25 15 15 25 15 15 25 15 15 25 15 15 25 15 15 25 15 15 25 15 15 25 15 15 25 15 15 25 15 15 25 15 15 25 15 15 25 15 15 25 15 15 25 15 15 25 15 15 25 15 15 25 15 15 25 15 15 25 15 15 25 15 15 25 15 15 25 15 15 25 15 15 25 15 15 25 15 15 25 15 15 25 15 15 25 15 15 25 15 15 25 15 15 25 15 15 25 15 15 25 15 15 25 15 15 25 15 15 25 15 15 25 15 15 25 15 15 25 15 15 25 15 15 25 15 15 25 15 15 25 15 15 25 15 15 25 15 15 25 15 15 25 15 15 25 15 15 25 15 15 25 
15 15 25 15 15 25 15 15 25 15 15 25 15 15 25 15 15 25 15 15 25 15 15 25 15 15 25 15 15 25 15 15 25 15 15 25 15 15 25 15 15 25 15 15 25 15 15 25 15 15 25 15 15 25 15 15 25 15 15 25 15 15 25 15 15 25 15 15 25 15 15 25 15 15 25 15 15 25 15 15 25 15 15 25 15 15 25 15 15 25 15 15 25 15 15 25 15 15 25 15 15 25 15 15 25 15 15 25 15 15 25 15 15 25 15 15 25 15 15 25 15 15 25 15 15 25 15 15 25 15 15 25 15 15 25 15 15 25 15 15 25 15 15 25 15 15 25 15 15 25 15 15 25 15 15 25 15 15 25 15 15 25 15 15 25 15 15 25 15 15 25 15 15 25 15 15 25 15 15 25 15 15 25 15 15 25 15 15 25 15 15 25 15 15 25 15 15 25 15 15 25 15 15 25 15 15 25 15 15 25 15 15 25 15 15 25 15 15 25 15 15 25 15 15 25 15 15 25 15 15 25 15 15 25 15 15 25 15 15 25 15 15 25 15 15 25 15 15 25 15 15 25 15 15 25 15 15 25 15 15 25 15 15 25 15 15 25 15 15 25 15 15 25 15 15 25 15 15 25 15 15 25 15 15 25 0 255 0 15 15 25 15 15 25 15 15 25 15 15 25 15 15 25 15 15 25 15 15 25 15 15 25 15 15 25 15 15 25 15 15 25 15 15 25 15 15 25 15 15 25 15 15 25 15 15 25 15 15 25 15 15 25 15 15 25 15 15 25 15 15 25 15 15 25 15 15 25 15 15 25 15 15 25 15 15 25 15 15 25 15 15 25 15 15 25 15 15 25 15 15 25 15 15 25 15 15 25 15 15 25 15 15 25 15 15 25 15 15 25 15 15 25 15 15 25 15 15 25 15 15 25 15 15 25 15 15 25 15 15 25 15 15 25 15 15 25 15 15 25 15 15 25 15 15 25 15 15 25 15 15 25 15 15 25 15 15 25 15 15 25 15 15 25 15 15 25 15 15 25 15 15 25 15 15 25 15 15 25 15 15 25 15 15 25 15 15 25 15 15 25 255 0 0 15 15 25 15 15 25 15 15 25 15 15 25 15 15 25 15 15 25 15 15 25 15 15 25 15 15 25 255 180 0 15 15 25 15 15 25 15 15 25 15 15 25 15 15 25 15 15 25 15 15 25 15 15 25 15 15 25 15 15 25 15 15 25 15 15 25 15 15 25 15 15 25 15 15 25 15 15 25 15 15 25 15 15 25 15 15 25 15 15 25 15 15 25 15 15 25 15 15 25 15 15 25 15 15 25 15 15 25 15 15 25 15 15 25 15 15 25 15 15 25 15 15 25 15 15 25 15 15 25 15 15 25 15 15 25 15 15 25 15 15 25 15 15 25 15 15 25 15 15 25 15 15 25 15 15 25 15 15 25 15 15 25 15 15 25 15 15 25 15 15 25 15 15 25 15 15 25 15 15 25 15 15 25 15 15 25 15 15 25 15 15 25 15 15 25 15 15 25 15 15 25 15 15 25 15 15 25 15 15 25 15 15 25 15 15 25 15 15 25 15 15 25 15 15 25 15 15 25 15 15 25 15 15 25 15 15 25 15 15 25 15 15 25 15 15 25 15 15 25 15 15 25 15 15 25 15 15 25 15 15 25 15 15 25 15 15 25 15 15 25 15 15 25 15 15 25 15 15 25 15 15 25 15 15 25 
15 15 25 15 15 25 15 15 25 15 15 25 15 15 25 15 15 25 15 15 25 15 15 25 15 15 25 15 15 25 15 15 25 15 15 25 15 15 25 15 15 25 15 15 25 15 15 25 15 15 25 15 15 25 15 15 25 15 15 25 15 15 25 15 15 25 15 15 25 15 15 25 15 15 25 15 15 25 15 15 25 15 15 25 15 15 25 15 15 25 15 15 25 15 15 25 15 15 25 15 15 25 15 15 25 15 15 25 15 15 25 15 15 25 15 15 25 15 15 25 15 15 25 15 15 25 15 15 25 15 15 25 15 15 25 15 15 25 15 15 25 15 15 25 15 15 25 15 15 25 15 15 25 15 15 25 15 15 25 15 15 25 15 15 25 15 15 25 15 15 25 15 15 25 15 15 25 15 15 25 15 15 25 15 15 25 15 15 25 15 15 25 15 15 25 15 15 25 15 15 25 15 15 25 15 15 25 15 15 25 15 15 25 15 15 25 15 15 25 15 15 25 15 15 25 15 15 25 15 15 25 15 15 25 15 15 25 15 15 25 15 15 25 15 15 25 15 15 25 15 15 25 15 15 25 15 15 25 15 15 25 15 15 25 15 15 25 15 15 25 15 15 25 15 15 25 15 15 25 15 15 25 0 255 0 15 15 25 15 15 25 15 15 25 15 15 25 15 15 25 15 15 25 15 15 25 15 15 25 15 15 25 15 15 25 15 15 25 15 15 25 15 15 25 15 15 25 15 15 25 15 15 25 15 15 25 15 15 25 15 15 25 15 15 25 15 15 25 15 15 25 15 15 25 15 15 25 15 15 25 15 15 25 15 15 25 15 15 25 15 15 25 15 15 25 15 15 25 15 15 25 15 15 25 15 15 25 15 15 25 15 15 25 15 15 25 15 15 25 15 15 25 15 15 25 15 15 25 15 15 25 15 15 25 15 15 25 15 15 25 15 15 25 15 15 25 15 15 25 15 15 25 15 15 25 15 15 25 15 15 25 15 15 25 15 15 25 15 15 25 15 15 25 15 15 25 15 15 25 15 15 25 15 15 25 15 15 25 15 15 25 15 15 25 15 15 25 15 15 25 15 15 25 255 0 0 15 15 25 15 15 25 15 15 25 15 15 25 15 15 25 15 15 25 15 15 25 255 180 0 15 15 25 255 180 0 15 15 25 15 15 25 15 15 25 15 15 25 15 15 25 15 15 25 15 15 25 15 15 25 15 15 25 15 15 25 15 15 25 15 15 25 15 15 25 15 15 25 15 15 25 15 15 25 15 15 25 15 15 25 15 15 25 15 15 25 15 15 25 15 15 25 15 15 25 15 15 25 15 15 25 15 15 25 15 15 25 15 15 25 15 15 25 15 15 25 15 15 25 15 15 25 15 15 25 15 15 25 15 15 25 15 15 25 15 15 25 15 15 25 15 15 25 15 15 25 15 15 25 15 15 25 15 15 25 15 15 25 15 15 25 15 15 25 15 15 25 15 15 25 15 15 25 15 15 25 15 15 25 15 15 25 15 15 25 15 15 25 15 15 25 15 15 25 15 15 25 15 15 25 15 15 25 15 15 25 15 15 25 15 15 25 15 15 25 15 15 25 15 15 25 15 15 25 15 15 25 15 15 25 15 15 25 15 15 25 15 15 25 15 15 25 15 15 25 15 15 25 15 15 25 15 15 25 15 15 25 15 15 25 15 15 25 15 15 25 15 15 25 15 15 25 15 15 25 15 15 25 
15 15 25 15 15 25 15 15 25 15 15 25 15 15 25 15 15 25 15 15 25 15 15 25 15 15 25 15 15 25 15 15 25 15 15 25 15 15 25 15 15 25 15 15 25 15 15 25 15 15 25 15 15 25 15 15 25 15 15 25 15 15 25 15 15 25 15 15 25 15 15 25 15 15 25 15 15 25 15 15 25 15 15 25 15 15 25 15 15 25 15 15 25 15 15 25 15 15 25 15 15 25 15 15 25 15 15 25 15 15 25 15 15 25 15 15 25 15 15 25 15 15 25 15 15 25 15 15 25 15 15 25 15 15 25 15 15 25 15 15 25 15 15 25 15 15 25 15 15 25 15 15 25 15 15 25 15 15 25 15 15 25 15 15 25 15 15 25 15 15 25 15 15 25 15 15 25 15 15 25 15 15 25 15 15 25 15 15 25 15 15 25 15 15 25 15 15 25 15 15 25 15 15 25 15 15 25 15 15 25 15 15 25 15 15 25 15 15 25 15 15 25 15 15 25 15 15 25 15 15 25 15 15 25 15 15 25 15 15 25 15 15 25 15 15 25 15 15 25 15 15 25 15 15 25 15 15 25 15 15 25 15 15 25 15 15 25 15 15 25 15 15 25 15 15 25 15 15 25 0 255 0 15 15 25 15 15 25 15 15 25 15 15 25 15 15 25 15 15 25 15 15 25 15 15 25 15 15 25 15 15 25 15 15 25 15 15 25 15 15 25 15 15 25 15 15 25 15 15 25 15 15 25 15 15 25 15 15 25 15 15 25 15 15 25 15 15 25 15 15 25 15 15 25 15 15 25 15 15 25 15 15 25 15 15 25 15 15 25 15 15 25 15 15 25 15 15 25 15 15 25 15 15 25 15 15 25 15 15 25 15 15 25 15 15 25 15 15 25 15 15 25 15 15 25 15 15 25 15 15 25 15 15 25 15 15 25 15 15 25 15 15 25 15 15 25 15 15 25 15 15 25 15 15 25 15 15 25 15 15 25 15 15 25 15 15 25 15 15 25 15 15 25 15 15 25 15 15 25 15 15 25 15 15 25 15 15 25 15 15 25 15 15 25 15 15 25 15 15 25 15 15 25 15 15 25 255 0 0 15 15 25 15 15 25 15 15 25 15 15 25 15 15 25 255 180 0 15 15 25 15 15 25 15 15 25 255 180 0 15 15 25 15 15 25 15 15 25 15 15 25 15 15 25 15 15 25 15 15 25 15 15 25 15 15 25 15 15 25 15 15 25 15 15 25 15 15 25 15 15 25 15 15 25 15 15 25 15 15 25 15 15 25 15 15 25 15 15 25 15 15 25 15 15 25 15 15 25 15 15 25 15 15 25 15 15 25 15 15 25 15 15 25 15 15 25 15 15 25 15 15 25 15 15 25 15 15 25 15 15 25 15 15 25 15 15 25 15 15 25 15 15 25 15 15 25 15 15 25 15 15 25 15 15 25 15 15 25 15 15 25 15 15 25 15 15 25 15 15 25 15 15 25 15 15 25 15 15 25 15 15 25 15 15 25 15 15 25 15 15 25 15 15 25 15 15 25 15 15 25 15 15 25 15 15 25 15 15 25 15 15 25 15 15 25 15 15 25 15 15 25 15 15 25 15 15 25 15 15 25 15 15 25 15 15 25 15 15 25 15 15 25 15 15 25 15 15 25 15 15 25 15 15 25 15 15 25 15 15 25 15 15 25 15 15 25 15 15 25 15 15 25 15 15 25 15 15 25 
15 15 25 15 15 25 15 15 25 15 15 25 15 15 25 15 15 25 15 15 25 15 15 25 15 15 25 15 15 25 15 15 25 15 15 25 15 15 25 15 15 25 15 15 25 15 15 25 15 15 25 15 15 25 15 15 25 15 15 25 15 15 25 15 15 25 15 15 25 15 15 25 15 15 25 15 15 25 15 15 25 15 15 25 15 15 25 15 15 25 15 15 25 15 15 25 15 15 25 15 15 25 15 15 25 15 15 25 15 15 25 15 15 25 15 15 25 15 15 25 15 15 25 15 15 25 15 15 25 15 15 25 15 15 25 15 15 25 15 15 25 15 15 25 15 15 25 15 15 25 15 15 25 15 15 25 15 15 25 15 15 25 15 15 25 15 15 25 15 15 25 15 15 25 15 15 25 15 15 25 15 15 25 15 15 25 15 15 25 15 15 25 15 15 25 15 15 25 15 15 25 15 15 25 15 15 25 15 15 25 15 15 25 15 15 25 15 15 25 15 15 25 15 15 25 15 15 25 15 15 25 15 15 25 15 15 25 15 15 25 15 15 25 15 15 25 15 15 25 15 15 25 15 15 25 15 15 25 15 15 25 15 15 25 15 15 25 15 15 25 15 15 25 15 15 25 0 255 0 15 15 25 15 15 25 15 15 25 15 15 25 15 15 25 15 15 25 15 15 25 15 15 25 15 15 25 15 15 25 15 15 25 15 15 25 15 15 25 15 15 25 15 15 25 15 15 25 15 15 25 15 15 25 15 15 25 15 15 25 15 15 25 15 15 25 15 15 25 15 15 25 15 15 25 15 15 25 15 15 25 15 15 25 15 15 25 15 15 25 15 15 25 15 15 25 15 15 25 15 15 25 15 15 25 15 15 25 15 15 25 15 15 25 15 15 25 15 15 25 15 15 25 15 15 25 15 15 25 15 15 25 15 15 25 15 15 25 15 15 25 15 15 25 15 15 25 15 15 25 15 15 25 15 15 25 15 15 25 15 15 25 15 15 25 15 15 25 15 15 25 15 15 25 15 15 25 15 15 25 15 15 25 15 15 25 15 15 25 15 15 25 15 15 25 15 15 25 15 15 25 15 15 25 15 15 25 15 15 25 255 0 0 15 15 25 15 15 25 15 15 25 255 180 0 15 15 25 15 15 25 15 15 25 15 15 25 15 15 25 255 180 0 15 15 25 15 15 25 15 15 25 15 15 25 15 15 25 15 15 25 15 15 25 15 15 25 15 15 25 15 15 25 15 15 25 15 15 25 15 15 25 15 15 25 15 15 25 15 15 25 15 15 25 15 15 25 15 15 25 15 15 25 15 15 25 15 15 25 15 15 25 15 15 25 15 15 25 15 15 25 15 15 25 15 15 25 15 15 25 15 15 25 15 15 25 15 15 25 15 15 25 15 15 25 15 15 25 15 15 25 15 15 25 15 15 25 15 15 25 15 15 25 15 15 25 15 15 25 15 15 25 15 15 25 15 15 25 15 15 25 15 15 25 15 15 25 15 15 25 15 15 25 15 15 25 15 15 25 15 15 25 15 15 25 15 15 25 15 15 25 15 15 25 15 15 25 15 15 25 15 15 25 15 15 25 15 15 25 15 15 25 15 15 25 15 15 25 15 15 25 15 15 25 15 15 25 15 15 25 15 15 25 15 15 25 15 15 25 15 15 25 15 15 25 15 15 25 15 15 25 15 15 25 15 15 25 15 15 25 15 15 25 15 15 25 15 15 25 
15 15 25 15 15 25 15 15 25 15 15 25 15 15 25 15 15 25 15 15 25 15 15 25 15 15 25 15 15 25 15 15 25 15 15 25 15 15 25 15 15 25 15 15 25 15 15 25 15 15 25 15 15 25 15 15 25 15 15 25 15 15 25 15 15 25 15 15 25 15 15 25 15 15 25 15 15 25 15 15 25 15 15 25 15 15 25 15 15 25 15 15 25 15 15 25 15 15 25 15 15 25 15 15 25 15 15 25 15 15 25 15 15 25 15 15 25 15 15 25 15 15 25 15 15 25 15 15 25 15 15 25 15 15 25 15 15 25 15 15 25 15 15 25 15 15 25 15 15 25 15 15 25 15 15 25 15 15 25 15 15 25 15 15 25 15 15 25 15 15 25 15 15 25 15 15 25 15 15 25 15 15 25 15 15 25 15 15 25 15 15 25 15 15 25 15 15 25 15 15 25 15 15 25 15 15 25 15 15 25 15 15 25 15 15 25 15 15 25 15 15 25 15 15 25 15 15 25 15 15 25 15 15 25 15 15 25 15 15 25 15 15 25 15 15 25 15 15 25 15 15 25 15 15 25 15 15 25 15 15 25 15 15 25 15 15 25 15 15 25 15 15 25 0 255 0 15 15 25 15 15 25 15 15 25 15 15 25 15 15 25 15 15 25 15 15 25 15 15 25 15 15 25 15 15 25 15 15 25 15 15 25 15 15 25 15 15 25 15 15 25 15 15 25 15 15 25 15 15 25 15 15 25 15 15 25 15 15 25 15 15 25 15 15 25 15 15 25 15 15 25 15 15 25 15 15 25 15 15 25 15 15 25 15 15 25 15 15 25 15 15 25 15 15 25 15 15 25 15 15 25 15 15 25 15 15 25 15 15 25 15 15 25 15 15 25 15 15 25 15 15 25 15 15 25 15 15 25 15 15 25 15 15 25 15 15 25 15 15 25 15 15 25 15 15 25 15 15 25 15 15 25 15 15 25 15 15 25 15 15 25 15 15 25 15 15 25 15 15 25 15 15 25 15 15 25 15 15 25 15 15 25 15 15 25 15 15 25 15 15 25 15 15 25 15 15 25 15 15 25 15 15 25 15 15 25 15 15 25 15 15 25 255 0 0 15 15 25 15 15 25 255 180 0 15 15 25 15 15 25 15 15 25 15 15 25 15 15 25 255 180 0 15 15 25 15 15 25 15 15 25 15 15 25 15 15 25 15 15 25 15 15 25 15 15 25 15 15 25 15 15 25 15 15 25 15 15 25 15 15 25 15 15 25 15 15 25 15 15 25 15 15 25 15 15 25 15 15 25 15 15 25 15 15 25 15 15 25 15 15 25 15 15 25 15 15 25 15 15 25 15 15 25 15 15 25 15 15 25 15 15 25 15 15 25 15 15 25 15 15 25 15 15 25 15 15 25 15 15 25 15 15 25 15 15 25 15 15 25 15 15 25 15 15 25 15 15 25 15 15 25 15 15 25 15 15 25 15 15 25 15 15 25 15 15 25 15 15 25 15 15 25 15 15 25 15 15 25 15 15 25 15 15 25 15 15 25 15 15 25 15 15 25 15 15 25 15 15 25 15 15 25 15 15 25 15 15 25 15 15 25 15 15 25 15 15 25 15 15 25 15 15 25 15 15 25 15 15 25 15 15 25 15 15 25 15 15 25 15 15 25 15 15 25 15 15 25 15 15 25 15 15 25 15 15 25 15 15 25 15 15 25 15 15 25 15 15 25 
15 15 25 15 15 25 15 15 25 15 15 25 15 15 25 15 15 25 15 15 25 15 15 25 15 15 25 15 15 25 15 15 25 15 15 25 15 15 25 15 15 25 15 15 25 15 15 25 15 15 25 15 15 25 15 15 25 15 15 25 15 15 25 15 15 25 15 15 25 15 15 25 15 15 25 15 15 25 15 15 25 15 15 25 15 15 25 15 15 25 15 15 25 15 15 25 15 15 25 15 15 25 15 15 25 15 15 25 15 15 25 15 15 25 15 15 25 15 15 25 15 15 25 15 15 25 15 15 25 15 15 25 15 15 25 15 15 25 15 15 25 15 15 25 15 15 25 15 15 25 15 15 25 15 15 25 15 15 25 15 15 25 15 15 25 15 15 25 15 15 25 15 15 25 15 15 25 15 15 25 15 15 25 15 15 25 15 15 25 15 15 25 15 15 25 15 15 25 15 15 25 15 15 25 15 15 25 15 15 25 15 15 25 15 15 25 15 15 25 15 15 25 15 15 25 15 15 25 15 15 25 15 15 25 15 15 25 15 15 25 15 15 25 15 15 25 15 15 25 15 15 25 15 15 25 15 15 25 15 15 25 15 15 25 15 15 25 15 15 25 0 255 0 15 15 25 15 15 25 15 15 25 15 15 25 15 15 25 15 15 25 15 15 25 15 15 25 15 15 25 15 15 25 15 15 25 15 15 25 15 15 25 15 15 25 15 15 25 15 15 25 15 15 25 15 15 25 15 15 25 15 15 25 15 15 25 15 15 25 15 15 25 15 15 25 15 15 25 15 15 25 15 15 25 15 15 25 15 15 25 15 15 25 15 15 25 15 15 25 15 15 25 15 15 25 15 15 25 15 15 25 15 15 25 15 15 25 15 15 25 15 15 25 15 15 25 15 15 25 15 15 25 15 15 25 15 15 25 15 15 25 15 15 25 15 15 25 15 15 25 15 15 25 15 15 25 15 15 25 15 15 25 15 15 25 15 15 25 15 15 25 15 15 25 15 15 25 15 15 25 15 15 25 15 15 25 15 15 25 15 15 25 15 15 25 15 15 25 15 15 25 15 15 25 15 15 25 15 15 25 15 15 25 15 15 25 15 15 25 15 15 25 15 15 25 255 0 0 255 180 0 15 15 25 15 15 25 15 15 25 15 15 25 15 15 25 15 15 25 15 15 25 255 180 0 15 15 25 15 15 25 15 15 25 15 15 25 15 15 25 15 15 25 15 15 25 15 15 25 15 15 25 15 15 25 15 15 25 15 15 25 15 15 25 15 15 25 15 15 25 15 15 25 15 15 25 15 15 25 15 15 25 15 15 25 15 15 25 15 15 25 15 15 25 15 15 25 15 15 25 15 15 25 15 15 25 15 15 25 15 15 25 15 15 25 15 15 25 15 15 25 15 15 25 15 15 25 15 15 25 15 15 25 15 15 25 15 15 25 15 15 25 15 15 25 15 15 25 15 15 25 15 15 25 15 15 25 15 15 25 15 15 25 15 15 25 15 15 25 15 15 25 15 15 25 15 15 25 15 15 25 15 15 25 15 15 25 15 15 25 15 15 25 15 15 25 15 15 25 15 15 25 15 15 25 15 15 25 15 15 25 15 15 25 15 15 25 15 15 25 15 15 25 15 15 25 15 15 25 15 15 25 15 15 25 15 15 25 15 15 25 15 15 25 15 15 25 15 15 25 15 15 25 15 15 25 15 15 25 15 15 25 15 15 25 15 15 25 
15 15 25 15 15 25 15 15 25 15 15 25 15 15 25 15 15 25 15 15 25 15 15 25 15 15 25 15 15 25 15 15 25 15 15 25 15 15 25 15 15 25 15 15 25 15 15 25 15 15 25 15 15 25 15 15 25 15 15 25 15 15 25 15 15 25 15 15 25 15 15 25 15 15 25 15 15 25 15 15 25 15 15 25 15 15 25 15 15 25 15 15 25 15 15 25 15 15 25 15 15 25 15 15 25 15 15 25 15 15 25 15 15 25 15 15 25 15 15 25 15 15 25 15 15 25 15 15 25 15 15 25 15 15 25 15 15 25 15 15 25 15 15 25 15 15 25 15 15 25 15 15 25 15 15 25 15 15 25 15 15 25 15 15 25 15 15 25 15 15 25 15 15 25 15 15 25 15 15 25 15 15 25 15 15 25 15 15 25 15 15 25 15 15 25 15 15 25 15 15 25 15 15 25 15 15 25 15 15 25 15 15 25 15 15 25 15 15 25 15 15 25 15 15 25 15 15 25 15 15 25 15 15 25 15 15 25 15 15 25 15 15 25 15 15 25 15 15 25 15 15 25 15 15 25 15 15 25 15 15 25 15 15 25 15 15 25 0 255 0 15 15 25 15 15 25 15 15 25 15 15 25 15 15 25 15 15 25 15 15 25 15 15 25 15 15 25 15 15 25 15 15 25 15 15 25 15 15 25 15 15 25 15 15 25 15 15 25 15 15 25 15 15 25 15 15 25 15 15 25 15 15 25 15 15 25 15 15 25 15 15 25 15 15 25 15 15 25 15 15 25 15 15 25 15 15 25 15 15 25 15 15 25 15 15 25 15 15 25 15 15 25 15 15 25 15 15 25 15 15 25 15 15 25 15 15 25 15 15 25 15 15 25 15 15 25 15 15 25 15 15 25 15 15 25 15 15 25 15 15 25 15 15 25 15 15 25 15 15 25 15 15 25 15 15 25 15 15 25 15 15 25 15 15 25 15 15 25 15 15 25 15 15 25 15 15 25 15 15 25 15 15 25 15 15 25 15 15 25 15 15 25 15 15 25 15 15 25 15 15 25 15 15 25 15 15 25 15 15 25 15 15 25 15 15 25 15 15 25 15 15 25 15 15 25 255 180 0 255 0 0 15 15 25 15 15 25 15 15 25 15 15 25 15 15 25 15 15 25 15 15 25 15 15 25 255 180 0 15 15 25 15 15 25 15 15 25 15 15 25 15 15 25 15 15 25 15 15 25 15 15 25 15 15 25 15 15 25 15 15 25 15 15 25 15 15 25 15 15 25 15 15 25 15 15 25 15 15 25 15 15 25 15 15 25 15 15 25 15 15 25 15 15 25 15 15 25 15 15 25 15 15 25 15 15 25 15 15 25 15 15 25 15 15 25 15 15 25 15 15 25 15 15 25 15 15 25 15 15 25 15 15 25 15 15 25 15 15 25 15 15 25 15 15 25 15 15 25 15 15 25 15 15 25 15 15 25 15 15 25 15 15 25 15 15 25 15 15 25 15 15 25 15 15 25 15 15 25 15 15 25 15 15 25 15 15 25 15 15 25 15 15 25 15 15 25 15 15 25 15 15 25 15 15 25 15 15 25 15 15 25 15 15 25 15 15 25 15 15 25 15 15 25 15 15 25 15 15 25 15 15 25 15 15 25 15 15 25 15 15 25 15 15 25 15 15 25 15 15 25 15 15 25 15 15 25 15 15 25 15 15 25 15 15 25 15 15 25 
15 15 25 15 15 25 15 15 25 15 15 25 15 15 25 15 15 25 15 15 25 15 15 25 15 15 25 15 15 25 15 15 25 15 15 25 15 15 25 15 15 25 15 15 25 15 15 25 15 15 25 15 15 25 15 15 25 15 15 25 15 15 25 15 15 25 15 15 25 15 15 25 15 15 25 15 15 25 15 15 25 15 15 25 15 15 25 15 15 25 15 15 25 15 15 25 15 15 25 15 15 25 15 15 25 15 15 25 15 15 25 15 15 25 15 15 25 15 15 25 15 15 25 15 15 25 15 15 25 15 15 25 15 15 25 15 15 25 15 15 25 15 15 25 15 15 25 15 15 25 15 15 25 15 15 25 15 15 25 15 15 25 15 15 25 15 15 25 15 15 25 15 15 25 15 15 25 15 15 25 15 15 25 15 15 25 15 15 25 15 15 25 15 15 25 15 15 25 15 15 25 15 15 25 15 15 25 15 15 25 15 15 25 15 15 25 15 15 25 15 15 25 15 15 25 15 15 25 15 15 25 15 15 25 15 15 25 15 15 25 15 15 25 15 15 25 15 15 25 15 15 25 15 15 25 15 15 25 15 15 25 15 15 25 0 255 0 15 15 25 15 15 25 15 15 25 15 15 25 15 15 25 15 15 25 15 15 25 15 15 25 15 15 25 15 15 25 15 15 25 15 15 25 15 15 25 15 15 25 15 15 25 15 15 25 15 15 25 15 15 25 15 15 25 15 15 25 15 15 25 15 15 25 15 15 25 15 15 25 15 15 25 15 15 25 15 15 25 15 15 25 15 15 25 15 15 25 15 15 25 15 15 25 15 15 25 15 15 25 15 15 25 15 15 25 15 15 25 15 15 25 15 15 25 15 15 25 15 15 25 15 15 25 15 15 25 15 15 25 15 15 25 15 15 25 15 15 25 15 15 25 15 15 25 15 15 25 15 15 25 15 15 25 15 15 25 15 15 25 15 15 25 15 15 25 15 15 25 15 15 25 15 15 25 15 15 25 15 15 25 15 15 25 15 15 25 15 15 25 15 15 25 15 15 25 15 15 25 15 15 25 15 15 25 15 15 25 15 15 25 15 15 25 15 15 25 15 15 25 15 15 25 255 180 0 15 15 25 15 15 25 255 0 0 15 15 25 15 15 25 15 15 25 15 15 25 15 15 25 15 15 25 15 15 25 15 15 25 255 180 0 15 15 25 15 15 25 15 15 25 15 15 25 15 15 25 15 15 25 15 15 25 15 15 25 15 15 25 15 15 25 15 15 25 15 15 25 15 15 25 15 15 25 15 15 25 15 15 25 15 15 25 15 15 25 15 15 25 15 15 25 15 15 25 15 15 25 15 15 25 15 15 25 15 15 25 15 15 25 15 15 25 15 15 25 15 15 25 15 15 25 15 15 25 15 15 25 15 15 25 15 15 25 15 15 25 15 15 25 15 15 25 15 15 25 15 15 25 15 15 25 15 15 25 15 15 25 15 15 25 15 15 25 15 15 25 15 15 25 15 15 25 15 15 25 15 15 25 15 15 25 15 15 25 15 15 25 15 15 25 15 15 25 15 15 25 15 15 25 15 15 25 15 15 25 15 15 25 15 15 25 15 15 25 15 15 25 15 15 25 15 15 25 15 15 25 15 15 25 15 15 25 15 15 25 15 15 25 15 15 25 15 15 25 15 15 25 15 15 25 15 15 25 15 15 25 15 15 25 15 15 25 15 15 25 15 15 25 
15 15 25 15 15 25 15 15 25 15 15 25 15 15 25 15 15 25 15 15 25 15 15 25 15 15 25 15 15 25 15 15 25 15 15 25 15 15 25 15 15 25 15 15 25 15 15 25 15 15 25 15 15 25 15 15 25 15 15 25 15 15 25 15 15 25 15 15 25 15 15 25 15 15 25 15 15 25 15 15 25 15 15 25 15 15 25 15 15 25 15 15 25 15 15 25 15 15 25 15 15 25 15 15 25 15 15 25 15 15 25 15 15 25 15 15 25 15 15 25 15 15 25 15 15 25 15 15 25 15 15 25 15 15 25 15 15 25 15 15 25 15 15 25 15 15 25 15 15 25 15 15 25 15 15 25 15 15 25 15 15 25 15 15 25 15 15 25 15 15 25 15 15 25 15 15 25 15 15 25 15 15 25 15 15 25 15 15 25 15 15 25 15 15 25 15 15 25 15 15 25 15 15 25 15 15 25 15 15 25 15 15 25 15 15 25 15 15 25 15 15 25 15 15 25 15 15 25 15 15 25 15 15 25 15 15 25 15 15 25 15 15 25 15 15 25 15 15 25 15 15 25 15 15 25 15 15 25 15 15 25 0 255 0 15 15 25 15 15 25 15 15 25 15 15 25 15 15 25 15 15 25 15 15 25 15 15 25 15 15 25 15 15 25 15 15 25 15 15 25 15 15 25 15 15 25 15 15 25 15 15 25 15 15 25 15 15 25 15 15 25 15 15 25 15 15 25 15 15 25 15 15 25 15 15 25 15 15 25 15 15 25 15 15 25 15 15 25 15 15 25 15 15 25 15 15 25 15 15 25 15 15 25 15 15 25 15 15 25 15 15 25 15 15 25 15 15 25 15 15 25 15 15 25 15 15 25 15 15 25 15 15 25 15 15 25 15 15 25 15 15 25 15 15 25 15 15 25 15 15 25 15 15 25 15 15 25 15 15 25 15 15 25 15 15 25 15 15 25 15 15 25 15 15 25 15 15 25 15 15 25 15 15 25 15 15 25 15 15 25 15 15 25 15 15 25 15 15 25 15 15 25 15 15 25 15 15 25 15 15 25 15 15 25 15 15 25 15 15 25 15 15 25 15 15 25 15 15 25 255 180 0 15 15 25 15 15 25 15 15 25 15 15 25 255 0 0 15 15 25 15 15 25 15 15 25 15 15 25 15 15 25 15 15 25 15 15 25 15 15 25 255 180 0 15 15 25 15 15 25 15 15 25 15 15 25 15 15 25 15 15 25 15 15 25 15 15 25 15 15 25 15 15 25 15 15 25 15 15 25 15 15 25 15 15 25 15 15 25 15 15 25 15 15 25 15 15 25 15 15 25 15 15 25 15 15 25 15 15 25 15 15 25 15 15 25 15 15 25 15 15 25 15 15 25 15 15 25 15 15 25 15 15 25 15 15 25 15 15 25 15 15 25 15 15 25 15 15 25 15 15 25 15 15 25 15 15 25 15 15 25 15 15 25 15 15 25 15 15 25 15 15 25 15 15 25 15 15 25 15 15 25 15 15 25 15 15 25 15 15 25 15 15 25 15 15 25 15 15 25 15 15 25 15 15 25 15 15 25 15 15 25 15 15 25 15 15 25 15 15 25 15 15 25 15 15 25 15 15 25 15 15 25 15 15 25 15 15 25 15 15 25 15 15 25 15 15 25 15 15 25 15 15 25 15 15 25 15 15 25 15 15 25 15 15 25 15 15 25 15 15 25 15 15 25 15 15 25 
15 15 25 15 15 25 15 15 25 15 15 25 15 15 25 15 15 25 15 15 25 15 15 25 15 15 25 15 15 25 15 15 25 15 15 25 15 15 25 15 15 25 15 15 25 15 15 25 15 15 25 15 15 25 15 15 25 15 15 25 15 15 25 15 15 25 15 15 25 15 15 25 15 15 25 15 15 25 15 15 25 15 15 25 15 15 25 15 15 25 15 15 25 15 15 25 15 15 25 15 15 25 15 15 25 15 15 25 15 15 25 15 15 25 15 15 25 15 15 25 15 15 25 15 15 25 15 15 25 15 15 25 15 15 25 15 15 25 15 15 25 15 15 25 15 15 25 15 15 25 15 15 25 15 15 25 15 15 25 15 15 25 15 15 25 15 15 25 15 15 25 15 15 25 15 15 25 15 15 25 15 15 25 15 15 25 15 15 25 15 15 25 15 15 25 15 15 25 15 15 25 15 15 25 15 15 25 15 15 25 15 15 25 15 15 25 15 15 25 15 15 25 15 15 25 15 15 25 15 15 25 15 15 25 15 15 25 15 15 25 15 15 25 15 15 25 15 15 25 15 15 25 15 15 25 15 15 25 0 255 0 15 15 25 15 15 25 15 15 25 15 15 25 15 15 25 15 15 25 15 15 25 15 15 25 15 15 25 15 15 25 15 15 25 15 15 25 15 15 25 15 15 25 15 15 25 15 15 25 15 15 25 15 15 25 15 15 25 15 15 25 15 15 25 15 15 25 15 15 25 15 15 25 15 15 25 15 15 25 15 15 25 15 15 25 15 15 25 15 15 25 15 15 25 15 15 25 15 15 25 15 15 25 15 15 25 15 15 25 15 15 25 15 15 25 15 15 25 15 15 25 15 15 25 15 15 25 15 15 25 15 15 25 15 15 25 15 15 25 15 15 25 15 15 25 15 15 25 15 15 25 15 15 25 15 15 25 15 15 25 15 15 25 15 15 25 15 15 25 15 15 25 15 15 25 15 15 25 15 15 25 15 15 25 15 15 25 15 15 25 15 15 25 15 15 25 15 15 25 15 15 25 15 15 25 15 15 25 15 15 25 15 15 25 15 15 25 15 15 25 15 15 25 15 15 25 255 180 0 15 15 25 15 15 25 15 15 25 15 15 25 15 15 25 15 15 25 255 0 0 15 15 25 15 15 25 15 15 25 15 15 25 15 15 25 15 15 25 15 15 25 15 15 25 255 180 0 15 15 25 15 15 25 15 15 25 15 15 25 15 15 25 15 15 25 15 15 25 15 15 25 15 15 25 15 15 25 15 15 25 15 15 25 15 15 25 15 15 25 15 15 25 15 15 25 15 15 25 15 15 25 15 15 25 15 15 25 15 15 25 15 15 25 15 15 25 15 15 25 15 15 25 15 15 25 15 15 25 15 15 25 15 15 25 15 15 25 15 15 25 15 15 25 15 15 25 15 15 25 15 15 25 15 15 25 15 15 25 15 15 25 15 15 25 15 15 25 15 15 25 15 15 25 15 15 25 15 15 25 15 15 25 15 15 25 15 15 25 15 15 25 15 15 25 15 15 25 15 15 25 15 15 25 15 15 25 15 15 25 15 15 25 15 15 25 15 15 25 15 15 25 15 15 25 15 15 25 15 15 25 15 15 25 15 15 25 15 15 25 15 15 25 15 15 25 15 15 25 15 15 25 15 15 25 15 15 25 15 15 25 15 15 25 15 15 25 15 15 25 15 15 25 15 15 25 15 15 25 
15 15 25 15 15 25 15 15 25 15 15 25 15 15 25 15 15 25 15 15 25 15 15 25 15 15 25 15 15 25 15 15 25 15 15 25 15 15 25 15 15 25 15 15 25 15 15 25 15 15 25 15 15 25 15 15 25 15 15 25 15 15 25 15 15 25 15 15 25 15 15 25 15 15 25 15 15 25 15 15 25 15 15 25 15 15 25 15 15 25 15 15 25 15 15 25 15 15 25 15 15 25 15 15 25 15 15 25 15 15 25 15 15 25 15 15 25 15 15 25 15 15 25 15 15 25 15 15 25 15 15 25 15 15 25 15 15 25 15 15 25 15 15 25 15 15 25 15 15 25 15 15 25 15 15 25 15 15 25 15 15 25 15 15 25 15 15 25 15 15 25 15 15 25 15 15 25 15 15 25 15 15 25 15 15 25 15 15 25 15 15 25 15 15 25 15 15 25 15 15 25 15 15 25 15 15 25 15 15 25 15 15 25 15 15 25 15 15 25 15 15 25 15 15 25 15 15 25 15 15 25 15 15 25 15 15 25 15 15 25 15 15 25 15 15 25 15 15 25 15 15 25 15 15 25 0 255 0 15 15 25 15 15 25 15 15 25 15 15 25 15 15 25 15 15 25 15 15 25 15 15 25 15 15 25 15 15 25 15 15 25 15 15 25 15 15 25 15 15 25 15 15 25 15 15 25 15 15 25 15 15 25 15 15 25 15 15 25 15 15 25 15 15 25 15 15 25 15 15 25 15 15 25 15 15 25 15 15 25 15 15 25 15 15 25 15 15 25 15 15 25 15 15 25 15 15 25 15 15 25 15 15 25 15 15 25 15 15 25 15 15 25 15 15 25 15 15 25 15 15 25 15 15 25 15 15 25 15 15 25 15 15 25 15 15 25 15 15 25 15 15 25 15 15 25 15 15 25 15 15 25 15 15 25 15 15 25 15 15 25 15 15 25 15 15 25 15 15 25 15 15 25 15 15 25 15 15 25 15 15 25 15 15 25 15 15 25 15 15 25 15 15 25 15 15 25 15 15 25 15 15 25 15 15 25 15 15 25 15 15 25 15 15 25 15 15 25 15 15 25 15 15 25 15 15 25 255 180 0 15 15 25 15 15 25 15 15 25 15 15 25 15 15 25 15 15 25 15 15 25 255 0 0 15 15 25 15 15 25 15 15 25 15 15 25 15 15 25 15 15 25 15 15 25 15 15 25 255 180 0 15 15 25 15 15 25 15 15 25 15 15 25 15 15 25 15 15 25 15 15 25 15 15 25 15 15 25 15 15 25 15 15 25 15 15 25 15 15 25 15 15 25 15 15 25 15 15 25 15 15 25 15 15 25 15 15 25 15 15 25 15 15 25 15 15 25 15 15 25 15 15 25 15 15 25 15 15 25 15 15 25 15 15 25 15 15 25 15 15 25 15 15 25 15 15 25 15 15 25 15 15 25 15 15 25 15 15 25 15 15 25 15 15 25 15 15 25 15 15 25 15 15 25 15 15 25 15 15 25 15 15 25 15 15 25 15 15 25 15 15 25 15 15 25 15 15 25 15 15 25 15 15 25 15 15 25 15 15 25 15 15 25 15 15 25 15 15 25 15 15 25 15 15 25 15 15 25 15 15 25 15 15 25 15 15 25 15 15 25 15 15 25 15 15 25 15 15 25 15 15 25 15 15 25 15 15 25 15 15 25 15 15 25 15 15 25 15 15 25 15 15 25 15 15 25 15 15 25 
15 15 25 15 15 25 15 15 25 15 15 25 15 15 25 15 15 25 15 15 25 15 15 25 15 15 25 15 15 25 15 15 25 15 15 25 15 15 25 15 15 25 15 15 25 15 15 25 15 15 25 15 15 25 15 15 25 15 15 25 15 15 25 15 15 25 15 15 25 15 15 25 15 15 25 15 15 25 15 15 25 15 15 25 15 15 25 15 15 25 15 15 25 15 15 25 15 15 25 15 15 25 15 15 25 15 15 25 15 15 25 15 15 25 15 15 25 15 15 25 15 15 25 15 15 25 15 15 25 15 15 25 15 15 25 15 15 25 15 15 25 15 15 25 15 15 25 15 15 25 15 15 25 15 15 25 15 15 25 15 15 25 15 15 25 15 15 25 15 15 25 15 15 25 15 15 25 15 15 25 15 15 25 15 15 25 15 15 25 15 15 25 15 15 25 15 15 25 15 15 25 15 15 25 15 15 25 15 15 25 15 15 25 15 15 25 15 15 25 15 15 25 15 15 25 15 15 25 15 15 25 15 15 25 15 15 25 15 15 25 15 15 25 15 15 25 15 15 25 15 15 25 0 255 0 15 15 25 15 15 25 15 15 25 15 15 25 15 15 25 15 15 25 15 15 25 15 15 25 15 15 25 15 15 25 15 15 25 15 15 25 15 15 25 15 15 25 15 15 25 15 15 25 15 15 25 15 15 25 15 15 25 15 15 25 15 15 25 15 15 25 15 15 25 15 15 25 15 15 25 15 15 25 15 15 25 15 15 25 15 15 25 15 15 25 15 15 25 15 15 25 15 15 25 15 15 25 15 15 25 15 15 25 15 15 25 15 15 25 15 15 25 15 15 25 15 15 25 15 15 25 15 15 25 15 15 25 15 15 25 15 15 25 15 15 25 15 15 25 15 15 25 15 15 25 15 15 25 15 15 25 15 15 25 15 15 25 15 15 25 15 15 25 15 15 25 15 15 25 15 15 25 15 15 25 15 15 25 15 15 25 15 15 25 15 15 25 15 15 25 15 15 25 15 15 25 15 15 25 15 15 25 15 15 25 15 15 25 15 15 25 15 15 25 15 15 25 15 15 25 15 15 25 255 180 0 15 15 25 15 15 25 15 15 25 15 15 25 15 15 25 15 15 25 15 15 25 15 15 25 15 15 25 255 0 0 15 15 25 15 15 25 15 15 25 15 15 25 15 15 25 15 15 25 15 15 25 255 180 0 15 15 25 15 15 25 15 15 25 15 15 25 15 15 25 15 15 25 15 15 25 15 15 25 15 15 25 15 15 25 15 15 25 15 15 25 15 15 25 15 15 25 15 15 25 15 15 25 15 15 25 15 15 25 15 15 25 15 15 25 15 15 25 15 15 25 15 15 25 15 15 25 15 15 25 15 15 25 15 15 25 15 15 25 15 15 25 15 15 25 15 15 25 15 15 25 15 15 25 15 15 25 15 15 25 15 15 25 15 15 25 15 15 25 15 15 25 15 15 25 15 15 25 15 15 25 15 15 25 15 15 25 15 15 25 15 15 25 15 15 25 15 15 25 15 15 25 15 15 25 15 15 25 15 15 25 15 15 25 15 15 25 15 15 25 15 15 25 15 15 25 15 15 25 15 15 25 15 15 25 15 15 25 15 15 25 15 15 25 15 15 25 15 15 25 15 15 25 15 15 25 15 15 25 15 15 25 15 15 25 15 15 25 15 15 25 15 15 25 15 15 25 15 15 25 15 15 25 
15 15 25 15 15 25 15 15 25 15 15 25 15 15 25 15 15 25 15 15 25 15 15 25 15 15 25 15 15 25 15 15 25 15 15 25 15 15 25 15 15 25 15 15 25 15 15 25 15 15 25 15 15 25 15 15 25 15 15 25 15 15 25 15 15 25 15 15 25 15 15 25 15 15 25 15 15 25 15 15 25 15 15 25 15 15 25 15 15 25 15 15 25 15 15 25 15 15 25 15 15 25 15 15 25 15 15 25 15 15 25 15 15 25 15 15 25 15 15 25 15 15 25 15 15 25 15 15 25 15 15 25 15 15 25 15 15 25 15 15 25 15 15 25 15 15 25 15 15 25 15 15 25 15 15 25 15 15 25 15 15 25 15 15 25 15 15 25 15 15 25 15 15 25 15 15 25 15 15 25 15 15 25 15 15 25 15 15 25 15 15 25 15 15 25 15 15 25 15 15 25 15 15 25 15 15 25 15 15 25 15 15 25 15 15 25 15 15 25 15 15 25 15 15 25 15 15 25 15 15 25 15 15 25 15 15 25 15 15 25 15 15 25 15 15 25 15 15 25 0 255 0 15 15 25 15 15 25 15 15 25 15 15 25 15 15 25 15 15 25 15 15 25 15 15 25 15 15 25 15 15 25 15 15 25 15 15 25 15 15 25 15 15 25 15 15 25 15 15 25 15 15 25 15 15 25 15 15 25 15 15 25 15 15 25 15 15 25 15 15 25 15 15 25 15 15 25 15 15 25 15 15 25 15 15 25 15 15 25 15 15 25 15 15 25 15 15 25 15 15 25 15 15 25 15 15 25 15 15 25 15 15 25 15 15 25 15 15 25 15 15 25 15 15 25 15 15 25 15 15 25 15 15 25 15 15 25 15 15 25 15 15 25 15 15 25 15 15 25 15 15 25 15 15 25 15 15 25 15 15 25 15 15 25 15 15 25 15 15 25 15 15 25 15 15 25 15 15 25 15 15 25 15 15 25 15 15 25 15 15 25 15 15 25 15 15 25 15 15 25 15 15 25 15 15 25 15 15 25 15 15 25 15 15 25 15 15 25 15 15 25 15 15 25 15 15 25 15 15 25 255 180 0 15 15 25 15 15 25 15 15 25 15 15 25 15 15 25 15 15 25 15 15 25 15 15 25 15 15 25 15 15 25 15 15 25 255 0 0 15 15 25 15 15 25 15 15 25 15 15 25 15 15 25 15 15 25 15 15 25 255 180 0 15 15 25 15 15 25 15 15 25 15 15 25 15 15 25 15 15 25 15 15 25 15 15 25 15 15 25 15 15 25 15 15 25 15 15 25 15 15 25 15 15 25 15 15 25 15 15 25 15 15 25 15 15 25 15 15 25 15 15 25 15 15 25 15 15 25 15 15 25 15 15 25 15 15 25 15 15 25 15 15 25 15 15 25 15 15 25 15 15 25 15 15 25 15 15 25 15 15 25 15 15 25 15 15 25 15 15 25 15 15 25 15 15 25 15 15 25 15 15 25 15 15 25 15 15 25 15 15 25 15 15 25 15 15 25 15 15 25 15 15 25 15 15 25 15 15 25 15 15 25 15 15 25 15 15 25 15 15 25 15 15 25 15 15 25 15 15 25 15 15 25 15 15 25 15 15 25 15 15 25 15 15 25 15 15 25 15 15 25 15 15 25 15 15 25 15 15 25 15 15 25 15 15 25 15 15 25 15 15 25 15 15 25 15 15 25 15 15 25 15 15 25 15 15 25 
15 15 25 15 15 25 15 15 25 15 15 25 15 15 25 15 15 25 15 15 25 15 15 25 15 15 25 15 15 25 15 15 25 15 15 25 15 15 25 15 15 25 15 15 25 15 15 25 15 15 25 15 15 25 15 15 25 15 15 25 15 15 25 15 15 25 15 15 25 15 15 25 15 15 25 15 15 25 15 15 25 15 15 25 15 15 25 15 15 25 15 15 25 15 15 25 15 15 25 15 15 25 15 15 25 15 15 25 15 15 25 15 15 25 15 15 25 15 15 25 15 15 25 15 15 25 15 15 25 15 15 25 15 15 25 15 15 25 15 15 25 15 15 25 15 15 25 15 15 25 15 15 25 15 15 25 15 15 25 15 15 25 15 15 25 15 15 25 15 15 25 15 15 25 15 15 25 15 15 25 15 15 25 15 15 25 15 15 25 15 15 25 15 15 25 15 15 25 15 15 25 15 15 25 15 15 25 15 15 25 15 15 25 15 15 25 15 15 25 15 15 25 15 15 25 15 15 25 15 15 25 15 15 25 15 15 25 15 15 25 15 15 25 15 15 25 0 255 0 15 15 25 15 15 25 15 15 25 15 15 25 15 15 25 15 15 25 15 15 25 15 15 25 15 15 25 15 15 25 15 15 25 15 15 25 15 15 25 15 15 25 15 15 25 15 15 25 15 15 25 15 15 25 15 15 25 15 15 25 15 15 25 15 15 25 15 15 25 15 15 25 15 15 25 15 15 25 15 15 25 15 15 25 15 15 25 15 15 25 15 15 25 15 15 25 15 15 25 15 15 25 15 15 25 15 15 25 15 15 25 15 15 25 15 15 25 15 15 25 15 15 25 15 15 25 15 15 25 15 15 25 15 15 25 15 15 25 15 15 25 15 15 25 15 15 25 15 15 25 15 15 25 15 15 25 15 15 25 15 15 25 15 15 25 15 15 25 15 15 25 15 15 25 15 15 25 15 15 25 15 15 25 15 15 25 15 15 25 15 15 25 15 15 25 15 15 25 15 15 25 15 15 25 15 15 25 15 15 25 15 15 25 15 15 25 15 15 25 15 15 25 15 15 25 15 15 25 255 180 0 15 15 25 15 15 25 15 15 25 15 15 25 15 15 25 15 15 25 15 15 25 15 15 25 15 15 25 15 15 25 15 15 25 15 15 25 15 15 25 255 0 0 15 15 25 15 15 25 15 15 25 15 15 25 15 15 25 15 15 25 15 15 25 255 180 0 15 15 25 15 15 25 15 15 25 15 15 25 15 15 25 15 15 25 15 15 25 15 15 25 15 15 25 15 15 25 15 15 25 15 15 25 15 15 25 15 15 25 15 15 25 15 15 25 15 15 25 15 15 25 15 15 25 15 15 25 15 15 25 15 15 25 15 15 25 15 15 25 15 15 25 15 15 25 15 15 25 15 15 25 15 15 25 15 15 25 15 15 25 15 15 25 15 15 25 15 15 25 15 15 25 15 15 25 15 15 25 15 15 25 15 15 25 15 15 25 15 15 25 15 15 25 15 15 25 15 15 25 15 15 25 15 15 25 15 15 25 15 15 25 15 15 25 15 15 25 15 15 25 15 15 25 15 15 25 15 15 25 15 15 25 15 15 25 15 15 25 15 15 25 15 15 25 15 15 25 15 15 25 15 15 25 15 15 25 15 15 25 15 15 25 15 15 25 15 15 25 15 15 25 15 15 25 15 15 25 15 15 25 15 15 25 15 15 25 15 15 25 
15 15 25 15 15 25 15 15 25 15 15 25 15 15 25 15 15 25 15 15 25 15 15 25 15 15 25 15 15 25 15 15 25 15 15 25 15 15 25 15 15 25 15 15 25 15 15 25 15 15 25 15 15 25 15 15 25 15 15 25 15 15 25 15 15 25 15 15 25 15 15 25 15 15 25 15 15 25 15 15 25 15 15 25 15 15 25 15 15 25 15 15 25 15 15 25 15 15 25 15 15 25 15 15 25 15 15 25 15 15 25 15 15 25 15 15 25 15 15 25 15 15 25 15 15 25 15 15 25 15 15 25 15 15 25 15 15 25 15 15 25 15 15 25 15 15 25 15 15 25 15 15 25 15 15 25 15 15 25 15 15 25 15 15 25 15 15 25 15 15 25 15 15 25 15 15 25 15 15 25 15 15 25 15 15 25 15 15 25 15 15 25 15 15 25 15 15 25 15 15 25 15 15 25 15 15 25 15 15 25 15 15 25 15 15 25 15 15 25 15 15 25 15 15 25 15 15 25 15 15 25 15 15 25 15 15 25 15 15 25 15 15 25 0 255 0 15 15 25 15 15 25 15 15 25 15 15 25 15 15 25 15 15 25 15 15 25 15 15 25 15 15 25 15 15 25 15 15 25 15 15 25 15 15 25 15 15 25 15 15 25 15 15 25 15 15 25 15 15 25 15 15 25 15 15 25 15 15 25 15 15 25 15 15 25 15 15 25 15 15 25 15 15 25 15 15 25 15 15 25 15 15 25 15 15 25 15 15 25 15 15 25 15 15 25 15 15 25 15 15 25 15 15 25 15 15 25 15 15 25 15 15 25 15 15 25 15 15 25 15 15 25 15 15 25 15 15 25 15 15 25 15 15 25 15 15 25 15 15 25 15 15 25 15 15 25 15 15 25 15 15 25 15 15 25 15 15 25 15 15 25 15 15 25 15 15 25 15 15 25 15 15 25 15 15 25 15 15 25 15 15 25 15 15 25 15 15 25 15 15 25 15 15 25 15 15 25 15 15 25 15 15 25 15 15 25 15 15 25 15 15 25 15 15 25 15 15 25 15 15 25 15 15 25 255 180 0 15 15 25 15 15 25 15 15 25 15 15 25 15 15 25 15 15 25 15 15 25 15 15 25 15 15 25 15 15 25 15 15 25 15 15 25 15 15 25 15 15 25 15 15 25 255 0 0 15 15 25 15 15 25 15 15 25 15 15 25 15 15 25 15 15 25 15 15 25 255 180 0 15 15 25 15 15 25 15 15 25 15 15 25 15 15 25 15 15 25 15 15 25 15 15 25 15 15 25 15 15 25 15 15 25 15 15 25 15 15 25 15 15 25 15 15 25 15 15 25 15 15 25 15 15 25 15 15 25 15 15 25 15 15 25 15 15 25 15 15 25 15 15 25 15 15 25 15 15 25 15 15 25 15 15 25 15 15 25 15 15 25 15 15 25 15 15 25 15 15 25 15 15 25 15 15 25 15 15 25 15 15 25 15 15 25 15 15 25 15 15 25 15 15 25 15 15 25 15 15 25 15 15 25 15 15 25 15 15 25 15 15 25 15 15 25 15 15 25 15 15 25 15 15 25 15 15 25 15 15 25 15 15 25 15 15 25 15 15 25 15 15 25 15 15 25 15 15 25 15 15 25 15 15 25 15 15 25 15 15 25 15 15 25 15 15 25 15 15 25 15 15 25 15 15 25 15 15 25 15 15 25 15 15 25 15 15 25 15 15 25 
15 15 25 15 15 25 15 15 25 15 15 25 15 15 25 15 15 25 15 15 25 15 15 25 15 15 25 15 15 25 15 15 25 15 15 25 15 15 25 15 15 25 15 15 25 15 15 25 15 15 25 15 15 25 15 15 25 15 15 25 15 15 25 15 15 25 15 15 25 15 15 25 15 15 25 15 15 25 15 15 25 15 15 25 15 15 25 15 15 25 15 15 25 15 15 25 15 15 25 15 15 25 15 15 25 15 15 25 15 15 25 15 15 25 15 15 25 15 15 25 15 15 25 15 15 25 15 15 25 15 15 25 15 15 25 15 15 25 15 15 25 15 15 25 15 15 25 15 15 25 15 15 25 15 15 25 15 15 25 15 15 25 15 15 25 15 15 25 15 15 25 15 15 25 15 15 25 15 15 25 15 15 25 15 15 25 15 15 25 15 15 25 15 15 25 15 15 25 15 15 25 15 15 25 15 15 25 15 15 25 15 15 25 15 15 25 15 15 25 15 15 25 15 15 25 15 15 25 15 15 25 15 15 25 15 15 25 15 15 25 0 255 0 15 15 25 15 15 25 15 15 25 15 15 25 15 15 25 15 15 25 15 15 25 15 15 25 15 15 25 15 15 25 15 15 25 15 15 25 15 15 25 15 15 25 15 15 25 15 15 25 15 15 25 15 15 25 15 15 25 15 15 25 15 15 25 15 15 25 15 15 25 15 15 25 15 15 25 15 15 25 15 15 25 15 15 25 15 15 25 15 15 25 15 15 25 15 15 25 15 15 25 15 15 25 15 15 25 15 15 25 15 15 25 15 15 25 15 15 25 15 15 25 15 15 25 15 15 25 15 15 25 15 15 25 15 15 25 15 15 25 15 15 25 15 15 25 15 15 25 15 15 25 15 15 25 15 15 25 15 15 25 15 15 25 15 15 25 15 15 25 15 15 25 15 15 25 15 15 25 15 15 25 15 15 25 15 15 25 15 15 25 15 15 25 15 15 25 15 15 25 15 15 25 15 15 25 15 15 25 15 15 25 15 15 25 15 15 25 15 15 25 15 15 25 15 15 25 15 15 25 255 180 0 15 15 25 15 15 25 15 15 25 15 15 25 15 15 25 15 15 25 15 15 25 15 15 25 15 15 25 15 15 25 15 15 25 15 15 25 15 15 25 15 15 25 15 15 25 15 15 25 15 15 25 255 0 0 15 15 25 15 15 25 15 15 25 15 15 25 15 15 25 15 15 25 15 15 25 255 180 0 15 15 25 15 15 25 15 15 25 15 15 25 15 15 25 15 15 25 15 15 25 15 15 25 15 15 25 15 15 25 15 15 25 15 15 25 15 15 25 15 15 25 15 15 25 15 15 25 15 15 25 15 15 25 15 15 25 15 15 25 15 15 25 15 15 25 15 15 25 15 15 25 15 15 25 15 15 25 15 15 25 15 15 25 15 15 25 15 15 25 15 15 25 15 15 25 15 15 25 15 15 25 15 15 25 15 15 25 15 15 25 15 15 25 15 15 25 15 15 25 15 15 25 15 15 25 15 15 25 15 15 25 15 15 25 15 15 25 15 15 25 15 15 25 15 15 25 15 15 25 15 15 25 15 15 25 15 15 25 15 15 25 15 15 25 15 15 25 15 15 25 15 15 25 15 15 25 15 15 25 15 15 25 15 15 25 15 15 25 15 15 25 15 15 25 15 15 25 15 15 25 15 15 25 15 15 25 15 15 25 15 15 25 15 15 25 
15 15 25 15 15 25 15 15 25 15 15 25 15 15 25 15 15 25 15 15 25 15 15 25 15 15 25 15 15 25 15 15 25 15 15 25 15 15 25 15 15 25 15 15 25 15 15 25 15 15 25 15 15 25 15 15 25 15 15 25 15 15 25 15 15 25 15 15 25 15 15 25 15 15 25 15 15 25 15 15 25 15 15 25 15 15 25 15 15 25 15 15 25 15 15 25 15 15 25 15 15 25 15 15 25 15 15 25 15 15 25 15 15 25 15 15 25 15 15 25 15 15 25 15 15 25 15 15 25 15 15 25 15 15 25 15 15 25 15 15 25 15 15 25 15 15 25 15 15 25 15 15 25 15 15 25 15 15 25 15 15 25 15 15 25 15 15 25 15 15 25 15 15 25 15 15 25 15 15 25 15 15 25 15 15 25 15 15 25 15 15 25 15 15 25 15 15 25 15 15 25 15 15 25 15 15 25 15 15 25 15 15 25 15 15 25 15 15 25 15 15 25 15 15 25 15 15 25 15 15 25 15 15 25 15 15 25 0 255 0 15 15 25 15 15 25 15 15 25 15 15 25 15 15 25 15 15 25 15 15 25 15 15 25 15 15 25 15 15 25 15 15 25 15 15 25 15 15 25 15 15 25 15 15 25 15 15 25 15 15 25 15 15 25 15 15 25 15 15 25 15 15 25 15 15 25 15 15 25 15 15 25 15 15 25 15 15 25 15 15 25 15 15 25 15 15 25 15 15 25 15 15 25 15 15 25 15 15 25 15 15 25 15 15 25 15 15 25 15 15 25 15 15 25 15 15 25 15 15 25 15 15 25 15 15 25 15 15 25 15 15 25 15 15 25 15 15 25 15 15 25 15 15 25 15 15 25 15 15 25 15 15 25 15 15 25 15 15 25 15 15 25 15 15 25 15 15 25 15 15 25 15 15 25 15 15 25 15 15 25 15 15 25 15 15 25 15 15 25 15 15 25 15 15 25 15 15 25 15 15 25 15 15 25 15 15 25 15 15 25 15 15 25 15 15 25 15 15 25 15 15 25 15 15 25 15 15 25 15 15 25 255 180 0 15 15 25 15 15 25 15 15 25 15 15 25 15 15 25 15 15 25 15 15 25 15 15 25 15 15 25 15 15 25 15 15 25 15 15 25 15 15 25 15 15 25 15 15 25 15 15 25 15 15 25 15 15 25 255 0 0 15 15 25 15 15 25 15 15 25 15 15 25 15 15 25 15 15 25 15 15 25 255 180 0 15 15 25 15 15 25 15 15 25 15 15 25 15 15 25 15 15 25 15 15 25 15 15 25 15 15 25 15 15 25 15 15 25 15 15 25 15 15 25 15 15 25 15 15 25 15 15 25 15 15 25 15 15 25 15 15 25 15 15 25 15 15 25 15 15 25 15 15 25 15 15 25 15 15 25 15 15 25 15 15 25 15 15 25 15 15 25 15 15 25 15 15 25 15 15 25 15 15 25 15 15 25 15 15 25 15 15 25 15 15 25 15 15 25 15 15 25 15 15 25 15 15 25 15 15 25 15 15 25 15 15 25 15 15 25 15 15 25 15 15 25 15 15 25 15 15 25 15 15 25 15 15 25 15 15 25 15 15 25 15 15 25 15 15 25 15 15 25 15 15 25 15 15 25 15 15 25 15 15 25 15 15 25 15 15 25 15 15 25 15 15 25 15 15 25 15 15 25 15 15 25 15 15 25 15 15 25 15 15 25 15 15 25 
15 15 25 15 15 25 15 15 25 15 15 25 15 15 25 15 15 25 15 15 25 15 15 25 15 15 25 15 15 25 15 15 25 15 15 25 15 15 25 15 15 25 15 15 25 15 15 25 15 15 25 15 15 25 15 15 25 15 15 25 15 15 25 15 15 25 15 15 25 15 15 25 15 15 25 15 15 25 15 15 25 15 15 25 15 15 25 15 15 25 15 15 25 15 15 25 15 15 25 15 15 25 15 15 25 15 15 25 15 15 25 15 15 25 15 15 25 15 15 25 15 15 25 15 15 25 15 15 25 15 15 25 15 15 25 15 15 25 15 15 25 15 15 25 15 15 25 15 15 25 15 15 25 15 15 25 15 15 25 15 15 25 15 15 25 15 15 25 15 15 25 15 15 25 15 15 25 15 15 25 15 15 25 15 15 25 15 15 25 15 15 25 15 15 25 15 15 25 15 15 25 15 15 25 15 15 25 15 15 25 15 15 25 15 15 25 15 15 25 15 15 25 15 15 25 15 15 25 15 15 25 15 15 25 0 255 0 15 15 25 15 15 25 15 15 25 15 15 25 15 15 25 15 15 25 15 15 25 15 15 25 15 15 25 15 15 25 15 15 25 15 15 25 15 15 25 15 15 25 15 15 25 15 15 25 15 15 25 15 15 25 15 15 25 15 15 25 15 15 25 15 15 25 15 15 25 15 15 25 15 15 25 15 15 25 15 15 25 15 15 25 15 15 25 15 15 25 15 15 25 15 15 25 15 15 25 15 15 25 15 15 25 15 15 25 15 15 25 15 15 25 15 15 25 15 15 25 15 15 25 15 15 25 15 15 25 15 15 25 15 15 25 15 15 25 15 15 25 15 15 25 15 15 25 15 15 25 15 15 25 15 15 25 15 15 25 15 15 25 15 15 25 15 15 25 15 15 25 15 15 25 15 15 25 15 15 25 15 15 25 15 15 25 15 15 25 15 15 25 15 15 25 15 15 25 15 15 25 15 15 25 15 15 25 15 15 25 15 15 25 15 15 25 15 15 25 15 15 25 15 15 25 15 15 25 15 15 25 255 180 0 15 15 25 15 15 25 15 15 25 15 15 25 15 15 25 15 15 25 15 15 25 15 15 25 15 15 25 15 15 25 15 15 25 15 15 25 15 15 25 15 15 25 15 15 25 15 15 25 15 15 25 15 15 25 15 15 25 15 15 25 255 0 0 15 15 25 15 15 25 15 15 25 15 15 25 15 15 25 15 15 25 15 15 25 255 180 0 15 15 25 15 15 25 15 15 25 15 15 25 15 15 25 15 15 25 15 15 25 15 15 25 15 15 25 15 15 25 15 15 25 15 15 25 15 15 25 15 15 25 15 15 25 15 15 25 15 15 25 15 15 25 15 15 25 15 15 25 15 15 25 15 15 25 15 15 25 15 15 25 15 15 25 15 15 25 15 15 25 15 15 25 15 15 25 15 15 25 15 15 25 15 15 25 15 15 25 15 15 25 15 15 25 15 15 25 15 15 25 15 15 25 15 15 25 15 15 25 15 15 25 15 15 25 15 15 25 15 15 25 15 15 25 15 15 25 15 15 25 15 15 25 15 15 25 15 15 25 15 15 25 15 15 25 15 15 25 15 15 25 15 15 25 15 15 25 15 15 25 15 15 25 15 15 25 15 15 25 15 15 25 15 15 25 15 15 25 15 15 25 15 15 25 15 15 25 15 15 25 15 15 25 15 15 25 15 15 25 
15 15 25 15 15 25 15 15 25 15 15 25 15 15 25 15 15 25 15 15 25 15 15 25 15 15 25 15 15 25 15 15 25 15 15 25 15 15 25 15 15 25 15 15 25 15 15 25 15 15 25 15 15 25 15 15 25 15 15 25 15 15 25 15 15 25 15 15 25 15 15 25 15 15 25 15 15 25 15 15 25 15 15 25 15 15 25 15 15 25 15 15 25 15 15 25 15 15 25 15 15 25 15 15 25 15 15 25 15 15 25 15 15 25 15 15 25 15 15 25 15 15 25 15 15 25 15 15 25 15 15 25 15 15 25 15 15 25 15 15 25 15 15 25 15 15 25 15 15 25 15 15 25 15 15 25 15 15 25 15 15 25 15 15 25 15 15 25 15 15 25 15 15 25 15 15 25 15 15 25 15 15 25 15 15 25 15 15 25 15 15 25 15 15 25 15 15 25 15 15 25 15 15 25 15 15 25 15 15 25 15 15 25 15 15 25 15 15 25 15 15 25 15 15 25 15 15 25 15 15 25 0 255 0 15 15 25 15 15 25 15 15 25 15 15 25 15 15 25 15 15 25 15 15 25 15 15 25 15 15 25 15 15 25 15 15 25 15 15 25 15 15 25 15 15 25 15 15 25 15 15 25 15 15 25 15 15 25 15 15 25 15 15 25 15 15 25 15 15 25 15 15 25 15 15 25 15 15 25 15 15 25 15 15 25 15 15 25 15 15 25 15 15 25 15 15 25 15 15 25 15 15 25 15 15 25 15 15 25 15 15 25 15 15 25 15 15 25 15 15 25 15 15 25 15 15 25 15 15 25 15 15 25 15 15 25 15 15 25 15 15 25 15 15 25 15 15 25 15 15 25 15 15 25 15 15 25 15 15 25 15 15 25 15 15 25 15 15 25 15 15 25 15 15 25 15 15 25 15 15 25 15 15 25 15 15 25 15 15 25 15 15 25 15 15 25 15 15 25 15 15 25 15 15 25 15 15 25 15 15 25 15 15 25 15 15 25 15 15 25 15 15 25 15 15 25 15 15 25 15 15 25 15 15 25 255 180 0 15 15 25 15 15 25 15 15 25 15 15 25 15 15 25 15 15 25 15 15 25 15 15 25 15 15 25 15 15 25 15 15 25 15 15 25 15 15 25 15 15 25 15 15 25 15 15 25 15 15 25 15 15 25 15 15 25 15 15 25 15 15 25 15 15 25 255 0 0 15 15 25 15 15 25 15 15 25 15 15 25 15 15 25 15 15 25 255 180 0 15 15 25 15 15 25 15 15 25 15 15 25 15 15 25 15 15 25 15 15 25 15 15 25 15 15 25 15 15 25 15 15 25 15 15 25 15 15 25 15 15 25 15 15 25 15 15 25 15 15 25 15 15 25 15 15 25 15 15 25 15 15 25 15 15 25 15 15 25 15 15 25 15 15 25 15 15 25 15 15 25 15 15 25 15 15 25 15 15 25 15 15 25 15 15 25 15 15 25 15 15 25 15 15 25 15 15 25 15 15 25 15 15 25 15 15 25 15 15 25 15 15 25 15 15 25 15 15 25 15 15 25 15 15 25 15 15 25 15 15 25 15 15 25 15 15 25 15 15 25 15 15 25 15 15 25 15 15 25 15 15 25 15 15 25 15 15 25 15 15 25 15 15 25 15 15 25 15 15 25 15 15 25 15 15 25 15 15 25 15 15 25 15 15 25 15 15 25 15 15 25 15 15 25 15 15 25 15 15 25 
15 15 25 15 15 25 15 15 25 15 15 25 15 15 25 15 15 25 15 15 25 15 15 25 15 15 25 15 15 25 15 15 25 15 15 25 15 15 25 15 15 25 15 15 25 15 15 25 15 15 25 15 15 25 15 15 25 15 15 25 15 15 25 15 15 25 15 15 25 15 15 25 15 15 25 15 15 25 15 15 25 15 15 25 15 15 25 15 15 25 15 15 25 15 15 25 15 15 25 15 15 25 15 15 25 15 15 25 15 15 25 15 15 25 15 15 25 15 15 25 15 15 25 15 15 25 15 15 25 15 15 25 15 15 25 15 15 25 15 15 25 15 15 25 15 15 25 15 15 25 15 15 25 15 15 25 15 15 25 15 15 25 15 15 25 15 15 25 15 15 25 15 15 25 15 15 25 15 15 25 15 15 25 15 15 25 15 15 25 15 15 25 15 15 25 15 15 25 15 15 25 15 15 25 15 15 25 15 15 25 15 15 25 15 15 25 15 15 25 15 15 25 15 15 25 15 15 25 0 255 0 15 15 25 15 15 25 15 15 25 15 15 25 15 15 25 15 15 25 15 15 25 15 15 25 15 15 25 15 15 25 15 15 25 15 15 25 15 15 25 15 15 25 15 15 25 15 15 25 15 15 25 15 15 25 15 15 25 15 15 25 15 15 25 15 15 25 15 15 25 15 15 25 15 15 25 15 15 25 15 15 25 15 15 25 15 15 25 15 15 25 15 15 25 15 15 25 15 15 25 15 15 25 15 15 25 15 15 25 15 15 25 15 15 25 15 15 25 15 15 25 15 15 25 15 15 25 15 15 25 15 15 25 15 15 25 15 15 25 15 15 25 15 15 25 15 15 25 15 15 25 15 15 25 15 15 25 15 15 25 15 15 25 15 15 25 15 15 25 15 15 25 15 15 25 15 15 25 15 15 25 15 15 25 15 15 25 15 15 25 15 15 25 15 15 25 15 15 25 15 15 25 15 15 25 15 15 25 15 15 25 15 15 25 15 15 25 15 15 25 15 15 25 15 15 25 15 15 25 15 15 25 255 180 0 15 15 25 15 15 25 15 15 25 15 15 25 15 15 25 15 15 25 15 15 25 15 15 25 15 15 25 15 15 25 15 15 25 15 15 25 15 15 25 15 15 25 15 15 25 15 15 25 15 15 25 15 15 25 15 15 25 15 15 25 15 15 25 15 15 25 15 15 25 15 15 25 255 0 0 15 15 25 15 15 25 15 15 25 15 15 25 15 15 25 15 15 25 255 180 0 15 15 25 15 15 25 15 15 25 15 15 25 15 15 25 15 15 25 15 15 25 15 15 25 15 15 25 15 15 25 15 15 25 15 15 25 15 15 25 15 15 25 15 15 25 15 15 25 15 15 25 15 15 25 15 15 25 15 15 25 15 15 25 15 15 25 15 15 25 15 15 25 15 15 25 15 15 25 15 15 25 15 15 25 15 15 25 15 15 25 15 15 25 15 15 25 15 15 25 15 15 25 15 15 25 15 15 25 15 15 25 15 15 25 15 15 25 15 15 25 15 15 25 15 15 25 15 15 25 15 15 25 15 15 25 15 15 25 15 15 25 15 15 25 15 15 25 15 15 25 15 15 25 15 15 25 15 15 25 15 15 25 15 15 25 15 15 25 15 15 25 15 15 25 15 15 25 15 15 25 15 15 25 15 15 25 15 15 25 15 15 25 15 15 25 15 15 25 15 15 25 15 15 25 15 15 25 
15 15 25 15 15 25 15 15 25 15 15 25 15 15 25 15 15 25 15 15 25 15 15 25 15 15 25 15 15 25 15 15 25 15 15 25 15 15 25 15 15 25 15 15 25 15 15 25 15 15 25 15 15 25 15 15 25 15 15 25 15 15 25 15 15 25 15 15 25 15 15 25 15 15 25 15 15 25 15 15 25 15 15 25 15 15 25 15 15 25 15 15 25 15 15 25 15 15 25 15 15 25 15 15 25 15 15 25 15 15 25 15 15 25 15 15 25 15 15 25 15 15 25 15 15 25 15 15 25 15 15 25 15 15 25 15 15 25 15 15 25 15 15 25 15 15 25 15 15 25 255 255 255 15 15 25 15 15 25 15 15 25 15 15 25 15 15 25 15 15 25 15 15 25 15 15 25 15 15 25 15 15 25 15 15 25 15 15 25 15 15 25 15 15 25 15 15 25 15 15 25 15 15 25 15 15 25 15 15 25 15 15 25 15 15 25 15 15 25 15 15 25 15 15 25 0 255 0 15 15 25 15 15 25 15 15 25 15 15 25 15 15 25 15 15 25 15 15 25 15 15 25 15 15 25 15 15 25 15 15 25 15 15 25 15 15 25 15 15 25 15 15 25 15 15 25 15 15 25 15 15 25 15 15 25 15 15 25 15 15 25 15 15 25 15 15 25 15 15 25 15 15 25 15 15 25 15 15 25 15 15 25 15 15 25 15 15 25 15 15 25 15 15 25 15 15 25 15 15 25 15 15 25 15 15 25 15 15 25 15 15 25 15 15 25 15 15 25 15 15 25 15 15 25 15 15 25 15 15 25 15 15 25 15 15 25 15 15 25 15 15 25 15 15 25 15 15 25 15 15 25 15 15 25 15 15 25 15 15 25 15 15 25 15 15 25 15 15 25 15 15 25 15 15 25 15 15 25 15 15 25 15 15 25 15 15 25 15 15 25 15 15 25 15 15 25 15 15 25 15 15 25 15 15 25 15 15 25 15 15 25 15 15 25 15 15 25 15 15 25 15 15 25 15 15 25 15 15 25 255 180 0 15 15 25 15 15 25 15 15 25 15 15 25 15 15 25 15 15 25 15 15 25 15 15 25 15 15 25 15 15 25 15 15 25 15 15 25 15 15 25 15 15 25 15 15 25 15 15 25 15 15 25 15 15 25 15 15 25 15 15 25 15 15 25 15 15 25 15 15 25 15 15 25 15 15 25 15 15 25 255 0 0 15 15 25 15 15 25 15 15 25 15 15 25 15 15 25 15 15 25 255 180 0 15 15 25 15 15 25 15 15 25 15 15 25 15 15 25 15 15 25 15 15 25 15 15 25 15 15 25 15 15 25 15 15 25 15 15 25 15 15 25 15 15 25 15 15 25 15 15 25 15 15 25 15 15 25 15 15 25 15 15 25 15 15 25 15 15 25 15 15 25 15 15 25 15 15 25 15 15 25 15 15 25 15 15 25 15 15 25 15 15 25 15 15 25 15 15 25 15 15 25 15 15 25 15 15 25 15 15 25 15 15 25 15 15 25 15 15 25 15 15 25 15 15 25 15 15 25 15 15 25 15 15 25 15 15 25 15 15 25 15 15 25 15 15 25 15 15 25 15 15 25 15 15 25 15 15 25 15 15 25 15 15 25 15 15 25 15 15 25 15 15 25 15 15 25 15 15 25 15 15 25 15 15 25 15 15 25 15 15 25 15 15 25 15 15 25 15 15 25 15 15 25 15 15 25 
15 15 25 15 15 25 15 15 25 15 15 25 15 15 25 15 15 25 15 15 25 15 15 25 15 15 25 15 15 25 15 15 25 15 15 25 15 15 25 15 15 25 15 15 25 15 15 25 15 15 25 15 15 25 15 15 25 15 15 25 15 15 25 15 15 25 15 15 25 15 15 25 15 15 25 15 15 25 15 15 25 15 15 25 15 15 25 15 15 25 15 15 25 15 15 25 15 15 25 15 15 25 15 15 25 15 15 25 15 15 25 15 15 25 15 15 25 15 15 25 15 15 25 15 15 25 15 15 25 15 15 25 15 15 25 15 15 25 15 15 25 15 15 25 15 15 25 15 15 25 255 255 255 255 255 255 15 15 25 15 15 25 15 15 25 15 15 25 15 15 25 15 15 25 15 15 25 15 15 25 15 15 25 15 15 25 15 15 25 15 15 25 15 15 25 15 15 25 15 15 25 15 15 25 15 15 25 15 15 25 15 15 25 15 15 25 15 15 25 15 15 25 0 255 0 15 15 25 15 15 25 15 15 25 15 15 25 15 15 25 15 15 25 15 15 25 15 15 25 15 15 25 15 15 25 15 15 25 15 15 25 15 15 25 15 15 25 15 15 25 15 15 25 15 15 25 15 15 25 15 15 25 15 15 25 15 15 25 15 15 25 15 15 25 15 15 25 15 15 25 15 15 25 15 15 25 15 15 25 15 15 25 15 15 25 15 15 25 15 15 25 15 15 25 15 15 25 15 15 25 15 15 25 15 15 25 15 15 25 15 15 25 15 15 25 15 15 25 15 15 25 15 15 25 15 15 25 15 15 25 15 15 25 15 15 25 15 15 25 15 15 25 15 15 25 15 15 25 15 15 25 15 15 25 15 15 25 15 15 25 15 15 25 15 15 25 15 15 25 15 15 25 15 15 25 15 15 25 15 15 25 15 15 25 15 15 25 15 15 25 15 15 25 15 15 25 15 15 25 15 15 25 15 15 25 15 15 25 15 15 25 15 15 25 15 15 25 15 15 25 15 15 25 15 15 25 255 180 0 15 15 25 15 15 25 15 15 25 15 15 25 15 15 25 15 15 25 15 15 25 15 15 25 15 15 25 15 15 25 15 15 25 15 15 25 15 15 25 15 15 25 15 15 25 15 15 25 15 15 25 15 15 25 15 15 25 15 15 25 15 15 25 15 15 25 15 15 25 15 15 25 15 15 25 15 15 25 15 15 25 15 15 25 255 0 0 15 15 25 15 15 25 15 15 25 15 15 25 15 15 25 15 15 25 255 180 0 15 15 25 15 15 25 15 15 25 15 15 25 15 15 25 15 15 25 15 15 25 15 15 25 15 15 25 15 15 25 15 15 25 15 15 25 15 15 25 15 15 25 15 15 25 15 15 25 15 15 25 15 15 25 15 15 25 15 15 25 15 15 25 15 15 25 15 15 25 15 15 25 15 15 25 15 15 25 15 15 25 15 15 25 15 15 25 15 15 25 15 15 25 15 15 25 15 15 25 15 15 25 15 15 25 15 15 25 15 15 25 15 15 25 15 15 25 15 15 25 15 15 25 15 15 25 15 15 25 15 15 25 15 15 25 15 15 25 15 15 25 15 15 25 15 15 25 15 15 25 15 15 25 15 15 25 15 15 25 15 15 25 15 15 25 15 15 25 15 15 25 15 15 25 15 15 25 15 15 25 15 15 25 15 15 25 15 15 25 15 15 25 15 15 25 15 15 25 15 15 25 
15 15 25 15 15 25 15 15 25 15 15 25 15 15 25 15 15 25 15 15 25 15 15 25 15 15 25 15 15 25 15 15 25 15 15 25 15 15 25 15 15 25 15 15 25 15 15 25 15 15 25 15 15 25 15 15 25 15 15 25 15 15 25 15 15 25 15 15 25 15 15 25 15 15 25 15 15 25 15 15 25 15 15 25 15 15 25 15 15 25 15 15 25 15 15 25 15 15 25 15 15 25 15 15 25 15 15 25 15 15 25 15 15 25 15 15 25 15 15 25 15 15 25 15 15 25 15 15 25 15 15 25 15 15 25 15 15 25 15 15 25 15 15 25 15 15 25 255 255 255 15 15 25 255 255 255 15 15 25 15 15 25 15 15 25 15 15 25 15 15 25 15 15 25 15 15 25 15 15 25 15 15 25 15 15 25 15 15 25 15 15 25 15 15 25 15 15 25 15 15 25 15 15 25 15 15 25 15 15 25 15 15 25 15 15 25 15 15 25 0 255 0 15 15 25 15 15 25 15 15 25 15 15 25 15 15 25 15 15 25 15 15 25 15 15 25 15 15 25 15 15 25 15 15 25 15 15 25 15 15 25 15 15 25 15 15 25 15 15 25 15 15 25 15 15 25 15 15 25 15 15 25 15 15 25 15 15 25 15 15 25 15 15 25 15 15 25 15 15 25 15 15 25 15 15 25 15 15 25 15 15 25 15 15 25 15 15 25 15 15 25 15 15 25 15 15 25 15 15 25 15 15 25 15 15 25 15 15 25 15 15 25 15 15 25 15 15 25 15 15 25 15 15 25 15 15 25 15 15 25 15 15 25 15 15 25 15 15 25 15 15 25 15 15 25 15 15 25 15 15 25 15 15 25 15 15 25 15 15 25 15 15 25 15 15 25 15 15 25 15 15 25 15 15 25 15 15 25 15 15 25 15 15 25 15 15 25 15 15 25 15 15 25 15 15 25 15 15 25 15 15 25 15 15 25 15 15 25 15 15 25 15 15 25 15 15 25 15 15 25 15 15 25 15 15 25 255 180 0 15 15 25 15 15 25 15 15 25 15 15 25 15 15 25 15 15 25 15 15 25 15 15 25 15 15 25 15 15 25 15 15 25 15 15 25 15 15 25 15 15 25 15 15 25 15 15 25 15 15 25 15 15 25 15 15 25 15 15 25 15 15 25 15 15 25 15 15 25 15 15 25 15 15 25 15 15 25 15 15 25 15 15 25 15 15 25 255 0 0 15 15 25 15 15 25 15 15 25 15 15 25 15 15 25 15 15 25 255 180 0 15 15 25 15 15 25 15 15 25 15 15 25 15 15 25 15 15 25 15 15 25 15 15 25 15 15 25 15 15 25 15 15 25 15 15 25 15 15 25 15 15 25 15 15 25 15 15 25 15 15 25 15 15 25 15 15 25 15 15 25 15 15 25 15 15 25 15 15 25 15 15 25 15 15 25 15 15 25 15 15 25 15 15 25 15 15 25 15 15 25 15 15 25 15 15 25 15 15 25 15 15 25 15 15 25 15 15 25 15 15 25 15 15 25 15 15 25 15 15 25 15 15 25 15 15 25 15 15 25 15 15 25 15 15 25 15 15 25 15 15 25 15 15 25 15 15 25 15 15 25 15 15 25 15 15 25 15 15 25 15 15 25 15 15 25 15 15 25 15 15 25 15 15 25 15 15 25 15 15 25 15 15 25 15 15 25 15 15 25 15 15 25 15 15 25 15 15 25 
15 15 25 15 15 25 15 15 25 15 15 25 15 15 25 15 15 25 15 15 25 15 15 25 15 15 25 15 15 25 15 15 25 15 15 25 15 15 25 15 15 25 15 15 25 15 15 25 15 15 25 15 15 25 15 15 25 15 15 25 15 15 25 15 15 25 15 15 25 15 15 25 15 15 25 15 15 25 15 15 25 15 15 25 15 15 25 15 15 25 15 15 25 15 15 25 15 15 25 15 15 25 15 15 25 15 15 25 15 15 25 15 15 25 15 15 25 15 15 25 15 15 25 15 15 25 15 15 25 15 15 25 15 15 25 15 15 25 15 15 25 15 15 25 15 15 25 255 255 255 15 15 25 15 15 25 255 255 255 15 15 25 15 15 25 15 15 25 15 15 25 15 15 25 15 15 25 15 15 25 15 15 25 15 15 25 15 15 25 15 15 25 15 15 25 15 15 25 15 15 25 15 15 25 15 15 25 15 15 25 15 15 25 15 15 25 0 255 0 15 15 25 15 15 25 15 15 25 15 15 25 15 15 25 15 15 25 15 15 25 15 15 25 15 15 25 15 15 25 15 15 25 15 15 25 15 15 25 15 15 25 15 15 25 15 15 25 15 15 25 15 15 25 15 15 25 15 15 25 15 15 25 15 15 25 15 15 25 15 15 25 15 15 25 15 15 25 15 15 25 15 15 25 15 15 25 15 15 25 15 15 25 15 15 25 15 15 25 15 15 25 15 15 25 15 15 25 15 15 25 15 15 25 15 15 25 15 15 25 15 15 25 15 15 25 15 15 25 15 15 25 15 15 25 15 15 25 15 15 25 15 15 25 15 15 25 15 15 25 15 15 25 15 15 25 15 15 25 15 15 25 15 15 25 15 15 25 15 15 25 15 15 25 15 15 25 15 15 25 15 15 25 15 15 25 15 15 25 15 15 25 15 15 25 15 15 25 15 15 25 15 15 25 15 15 25 15 15 25 15 15 25 15 15 25 15 15 25 15 15 25 15 15 25 15 15 25 15 15 25 15 15 25 255 180 0 15 15 25 15 15 25 15 15 25 15 15 25 15 15 25 15 15 25 15 15 25 15 15 25 15 15 25 15 15 25 15 15 25 15 15 25 15 15 25 15 15 25 15 15 25 15 15 25 15 15 25 15 15 25 15 15 25 15 15 25 15 15 25 15 15 25 15 15 25 15 15 25 15 15 25 15 15 25 15 15 25 15 15 25 15 15 25 15 15 25 15 15 25 255 0 0 15 15 25 15 15 25 15 15 25 15 15 25 15 15 25 15 15 25 255 180 0 15 15 25 15 15 25 15 15 25 15 15 25 15 15 25 15 15 25 15 15 25 15 15 25 15 15 25 15 15 25 15 15 25 15 15 25 15 15 25 15 15 25 15 15 25 15 15 25 15 15 25 15 15 25 15 15 25 15 15 25 15 15 25 15 15 25 15 15 25 15 15 25 15 15 25 15 15 25 15 15 25 15 15 25 15 15 25 15 15 25 15 15 25 15 15 25 15 15 25 15 15 25 15 15 25 15 15 25 15 15 25 15 15 25 15 15 25 15 15 25 15 15 25 15 15 25 15 15 25 15 15 25 15 15 25 15 15 25 15 15 25 15 15 25 15 15 25 15 15 25 15 15 25 15 15 25 15 15 25 15 15 25 15 15 25 15 15 25 15 15 25 15 15 25 15 15 25 15 15 25 15 15 25 15 15 25 15 15 25 15 15 25 15 15 25 
15 15 25 15 15 25 15 15 25 15 15 25 15 15 25 15 15 25 15 15 25 15 15 25 15 15 25 15 15 25 15 15 25 15 15 25 15 15 25 15 15 25 15 15 25 15 15 25 15 15 25 15 15 25 15 15 25 15 15 25 15 15 25 15 15 25 15 15 25 15 15 25 15 15 25 15 15 25 15 15 25 15 15 25 15 15 25 15 15 25 15 15 25 15 15 25 15 15 25 15 15 25 15 15 25 15 15 25 15 15 25 15 15 25 15 15 25 15 15 25 15 15 25 15 15 25 15 15 25 15 15 25 15 15 25 15 15 25 15 15 25 15 15 25 255 255 255 15 15 25 15 15 25 15 15 25 255 255 255 15 15 25 15 15 25 15 15 25 15 15 25 15 15 25 15 15 25 15 15 25 15 15 25 15 15 25 15 15 25 15 15 25 15 15 25 15 15 25 15 15 25 15 15 25 15 15 25 15 15 25 15 15 25 0 255 0 15 15 25 15 15 25 15 15 25 15 15 25 15 15 25 15 15 25 15 15 25 15 15 25 15 15 25 15 15 25 15 15 25 15 15 25 15 15 25 15 15 25 15 15 25 15 15 25 15 15 25 15 15 25 15 15 25 15 15 25 15 15 25 15 15 25 15 15 25 15 15 25 15 15 25 15 15 25 15 15 25 15 15 25 15 15 25 15 15 25 15 15 25 15 15 25 15 15 25 15 15 25 15 15 25 15 15 25 15 15 25 15 15 25 15 15 25 15 15 25 15 15 25 15 15 25 15 15 25 15 15 25 15 15 25 15 15 25 15 15 25 15 15 25 15 15 25 15 15 25 15 15 25 15 15 25 15 15 25 15 15 25 15 15 25 15 15 25 15 15 25 15 15 25 15 15 25 15 15 25 15 15 25 15 15 25 15 15 25 15 15 25 15 15 25 15 15 25 15 15 25 15 15 25 15 15 25 15 15 25 15 15 25 15 15 25 15 15 25 15 15 25 15 15 25 15 15 25 15 15 25 15 15 25 255 180 0 15 15 25 15 15 25 15 15 25 15 15 25 15 15 25 15 15 25 15 15 25 15 15 25 15 15 25 15 15 25 15 15 25 15 15 25 15 15 25 15 15 25 15 15 25 15 15 25 15 15 25 15 15 25 15 15 25 15 15 25 15 15 25 15 15 25 15 15 25 15 15 25 15 15 25 15 15 25 15 15 25 15 15 25 15 15 25 15 15 25 15 15 25 15 15 25 15 15 25 255 0 0 15 15 25 15 15 25 15 15 25 15 15 25 15 15 25 15 15 25 255 180 0 15 15 25 15 15 25 15 15 25 15 15 25 15 15 25 15 15 25 15 15 25 15 15 25 15 15 25 15 15 25 15 15 25 15 15 25 15 15 25 15 15 25 15 15 25 15 15 25 15 15 25 15 15 25 15 15 25 15 15 25 15 15 25 15 15 25 15 15 25 15 15 25 15 15 25 15 15 25 15 15 25 15 15 25 15 15 25 15 15 25 15 15 25 15 15 25 15 15 25 15 15 25 15 15 25 15 15 25 15 15 25 15 15 25 15 15 25 15 15 25 15 15 25 15 15 25 15 15 25 15 15 25 15 15 25 15 15 25 15 15 25 15 15 25 15 15 25 15 15 25 15 15 25 15 15 25 15 15 25 15 15 25 15 15 25 15 15 25 15 15 25 15 15 25 15 15 25 15 15 25 15 15 25 15 15 25 15 15 25 15 15 25 
15 15 25 15 15 25 15 15 25 15 15 25 15 15 25 15 15 25 15 15 25 15 15 25 15 15 25 15 15 25 15 15 25 15 15 25 15 15 25 15 15 25 15 15 25 15 15 25 15 15 25 15 15 25 15 15 25 15 15 25 15 15 25 15 15 25 15 15 25 15 15 25 15 15 25 15 15 25 15 15 25 15 15 25 15 15 25 15 15 25 15 15 25 15 15 25 15 15 25 15 15 25 15 15 25 15 15 25 15 15 25 15 15 25 15 15 25 15 15 25 15 15 25 15 15 25 15 15 25 15 15 25 15 15 25 15 15 25 15 15 25 15 15 25 255 255 255 15 15 25 15 15 25 15 15 25 15 15 25 255 255 255 15 15 25 15 15 25 15 15 25 15 15 25 15 15 25 15 15 25 15 15 25 15 15 25 15 15 25 15 15 25 15 15 25 15 15 25 15 15 25 15 15 25 15 15 25 15 15 25 0 255 0 15 15 25 15 15 25 15 15 25 15 15 25 15 15 25 15 15 25 15 15 25 15 15 25 15 15 25 15 15 25 15 15 25 15 15 25 15 15 25 15 15 25 15 15 25 15 15 25 15 15 25 15 15 25 15 15 25 15 15 25 15 15 25 15 15 25 15 15 25 15 15 25 15 15 25 15 15 25 15 15 25 15 15 25 15 15 25 15 15 25 15 15 25 15 15 25 15 15 25 15 15 25 15 15 25 15 15 25 15 15 25 15 15 25 15 15 25 15 15 25 15 15 25 15 15 25 15 15 25 15 15 25 15 15 25 15 15 25 15 15 25 15 15 25 15 15 25 15 15 25 15 15 25 15 15 25 15 15 25 15 15 25 15 15 25 15 15 25 15 15 25 15 15 25 15 15 25 15 15 25 15 15 25 15 15 25 15 15 25 15 15 25 15 15 25 15 15 25 15 15 25 15 15 25 15 15 25 15 15 25 15 15 25 15 15 25 15 15 25 15 15 25 15 15 25 15 15 25 15 15 25 15 15 25 255 180 0 15 15 25 15 15 25 15 15 25 15 15 25 15 15 25 15 15 25 15 15 25 15 15 25 15 15 25 15 15 25 15 15 25 15 15 25 15 15 25 15 15 25 15 15 25 15 15 25 15 15 25 15 15 25 15 15 25 15 15 25 15 15 25 15 15 25 15 15 25 15 15 25 15 15 25 15 15 25 15 15 25 15 15 25 15 15 25 15 15 25 15 15 25 15 15 25 15 15 25 15 15 25 15 15 25 255 0 0 15 15 25 15 15 25 15 15 25 15 15 25 15 15 25 255 180 0 15 15 25 15 15 25 15 15 25 15 15 25 15 15 25 15 15 25 15 15 25 15 15 25 15 15 25 15 15 25 15 15 25 15 15 25 15 15 25 15 15 25 15 15 25 15 15 25 15 15 25 15 15 25 15 15 25 15 15 25 15 15 25 15 15 25 15 15 25 15 15 25 15 15 25 15 15 25 15 15 25 15 15 25 15 15 25 15 15 25 15 15 25 15 15 25 15 15 25 15 15 25 15 15 25 15 15 25 15 15 25 15 15 25 15 15 25 15 15 25 15 15 25 15 15 25 15 15 25 15 15 25 15 15 25 15 15 25 15 15 25 15 15 25 15 15 25 15 15 25 15 15 25 15 15 25 15 15 25 15 15 25 15 15 25 15 15 25 15 15 25 15 15 25 15 15 25 15 15 25 15 15 25 15 15 25 15 15 25 15 15 25 
15 15 25 15 15 25 15 15 25 15 15 25 15 15 25 15 15 25 15 15 25 15 15 25 15 15 25 15 15 25 15 15 25 15 15 25 15 15 25 15 15 25 15 15 25 15 15 25 15 15 25 15 15 25 15 15 25 15 15 25 15 15 25 15 15 25 15 15 25 15 15 25 15 15 25 15 15 25 15 15 25 15 15 25 15 15 25 15 15 25 15 15 25 15 15 25 15 15 25 15 15 25 15 15 25 15 15 25 15 15 25 15 15 25 15 15 25 15 15 25 15 15 25 15 15 25 15 15 25 15 15 25 15 15 25 15 15 25 15 15 25 255 255 255 15 15 25 15 15 25 15 15 25 15 15 25 15 15 25 255 255 255 15 15 25 15 15 25 15 15 25 15 15 25 15 15 25 15 15 25 15 15 25 15 15 25 15 15 25 15 15 25 15 15 25 15 15 25 15 15 25 15 15 25 15 15 25 0 255 0 15 15 25 15 15 25 15 15 25 15 15 25 15 15 25 15 15 25 15 15 25 15 15 25 15 15 25 15 15 25 15 15 25 15 15 25 15 15 25 15 15 25 15 15 25 15 15 25 15 15 25 15 15 25 15 15 25 15 15 25 15 15 25 15 15 25 15 15 25 15 15 25 15 15 25 15 15 25 15 15 25 15 15 25 15 15 25 15 15 25 15 15 25 15 15 25 15 15 25 15 15 25 15 15 25 15 15 25 15 15 25 15 15 25 15 15 25 15 15 25 15 15 25 15 15 25 15 15 25 15 15 25 15 15 25 15 15 25 15 15 25 15 15 25 15 15 25 15 15 25 15 15 25 15 15 25 15 15 25 15 15 25 15 15 25 15 15 25 15 15 25 15 15 25 15 15 25 15 15 25 15 15 25 15 15 25 15 15 25 15 15 25 15 15 25 15 15 25 15 15 25 15 15 25 15 15 25 15 15 25 15 15 25 15 15 25 15 15 25 15 15 25 15 15 25 15 15 25 15 15 25 15 15 25 255 180 0 15 15 25 15 15 25 15 15 25 15 15 25 15 15 25 15 15 25 15 15 25 15 15 25 15 15 25 15 15 25 15 15 25 15 15 25 15 15 25 15 15 25 15 15 25 15 15 25 15 15 25 15 15 25 15 15 25 15 15 25 15 15 25 15 15 25 15 15 25 15 15 25 15 15 25 15 15 25 15 15 25 15 15 25 15 15 25 15 15 25 15 15 25 15 15 25 15 15 25 15 15 25 15 15 25 15 15 25 15 15 25 255 0 0 15 15 25 15 15 25 15 15 25 15 15 25 15 15 25 255 180 0 15 15 25 15 15 25 15 15 25 15 15 25 15 15 25 15 15 25 15 15 25 15 15 25 15 15 25 15 15 25 15 15 25 15 15 25 15 15 25 15 15 25 15 15 25 15 15 25 15 15 25 15 15 25 15 15 25 15 15 25 15 15 25 15 15 25 15 15 25 15 15 25 15 15 25 15 15 25 15 15 25 15 15 25 15 15 25 15 15 25 15 15 25 15 15 25 15 15 25 15 15 25 15 15 25 15 15 25 15 15 25 15 15 25 15 15 25 15 15 25 15 15 25 15 15 25 15 15 25 15 15 25 15 15 25 15 15 25 15 15 25 15 15 25 15 15 25 15 15 25 15 15 25 15 15 25 15 15 25 15 15 25 15 15 25 15 15 25 15 15 25 15 15 25 15 15 25 15 15 25 15 15 25 15 15 25 15 15 25 
15 15 25 15 15 25 15 15 25 15 15 25 15 15 25 15 15 25 15 15 25 15 15 25 15 15 25 15 15 25 15 15 25 15 15 25 15 15 25 15 15 25 15 15 25 15 15 25 15 15 25 15 15 25 15 15 25 15 15 25 15 15 25 15 15 25 15 15 25 15 15 25 15 15 25 15 15 25 15 15 25 15 15 25 15 15 25 15 15 25 15 15 25 15 15 25 15 15 25 15 15 25 15 15 25 15 15 25 15 15 25 15 15 25 15 15 25 15 15 25 15 15 25 15 15 25 15 15 25 15 15 25 15 15 25 15 15 25 15 15 25 255 255 255 15 15 25 15 15 25 15 15 25 15 15 25 15 15 25 15 15 25 255 255 255 15 15 25 15 15 25 15 15 25 15 15 25 15 15 25 15 15 25 15 15 25 15 15 25 15 15 25 15 15 25 15 15 25 15 15 25 15 15 25 0 255 0 15 15 25 15 15 25 15 15 25 15 15 25 15 15 25 15 15 25 15 15 25 15 15 25 15 15 25 15 15 25 15 15 25 15 15 25 15 15 25 15 15 25 15 15 25 15 15 25 15 15 25 15 15 25 15 15 25 15 15 25 15 15 25 15 15 25 15 15 25 15 15 25 15 15 25 15 15 25 15 15 25 15 15 25 15 15 25 15 15 25 15 15 25 15 15 25 15 15 25 15 15 25 15 15 25 15 15 25 15 15 25 15 15 25 15 15 25 15 15 25 15 15 25 15 15 25 15 15 25 15 15 25 15 15 25 15 15 25 15 15 25 15 15 25 15 15 25 15 15 25 15 15 25 15 15 25 15 15 25 15 15 25 15 15 25 15 15 25 15 15 25 15 15 25 15 15 25 15 15 25 15 15 25 15 15 25 15 15 25 15 15 25 15 15 25 15 15 25 15 15 25 15 15 25 15 15 25 15 15 25 15 15 25 15 15 25 15 15 25 15 15 25 15 15 25 15 15 25 15 15 25 15 15 25 255 180 0 15 15 25 15 15 25 15 15 25 15 15 25 15 15 25 15 15 25 15 15 25 15 15 25 15 15 25 15 15 25 15 15 25 15 15 25 15 15 25 15 15 25 15 15 25 15 15 25 15 15 25 15 15 25 15 15 25 15 15 25 15 15 25 15 15 25 15 15 25 15 15 25 15 15 25 15 15 25 15 15 25 15 15 25 15 15 25 15 15 25 15 15 25 15 15 25 15 15 25 15 15 25 15 15 25 15 15 25 15 15 25 15 15 25 15 15 25 255 0 0 15 15 25 15 15 25 15 15 25 15 15 25 15 15 25 255 180 0 15 15 25 15 15 25 15 15 25 15 15 25 15 15 25 15 15 25 15 15 25 15 15 25 15 15 25 15 15 25 15 15 25 15 15 25 15 15 25 15 15 25 15 15 25 15 15 25 15 15 25 15 15 25 15 15 25 15 15 25 15 15 25 15 15 25 15 15 25 15 15 25 15 15 25 15 15 25 15 15 25 15 15 25 15 15 25 15 15 25 15 15 25 15 15 25 15 15 25 15 15 25 15 15 25 15 15 25 15 15 25 15 15 25 15 15 25 15 15 25 15 15 25 15 15 25 15 15 25 15 15 25 15 15 25 15 15 25 15 15 25 15 15 25 15 15 25 15 15 25 15 15 25 15 15 25 15 15 25 15 15 25 15 15 25 15 15 25 15 15 25 15 15 25 15 15 25 15 15 25 15 15 25 15 15 25 
15 15 25 15 15 25 15 15 25 15 15 25 15 15 25 15 15 25 15 15 25 15 15 25 15 15 25 15 15 25 15 15 25 15 15 25 15 15 25 15 15 25 15 15 25 15 15 25 15 15 25 15 15 25 15 15 25 15 15 25 15 15 25 15 15 25 15 15 25 15 15 25 15 15 25 15 15 25 15 15 25 15 15 25 15 15 25 15 15 25 15 15 25 15 15 25 15 15 25 15 15 25 15 15 25 15 15 25 15 15 25 15 15 25 15 15 25 15 15 25 15 15 25 15 15 25 15 15 25 15 15 25 15 15 25 15 15 25 255 255 255 15 15 25 15 15 25 15 15 25 15 15 25 15 15 25 15 15 25 15 15 25 255 255 255 15 15 25 15 15 25 15 15 25 15 15 25 15 15 25 15 15 25 15 15 25 15 15 25 15 15 25 15 15 25 15 15 25 15 15 25 0 255 0 15 15 25 15 15 25 15 15 25 15 15 25 15 15 25 15 15 25 15 15 25 15 15 25 15 15 25 15 15 25 15 15 25 15 15 25 15 15 25 15 15 25 15 15 25 15 15 25 15 15 25 15 15 25 15 15 25 15 15 25 15 15 25 15 15 25 15 15 25 15 15 25 15 15 25 15 15 25 15 15 25 15 15 25 15 15 25 15 15 25 15 15 25 15 15 25 15 15 25 15 15 25 15 15 25 15 15 25 15 15 25 15 15 25 15 15 25 15 15 25 15 15 25 15 15 25 15 15 25 15 15 25 15 15 25 15 15 25 15 15 25 15 15 25 15 15 25 15 15 25 15 15 25 15 15 25 15 15 25 15 15 25 15 15 25 15 15 25 15 15 25 15 15 25 15 15 25 15 15 25 15 15 25 15 15 25 15 15 25 15 15 25 15 15 25 15 15 25 15 15 25 15 15 25 15 15 25 15 15 25 15 15 25 15 15 25 15 15 25 15 15 25 15 15 25 15 15 25 15 15 25 15 15 25 15 15 25 255 180 0 15 15 25 15 15 25 15 15 25 15 15 25 15 15 25 15 15 25 15 15 25 15 15 25 15 15 25 15 15 25 15 15 25 15 15 25 15 15 25 15 15 25 15 15 25 15 15 25 15 15 25 15 15 25 15 15 25 15 15 25 15 15 25 15 15 25 15 15 25 15 15 25 15 15 25 15 15 25 15 15 25 15 15 25 15 15 25 15 15 25 15 15 25 15 15 25 15 15 25 15 15 25 15 15 25 15 15 25 15 15 25 15 15 25 15 15 25 15 15 25 255 0 0 15 15 25 15 15 25 15 15 25 15 15 25 15 15 25 255 180 0 15 15 25 15 15 25 15 15 25 15 15 25 15 15 25 15 15 25 15 15 25 15 15 25 15 15 25 15 15 25 15 15 25 15 15 25 15 15 25 15 15 25 15 15 25 15 15 25 15 15 25 15 15 25 15 15 25 15 15 25 15 15 25 15 15 25 15 15 25 15 15 25 15 15 25 15 15 25 15 15 25 15 15 25 15 15 25 15 15 25 15 15 25 15 15 25 15 15 25 15 15 25 15 15 25 15 15 25 15 15 25 15 15 25 15 15 25 15 15 25 15 15 25 15 15 25 15 15 25 15 15 25 15 15 25 15 15 25 15 15 25 15 15 25 15 15 25 15 15 25 15 15 25 15 15 25 15 15 25 15 15 25 15 15 25 15 15 25 15 15 25 15 15 25 15 15 25 15 15 25 15 15 25 
15 15 25 15 15 25 15 15 25 15 15 25 15 15 25 15 15 25 15 15 25 15 15 25 15 15 25 15 15 25 15 15 25 15 15 25 15 15 25 15 15 25 15 15 25 15 15 25 15 15 25 15 15 25 15 15 25 15 15 25 15 15 25 15 15 25 15 15 25 15 15 25 15 15 25 15 15 25 15 15 25 15 15 25 15 15 25 15 15 25 15 15 25 15 15 25 15 15 25 15 15 25 15 15 25 15 15 25 15 15 25 15 15 25 15 15 25 15 15 25 15 15 25 15 15 25 15 15 25 15 15 25 15 15 25 15 15 25 255 255 255 15 15 25 15 15 25 15 15 25 15 15 25 15 15 25 15 15 25 15 15 25 15 15 25 255 255 255 15 15 25 15 15 25 15 15 25 15 15 25 15 15 25 15 15 25 15 15 25 15 15 25 15 15 25 15 15 25 0 255 0 15 15 25 15 15 25 15 15 25 15 15 25 15 15 25 15 15 25 15 15 25 15 15 25 15 15 25 15 15 25 15 15 25 15 15 25 15 15 25 15 15 25 15 15 25 15 15 25 15 15 25 15 15 25 15 15 25 15 15 25 15 15 25 15 15 25 15 15 25 15 15 25 15 15 25 15 15 25 15 15 25 15 15 25 15 15 25 15 15 25 15 15 25 15 15 25 15 15 25 15 15 25 15 15 25 15 15 25 15 15 25 15 15 25 15 15 25 15 15 25 15 15 25 15 15 25 15 15 25 15 15 25 15 15 25 15 15 25 15 15 25 15 15 25 15 15 25 15 15 25 15 15 25 15 15 25 15 15 25 15 15 25 15 15 25 15 15 25 15 15 25 15 15 25 15 15 25 15 15 25 15 15 25 15 15 25 15 15 25 15 15 25 15 15 25 15 15 25 15 15 25 15 15 25 15 15 25 15 15 25 15 15 25 15 15 25 15 15 25 15 15 25 15 15 25 15 15 25 15 15 25 15 15 25 15 15 25 255 180 0 15 15 25 15 15 25 15 15 25 15 15 25 15 15 25 15 15 25 15 15 25 15 15 25 15 15 25 15 15 25 15 15 25 15 15 25 15 15 25 15 15 25 15 15 25 15 15 25 15 15 25 15 15 25 15 15 25 15 15 25 15 15 25 15 15 25 15 15 25 15 15 25 15 15 25 15 15 25 15 15 25 15 15 25 15 15 25 15 15 25 15 15 25 15 15 25 15 15 25 15 15 25 15 15 25 15 15 25 15 15 25 15 15 25 15 15 25 15 15 25 15 15 25 15 15 25 255 0 0 15 15 25 15 15 25 15 15 25 15 15 25 15 15 25 255 180 0 15 15 25 15 15 25 15 15 25 15 15 25 15 15 25 15 15 25 15 15 25 15 15 25 15 15 25 15 15 25 15 15 25 15 15 25 15 15 25 15 15 25 15 15 25 15 15 25 15 15 25 15 15 25 15 15 25 15 15 25 15 15 25 15 15 25 15 15 25 15 15 25 15 15 25 15 15 25 15 15 25 15 15 25 15 15 25 15 15 25 15 15 25 15 15 25 15 15 25 15 15 25 15 15 25 15 15 25 15 15 25 15 15 25 15 15 25 15 15 25 15 15 25 15 15 25 15 15 25 15 15 25 15 15 25 15 15 25 15 15 25 15 15 25 15 15 25 15 15 25 15 15 25 15 15 25 15 15 25 15 15 25 15 15 25 15 15 25 15 15 25 15 15 25 15 15 25 15 15 25 
15 15 25 15 15 25 15 15 25 15 15 25 15 15 25 15 15 25 15 15 25 15 15 25 15 15 25 15 15 25 15 15 25 15 15 25 15 15 25 15 15 25 15 15 25 15 15 25 15 15 25 15 15 25 15 15 25 15 15 25 15 15 25 15 15 25 15 15 25 15 15 25 15 15 25 15 15 25 15 15 25 15 15 25 15 15 25 15 15 25 15 15 25 15 15 25 15 15 25 15 15 25 15 15 25 15 15 25 15 15 25 15 15 25 15 15 25 15 15 25 15 15 25 15 15 25 15 15 25 15 15 25 15 15 25 255 255 255 15 15 25 15 15 25 15 15 25 15 15 25 15 15 25 15 15 25 15 15 25 15 15 25 15 15 25 255 255 255 15 15 25 15 15 25 15 15 25 15 15 25 15 15 25 15 15 25 15 15 25 15 15 25 15 15 25 0 255 0 15 15 25 15 15 25 15 15 25 15 15 25 15 15 25 15 15 25 15 15 25 15 15 25 15 15 25 15 15 25 15 15 25 15 15 25 15 15 25 15 15 25 15 15 25 15 15 25 15 15 25 15 15 25 15 15 25 15 15 25 15 15 25 15 15 25 15 15 25 15 15 25 15 15 25 15 15 25 15 15 25 15 15 25 15 15 25 15 15 25 15 15 25 15 15 25 15 15 25 15 15 25 15 15 25 15 15 25 15 15 25 15 15 25 15 15 25 15 15 25 15 15 25 15 15 25 15 15 25 15 15 25 15 15 25 15 15 25 15 15 25 15 15 25 15 15 25 15 15 25 15 15 25 15 15 25 15 15 25 15 15 25 15 15 25 15 15 25 15 15 25 15 15 25 15 15 25 15 15 25 15 15 25 15 15 25 15 15 25 15 15 25 15 15 25 15 15 25 15 15 25 15 15 25 15 15 25 15 15 25 15 15 25 15 15 25 15 15 25 15 15 25 15 15 25 15 15 25 15 15 25 15 15 25 15 15 25 255 180 0 15 15 25 15 15 25 15 15 25 15 15 25 15 15 25 15 15 25 15 15 25 15 15 25 15 15 25 15 15 25 15 15 25 15 15 25 15 15 25 15 15 25 15 15 25 15 15 25 15 15 25 15 15 25 15 15 25 15 15 25 15 15 25 15 15 25 15 15 25 15 15 25 15 15 25 15 15 25 15 15 25 15 15 25 15 15 25 15 15 25 15 15 25 15 15 25 15 15 25 15 15 25 15 15 25 15 15 25 15 15 25 15 15 25 15 15 25 15 15 25 15 15 25 15 15 25 15 15 25 15 15 25 255 0 0 15 15 25 15 15 25 15 15 25 15 15 25 15 15 25 255 180 0 15 15 25 15 15 25 15 15 25 15 15 25 15 15 25 15 15 25 15 15 25 15 15 25 15 15 25 15 15 25 15 15 25 15 15 25 15 15 25 15 15 25 15 15 25 15 15 25 15 15 25 15 15 25 15 15 25 15 15 25 15 15 25 15 15 25 15 15 25 15 15 25 15 15 25 15 15 25 15 15 25 15 15 25 15 15 25 15 15 25 15 15 25 15 15 25 15 15 25 15 15 25 15 15 25 15 15 25 15 15 25 15 15 25 15 15 25 15 15 25 15 15 25 15 15 25 15 15 25 15 15 25 15 15 25 15 15 25 15 15 25 15 15 25 15 15 25 15 15 25 15 15 25 15 15 25 15 15 25 15 15 25 15 15 25 15 15 25 15 15 25 15 15 25 15 15 25 
15 15 25 15 15 25 15 15 25 15 15 25 15 15 25 15 15 25 15 15 25 15 15 25 15 15 25 15 15 25 15 15 25 15 15 25 15 15 25 15 15 25 15 15 25 15 15 25 15 15 25 15 15 25 15 15 25 15 15 25 15 15 25 15 15 25 15 15 25 15 15 25 15 15 25 15 15 25 15 15 25 15 15 25 15 15 25 15 15 25 15 15 25 15 15 25 15 15 25 15 15 25 15 15 25 15 15 25 15 15 25 15 15 25 15 15 25 15 15 25 15 15 25 15 15 25 15 15 25 15 15 25 15 15 25 255 255 255 15 15 25 15 15 25 15 15 25 15 15 25 15 15 25 15 15 25 15 15 25 15 15 25 15 15 25 15 15 25 255 255 255 15 15 25 15 15 25 15 15 25 15 15 25 15 15 25 15 15 25 15 15 25 0 255 0 15 15 25 15 15 25 15 15 25 15 15 25 15 15 25 15 15 25 15 15 25 15 15 25 15 15 25 15 15 25 15 15 25 15 15 25 15 15 25 15 15 25 15 15 25 15 15 25 15 15 25 15 15 25 15 15 25 15 15 25 15 15 25 15 15 25 15 15 25 15 15 25 15 15 25 15 15 25 15 15 25 15 15 25 15 15 25 15 15 25 15 15 25 15 15 25 15 15 25 15 15 25 15 15 25 15 15 25 15 15 25 15 15 25 15 15 25 15 15 25 15 15 25 15 15 25 15 15 25 15 15 25 15 15 25 15 15 25 15 15 25 15 15 25 15 15 25 15 15 25 15 15 25 15 15 25 15 15 25 15 15 25 15 15 25 15 15 25 15 15 25 15 15 25 15 15 25 15 15 25 15 15 25 15 15 25 15 15 25 15 15 25 15 15 25 15 15 25 15 15 25 15 15 25 15 15 25 15 15 25 15 15 25 15 15 25 15 15 25 15 15 25 15 15 25 15 15 25 15 15 25 15 15 25 15 15 25 255 180 0 15 15 25 15 15 25 15 15 25 15 15 25 15 15 25 15 15 25 15 15 25 15 15 25 15 15 25 15 15 25 15 15 25 15 15 25 15 15 25 15 15 25 15 15 25 15 15 25 15 15 25 15 15 25 15 15 25 15 15 25 15 15 25 15 15 25 15 15 25 15 15 25 15 15 25 15 15 25 15 15 25 15 15 25 15 15 25 15 15 25 15 15 25 15 15 25 15 15 25 15 15 25 15 15 25 15 15 25 15 15 25 15 15 25 15 15 25 15 15 25 15 15 25 15 15 25 15 15 25 15 15 25 15 15 25 15 15 25 255 0 0 15 15 25 15 15 25 15 15 25 15 15 25 15 15 25 255 180 0 15 15 25 15 15 25 15 15 25 15 15 25 15 15 25 15 15 25 15 15 25 15 15 25 15 15 25 15 15 25 15 15 25 15 15 25 15 15 25 15 15 25 15 15 25 15 15 25 15 15 25 15 15 25 15 15 25 15 15 25 15 15 25 15 15 25 15 15 25 15 15 25 15 15 25 15 15 25 15 15 25 15 15 25 15 15 25 15 15 25 15 15 25 15 15 25 15 15 25 15 15 25 15 15 25 15 15 25 15 15 25 15 15 25 15 15 25 15 15 25 15 15 25 15 15 25 15 15 25 15 15 25 15 15 25 15 15 25 15 15 25 15 15 25 15 15 25 15 15 25 15 15 25 15 15 25 15 15 25 15 15 25 15 15 25 15 15 25 15 15 25 15 15 25 
15 15 25 15 15 25 15 15 25 15 15 25 15 15 25 15 15 25 15 15 25 15 15 25 15 15 25 15 15 25 15 15 25 15 15 25 15 15 25 15 15 25 15 15 25 15 15 25 15 15 25 15 15 25 15 15 25 15 15 25 15 15 25 15 15 25 15 15 25 15 15 25 15 15 25 15 15 25 15 15 25 15 15 25 15 15 25 15 15 25 15 15 25 15 15 25 15 15 25 15 15 25 15 15 25 15 15 25 15 15 25 15 15 25 15 15 25 15 15 25 15 15 25 15 15 25 15 15 25 15 15 25 255 255 255 15 15 25 15 15 25 15 15 25 15 15 25 15 15 25 15 15 25 15 15 25 15 15 25 15 15 25 15 15 25 15 15 25 255 255 255 15 15 25 15 15 25 15 15 25 15 15 25 15 15 25 15 15 25 0 255 0 15 15 25 15 15 25 15 15 25 15 15 25 15 15 25 15 15 25 15 15 25 15 15 25 15 15 25 15 15 25 15 15 25 15 15 25 15 15 25 15 15 25 15 15 25 15 15 25 15 15 25 15 15 25 15 15 25 15 15 25 15 15 25 15 15 25 15 15 25 15 15 25 15 15 25 15 15 25 15 15 25 15 15 25 15 15 25 15 15 25 15 15 25 15 15 25 15 15 25 15 15 25 15 15 25 15 15 25 15 15 25 15 15 25 15 15 25 15 15 25 15 15 25 15 15 25 15 15 25 15 15 25 15 15 25 15 15 25 15 15 25 15 15 25 15 15 25 15 15 25 15 15 25 15 15 25 15 15 25 15 15 25 15 15 25 15 15 25 15 15 25 15 15 25 15 15 25 15 15 25 15 15 25 15 15 25 15 15 25 15 15 25 15 15 25 15 15 25 15 15 25 15 15 25 15 15 25 15 15 25 15 15 25 15 15 25 15 15 25 15 15 25 15 15 25 15 15 25 15 15 25 15 15 25 15 15 25 255 180 0 15 15 25 15 15 25 15 15 25 15 15 25 15 15 25 15 15 25 15 15 25 15 15 25 15 15 25 15 15 25 15 15 25 15 15 25 15 15 25 15 15 25 15 15 25 15 15 25 15 15 25 15 15 25 15 15 25 15 15 25 15 15 25 15 15 25 15 15 25 15 15 25 15 15 25 15 15 25 15 15 25 15 15 25 15 15 25 15 15 25 15 15 25 15 15 25 15 15 25 15 15 25 15 15 25 15 15 25 15 15 25 15 15 25 15 15 25 15 15 25 15 15 25 15 15 25 15 15 25 15 15 25 15 15 25 15 15 25 15 15 25 15 15 25 255 0 0 15 15 25 15 15 25 15 15 25 15 15 25 255 180 0 15 15 25 15 15 25 15 15 25 15 15 25 15 15 25 15 15 25 15 15 25 15 15 25 15 15 25 15 15 25 15 15 25 15 15 25 15 15 25 15 15 25 15 15 25 15 15 25 15 15 25 15 15 25 15 15 25 15 15 25 15 15 25 15 15 25 15 15 25 15 15 25 15 15 25 15 15 25 15 15 25 15 15 25 15 15 25 15 15 25 15 15 25 15 15 25 15 15 25 15 15 25 15 15 25 15 15 25 15 15 25 15 15 25 15 15 25 15 15 25 15 15 25 15 15 25 15 15 25 15 15 25 15 15 25 15 15 25 15 15 25 15 15 25 15 15 25 15 15 25 15 15 25 15 15 25 15 15 25 15 15 25 15 15 25 15 15 25 15 15 25 15 15 25 
15 15 25 15 15 25 15 15 25 15 15 25 15 15 25 15 15 25 15 15 25 15 15 25 15 15 25 15 15 25 15 15 25 15 15 25 15 15 25 15 15 25 15 15 25 15 15 25 15 15 25 15 15 25 15 15 25 15 15 25 15 15 25 15 15 25 15 15 25 15 15 25 15 15 25 15 15 25 15 15 25 15 15 25 15 15 25 15 15 25 15 15 25 15 15 25 15 15 25 15 15 25 15 15 25 15 15 25 15 15 25 15 15 25 15 15 25 15 15 25 15 15 25 15 15 25 15 15 25 15 15 25 255 255 255 15 15 25 15 15 25 15 15 25 15 15 25 15 15 25 15 15 25 15 15 25 15 15 25 15 15 25 15 15 25 15 15 25 15 15 25 255 255 255 15 15 25 15 15 25 15 15 25 15 15 25 0 255 0 15 15 25 15 15 25 15 15 25 15 15 25 15 15 25 15 15 25 15 15 25 15 15 25 15 15 25 15 15 25 15 15 25 15 15 25 15 15 25 15 15 25 15 15 25 15 15 25 15 15 25 15 15 25 15 15 25 15 15 25 15 15 25 15 15 25 15 15 25 15 15 25 15 15 25 15 15 25 15 15 25 15 15 25 15 15 25 15 15 25 15 15 25 15 15 25 15 15 25 15 15 25 15 15 25 15 15 25 15 15 25 15 15 25 15 15 25 15 15 25 15 15 25 15 15 25 15 15 25 15 15 25 15 15 25 15 15 25 15 15 25 15 15 25 15 15 25 15 15 25 15 15 25 15 15 25 15 15 25 15 15 25 15 15 25 15 15 25 15 15 25 15 15 25 15 15 25 15 15 25 15 15 25 15 15 25 15 15 25 15 15 25 15 15 25 15 15 25 15 15 25 15 15 25 15 15 25 15 15 25 15 15 25 15 15 25 15 15 25 15 15 25 15 15 25 15 15 25 15 15 25 15 15 25 15 15 25 255 180 0 15 15 25 15 15 25 15 15 25 15 15 25 15 15 25 15 15 25 15 15 25 15 15 25 15 15 25 15 15 25 15 15 25 15 15 25 15 15 25 15 15 25 15 15 25 15 15 25 15 15 25 15 15 25 15 15 25 15 15 25 15 15 25 15 15 25 15 15 25 15 15 25 15 15 25 15 15 25 15 15 25 15 15 25 15 15 25 15 15 25 15 15 25 15 15 25 15 15 25 15 15 25 15 15 25 15 15 25 15 15 25 15 15 25 15 15 25 15 15 25 15 15 25 15 15 25 15 15 25 15 15 25 15 15 25 15 15 25 15 15 25 15 15 25 15 15 25 15 15 25 255 0 0 15 15 25 15 15 25 15 15 25 15 15 25 255 180 0 15 15 25 15 15 25 15 15 25 15 15 25 15 15 25 15 15 25 15 15 25 15 15 25 15 15 25 15 15 25 15 15 25 15 15 25 15 15 25 15 15 25 15 15 25 15 15 25 15 15 25 15 15 25 15 15 25 15 15 25 15 15 25 15 15 25 15 15 25 15 15 25 15 15 25 15 15 25 15 15 25 15 15 25 15 15 25 15 15 25 15 15 25 15 15 25 15 15 25 15 15 25 15 15 25 15 15 25 15 15 25 15 15 25 15 15 25 15 15 25 15 15 25 15 15 25 15 15 25 15 15 25 15 15 25 15 15 25 15 15 25 15 15 25 15 15 25 15 15 25 15 15 25 15 15 25 15 15 25 15 15 25 15 15 25 15 15 25 15 15 25 
15 15 25 15 15 25 15 15 25 15 15 25 15 15 25 15 15 25 15 15 25 15 15 25 15 15 25 15 15 25 15 15 25 15 15 25 15 15 25 15 15 25 15 15 25 15 15 25 15 15 25 15 15 25 15 15 25 15 15 25 15 15 25 15 15 25 15 15 25 15 15 25 15 15 25 15 15 25 15 15 25 15 15 25 15 15 25 15 15 25 15 15 25 15 15 25 15 15 25 15 15 25 15 15 25 15 15 25 15 15 25 15 15 25 15 15 25 15 15 25 15 15 25 15 15 25 15 15 25 255 255 255 15 15 25 15 15 25 15 15 25 15 15 25 15 15 25 15 15 25 15 15 25 15 15 25 15 15 25 15 15 25 15 15 25 15 15 25 15 15 25 255 255 255 15 15 25 15 15 25 15 15 25 0 255 0 15 15 25 15 15 25 15 15 25 15 15 25 15 15 25 15 15 25 15 15 25 15 15 25 15 15 25 15 15 25 15 15 25 15 15 25 15 15 25 15 15 25 15 15 25 15 15 25 15 15 25 15 15 25 15 15 25 15 15 25 15 15 25 15 15 25 15 15 25 15 15 25 15 15 25 15 15 25 15 15 25 15 15 25 15 15 25 15 15 25 15 15 25 15 15 25 15 15 25 15 15 25 15 15 25 15 15 25 15 15 25 15 15 25 15 15 25 15 15 25 15 15 25 15 15 25 15 15 25 15 15 25 15 15 25 15 15 25 15 15 25 15 15 25 15 15 25 15 15 25 15 15 25 15 15 25 15 15 25 15 15 25 15 15 25 15 15 25 15 15 25 15 15 25 15 15 25 15 15 25 15 15 25 15 15 25 15 15 25 15 15 25 15 15 25 15 15 25 15 15 25 15 15 25 15 15 25 15 15 25 15 15 25 15 15 25 15 15 25 15 15 25 15 15 25 15 15 25 15 15 25 15 15 25 15 15 25 15 15 25 255 180 0 15 15 25 15 15 25 15 15 25 15 15 25 15 15 25 15 15 25 15 15 25 15 15 25 15 15 25 15 15 25 15 15 25 15 15 25 15 15 25 15 15 25 15 15 25 15 15 25 15 15 25 15 15 25 15 15 25 15 15 25 15 15 25 15 15 25 15 15 25 15 15 25 15 15 25 15 15 25 15 15 25 15 15 25 15 15 25 15 15 25 15 15 25 15 15 25 15 15 25 15 15 25 15 15 25 15 15 25 15 15 25 15 15 25 15 15 25 15 15 25 15 15 25 15 15 25 15 15 25 15 15 25 15 15 25 15 15 25 15 15 25 15 15 25 15 15 25 15 15 25 15 15 25 255 0 0 15 15 25 15 15 25 15 15 25 15 15 25 255 180 0 15 15 25 15 15 25 15 15 25 15 15 25 15 15 25 15 15 25 15 15 25 15 15 25 15 15 25 15 15 25 15 15 25 15 15 25 15 15 25 15 15 25 15 15 25 15 15 25 15 15 25 15 15 25 15 15 25 15 15 25 15 15 25 15 15 25 15 15 25 15 15 25 15 15 25 15 15 25 15 15 25 15 15 25 15 15 25 15 15 25 15 15 25 15 15 25 15 15 25 15 15 25 15 15 25 15 15 25 15 15 25 15 15 25 15 15 25 15 15 25 15 15 25 15 15 25 15 15 25 15 15 25 15 15 25 15 15 25 15 15 25 15 15 25 15 15 25 15 15 25 15 15 25 15 15 25 15 15 25 15 15 25 15 15 25 15 15 25 
15 15 25 15 15 25 15 15 25 15 15 25 15 15 25 15 15 25 15 15 25 15 15 25 15 15 25 15 15 25 15 15 25 15 15 25 15 15 25 15 15 25 15 15 25 15 15 25 15 15 25 15 15 25 15 15 25 15 15 25 15 15 25 15 15 25 15 15 25 15 15 25 15 15 25 15 15 25 15 15 25 15 15 25 15 15 25 15 15 25 15 15 25 15 15 25 15 15 25 15 15 25 15 15 25 15 15 25 15 15 25 15 15 25 15 15 25 15 15 25 15 15 25 15 15 25 15 15 25 255 255 255 15 15 25 15 15 25 15 15 25 15 15 25 15 15 25 15 15 25 15 15 25 15 15 25 15 15 25 15 15 25 15 15 25 15 15 25 15 15 25 15 15 25 255 255 255 15 15 25 0 255 0 15 15 25 15 15 25 15 15 25 15 15 25 15 15 25 15 15 25 15 15 25 15 15 25 15 15 25 15 15 25 15 15 25 15 15 25 15 15 25 15 15 25 15 15 25 15 15 25 15 15 25 15 15 25 15 15 25 15 15 25 15 15 25 15 15 25 15 15 25 15 15 25 15 15 25 15 15 25 15 15 25 15 15 25 15 15 25 15 15 25 15 15 25 15 15 25 15 15 25 15 15 25 15 15 25 15 15 25 15 15 25 15 15 25 15 15 25 15 15 25 15 15 25 15 15 25 15 15 25 15 15 25 15 15 25 15 15 25 15 15 25 15 15 25 15 15 25 15 15 25 15 15 25 15 15 25 15 15 25 15 15 25 15 15 25 15 15 25 15 15 25 15 15 25 15 15 25 15 15 25 15 15 25 15 15 25 15 15 25 15 15 25 15 15 25 15 15 25 15 15 25 15 15 25 15 15 25 15 15 25 15 15 25 15 15 25 15 15 25 15 15 25 15 15 25 15 15 25 15 15 25 15 15 25 15 15 25 15 15 25 255 180 0 15 15 25 15 15 25 15 15 25 15 15 25 15 15 25 15 15 25 15 15 25 15 15 25 15 15 25 15 15 25 15 15 25 15 15 25 15 15 25 15 15 25 15 15 25 15 15 25 15 15 25 15 15 25 15 15 25 15 15 25 15 15 25 15 15 25 15 15 25 15 15 25 15 15 25 15 15 25 15 15 25 15 15 25 15 15 25 15 15 25 15 15 25 15 15 25 15 15 25 15 15 25 15 15 25 15 15 25 15 15 25 15 15 25 15 15 25 15 15 25 15 15 25 15 15 25 15 15 25 15 15 25 15 15 25 15 15 25 15 15 25 15 15 25 15 15 25 15 15 25 15 15 25 15 15 25 15 15 25 255 0 0 15 15 25 15 15 25 15 15 25 15 15 25 255 180 0 15 15 25 15 15 25 15 15 25 15 15 25 15 15 25 15 15 25 15 15 25 15 15 25 15 15 25 15 15 25 15 15 25 15 15 25 15 15 25 15 15 25 15 15 25 15 15 25 15 15 25 15 15 25 15 15 25 15 15 25 15 15 25 15 15 25 15 15 25 15 15 25 15 15 25 15 15 25 15 15 25 15 15 25 15 15 25 15 15 25 15 15 25 15 15 25 15 15 25 15 15 25 15 15 25 15 15 25 15 15 25 15 15 25 15 15 25 15 15 25 15 15 25 15 15 25 15 15 25 15 15 25 15 15 25 15 15 25 15 15 25 15 15 25 15 15 25 15 15 25 15 15 25 15 15 25 15 15 25 15 15 25 15 15 25 
15 15 25 15 15 25 15 15 25 15 15 25 15 15 25 15 15 25 15 15 25 15 15 25 15 15 25 15 15 25 15 15 25 15 15 25 15 15 25 15 15 25 15 15 25 15 15 25 15 15 25 15 15 25 15 15 25 15 15 25 15 15 25 15 15 25 15 15 25 15 15 25 15 15 25 15 15 25 15 15 25 15 15 25 15 15 25 15 15 25 15 15 25 15 15 25 15 15 25 15 15 25 15 15 25 15 15 25 15 15 25 15 15 25 15 15 25 15 15 25 15 15 25 15 15 25 255 255 255 15 15 25 15 15 25 15 15 25 15 15 25 15 15 25 15 15 25 15 15 25 15 15 25 15 15 25 15 15 25 15 15 25 15 15 25 15 15 25 15 15 25 15 15 25 255 255 255 0 255 0 15 15 25 15 15 25 15 15 25 15 15 25 15 15 25 15 15 25 15 15 25 15 15 25 15 15 25 15 15 25 15 15 25 15 15 25 15 15 25 15 15 25 15 15 25 15 15 25 15 15 25 15 15 25 15 15 25 15 15 25 15 15 25 15 15 25 15 15 25 15 15 25 15 15 25 15 15 25 15 15 25 15 15 25 15 15 25 15 15 25 15 15 25 15 15 25 15 15 25 15 15 25 15 15 25 15 15 25 15 15 25 15 15 25 15 15 25 15 15 25 15 15 25 15 15 25 15 15 25 15 15 25 15 15 25 15 15 25 15 15 25 15 15 25 15 15 25 15 15 25 15 15 25 15 15 25 15 15 25 15 15 25 15 15 25 15 15 25 15 15 25 15 15 25 15 15 25 15 15 25 15 15 25 15 15 25 15 15 25 15 15 25 15 15 25 15 15 25 15 15 25 15 15 25 15 15 25 15 15 25 15 15 25 15 15 25 15 15 25 15 15 25 15 15 25 15 15 25 15 15 25 15 15 25 15 15 25 15 15 25 255 180 0 15 15 25 15 15 25 15 15 25 15 15 25 15 15 25 15 15 25 15 15 25 15 15 25 15 15 25 15 15 25 15 15 25 15 15 25 15 15 25 15 15 25 15 15 25 15 15 25 15 15 25 15 15 25 15 15 25 15 15 25 15 15 25 15 15 25 15 15 25 15 15 25 15 15 25 15 15 25 15 15 25 15 15 25 15 15 25 15 15 25 15 15 25 15 15 25 15 15 25 15 15 25 15 15 25 15 15 25 15 15 25 15 15 25 15 15 25 15 15 25 15 15 25 15 15 25 15 15 25 15 15 25 15 15 25 15 15 25 15 15 25 15 15 25 15 15 25 15 15 25 15 15 25 15 15 25 15 15 25 15 15 25 15 15 25 255 0 0 15 15 25 15 15 25 15 15 25 15 15 25 255 180 0 15 15 25 15 15 25 15 15 25 15 15 25 15 15 25 15 15 25 15 15 25 15 15 25 15 15 25 15 15 25 15 15 25 15 15 25 15 15 25 15 15 25 15 15 25 15 15 25 15 15 25 15 15 25 15 15 25 15 15 25 15 15 25 15 15 25 15 15 25 15 15 25 15 15 25 15 15 25 15 15 25 15 15 25 15 15 25 15 15 25 15 15 25 15 15 25 15 15 25 15 15 25 15 15 25 15 15 25 15 15 25 15 15 25 15 15 25 15 15 25 15 15 25 15 15 25 15 15 25 15 15 25 15 15 25 15 15 25 15 15 25 15 15 25 15 15 25 15 15 25 15 15 25 15 15 25 15 15 25 15 15 25 
15 15 25 15 15 25 15 15 25 15 15 25 15 15 25 15 15 25 15 15 25 15 15 25 15 15 25 15 15 25 15 15 25 15 15 25 15 15 25 15 15 25 15 15 25 15 15 25 15 15 25 15 15 25 15 15 25 15 15 25 15 15 25 15 15 25 15 15 25 15 15 25 15 15 25 15 15 25 15 15 25 15 15 25 15 15 25 15 15 25 15 15 25 15 15 25 15 15 25 15 15 25 15 15 25 15 15 25 15 15 25 15 15 25 15 15 25 15 15 25 15 15 25 15 15 25 255 255 255 15 15 25 15 15 25 15 15 25 15 15 25 15 15 25 15 15 25 15 15 25 15 15 25 15 15 25 15 15 25 15 15 25 15 15 25 15 15 25 15 15 25 15 15 25 0 255 0 255 255 255 15 15 25 15 15 25 15 15 25 15 15 25 15 15 25 15 15 25 15 15 25 15 15 25 15 15 25 15 15 25 15 15 25 15 15 25 15 15 25 15 15 25 15 15 25 15 15 25 15 15 25 15 15 25 15 15 25 15 15 25 15 15 25 15 15 25 15 15 25 15 15 25 15 15 25 15 15 25 15 15 25 15 15 25 15 15 25 15 15 25 15 15 25 15 15 25 15 15 25 15 15 25 15 15 25 15 15 25 15 15 25 15 15 25 15 15 25 15 15 25 15 15 25 15 15 25 15 15 25 15 15 25 15 15 25 15 15 25 15 15 25 15 15 25 15 15 25 15 15 25 15 15 25 15 15 25 15 15 25 15 15 25 15 15 25 15 15 25 15 15 25 15 15 25 15 15 25 15 15 25 15 15 25 15 15 25 15 15 25 15 15 25 15 15 25 15 15 25 15 15 25 15 15 25 15 15 25 15 15 25 15 15 25 15 15 25 15 15 25 15 15 25 15 15 25 15 15 25 15 15 25 15 15 25 15 15 25 255 180 0 15 15 25 15 15 25 15 15 25 15 15 25 15 15 25 15 15 25 15 15 25 15 15 25 15 15 25 15 15 25 15 15 25 15 15 25 15 15 25 15 15 25 15 15 25 15 15 25 15 15 25 15 15 25 15 15 25 15 15 25 15 15 25 15 15 25 15 15 25 15 15 25 15 15 25 15 15 25 15 15 25 15 15 25 15 15 25 15 15 25 15 15 25 15 15 25 15 15 25 15 15 25 15 15 25 15 15 25 15 15 25 15 15 25 15 15 25 15 15 25 15 15 25 15 15 25 15 15 25 15 15 25 15 15 25 15 15 25 15 15 25 15 15 25 15 15 25 15 15 25 15 15 25 15 15 25 15 15 25 15 15 25 15 15 25 15 15 25 15 15 25 255 0 0 15 15 25 15 15 25 15 15 25 15 15 25 255 180 0 15 15 25 15 15 25 15 15 25 15 15 25 15 15 25 15 15 25 15 15 25 15 15 25 15 15 25 15 15 25 15 15 25 15 15 25 15 15 25 15 15 25 15 15 25 15 15 25 15 15 25 15 15 25 15 15 25 15 15 25 15 15 25 15 15 25 15 15 25 15 15 25 15 15 25 15 15 25 15 15 25 15 15 25 15 15 25 15 15 25 15 15 25 15 15 25 15 15 25 15 15 25 15 15 25 15 15 25 15 15 25 15 15 25 15 15 25 15 15 25 15 15 25 15 15 25 15 15 25 15 15 25 15 15 25 15 15 25 15 15 25 15 15 25 15 15 25 15 15 25 15 15 25 15 15 25 15 15 25 
15 15 25 15 15 25 15 15 25 15 15 25 15 15 25 15 15 25 15 15 25 15 15 25 15 15 25 15 15 25 15 15 25 15 15 25 15 15 25 15 15 25 15 15 25 15 15 25 15 15 25 15 15 25 15 15 25 15 15 25 15 15 25 15 15 25 15 15 25 15 15 25 15 15 25 15 15 25 15 15 25 15 15 25 15 15 25 15 15 25 15 15 25 15 15 25 15 15 25 15 15 25 15 15 25 15 15 25 15 15 25 15 15 25 15 15 25 15 15 25 15 15 25 255 255 255 15 15 25 15 15 25 15 15 25 15 15 25 15 15 25 15 15 25 15 15 25 15 15 25 15 15 25 15 15 25 15 15 25 15 15 25 15 15 25 15 15 25 15 15 25 0 255 0 15 15 25 255 255 255 15 15 25 15 15 25 15 15 25 15 15 25 15 15 25 15 15 25 15 15 25 15 15 25 15 15 25 15 15 25 15 15 25 15 15 25 15 15 25 15 15 25 15 15 25 15 15 25 15 15 25 15 15 25 15 15 25 15 15 25 15 15 25 15 15 25 15 15 25 15 15 25 15 15 25 15 15 25 15 15 25 15 15 25 15 15 25 15 15 25 15 15 25 15 15 25 15 15 25 15 15 25 15 15 25 15 15 25 15 15 25 15 15 25 15 15 25 15 15 25 15 15 25 15 15 25 15 15 25 15 15 25 15 15 25 15 15 25 15 15 25 15 15 25 15 15 25 15 15 25 15 15 25 15 15 25 15 15 25 15 15 25 15 15 25 15 15 25 15 15 25 15 15 25 15 15 25 15 15 25 15 15 25 15 15 25 15 15 25 15 15 25 15 15 25 15 15 25 15 15 25 15 15 25 15 15 25 15 15 25 15 15 25 15 15 25 15 15 25 15 15 25 15 15 25 15 15 25 15 15 25 15 15 25 255 180 0 15 15 25 15 15 25 15 15 25 15 15 25 15 15 25 15 15 25 15 15 25 15 15 25 15 15 25 15 15 25 15 15 25 15 15 25 15 15 25 15 15 25 15 15 25 15 15 25 15 15 25 15 15 25 15 15 25 15 15 25 15 15 25 15 15 25 15 15 25 15 15 25 15 15 25 15 15 25 15 15 25 15 15 25 15 15 25 15 15 25 15 15 25 15 15 25 15 15 25 15 15 25 15 15 25 15 15 25 15 15 25 15 15 25 15 15 25 15 15 25 15 15 25 15 15 25 15 15 25 15 15 25 15 15 25 15 15 25 15 15 25 15 15 25 15 15 25 15 15 25 15 15 25 15 15 25 15 15 25 15 15 25 15 15 25 15 15 25 15 15 25 15 15 25 15 15 25 255 0 0 15 15 25 15 15 25 15 15 25 15 15 25 255 180 0 15 15 25 15 15 25 15 15 25 15 15 25 15 15 25 15 15 25 15 15 25 15 15 25 15 15 25 15 15 25 15 15 25 15 15 25 15 15 25 15 15 25 15 15 25 15 15 25 15 15 25 15 15 25 15 15 25 15 15 25 15 15 25 15 15 25 15 15 25 15 15 25 15 15 25 15 15 25 15 15 25 15 15 25 15 15 25 15 15 25 15 15 25 15 15 25 15 15 25 15 15 25 15 15 25 15 15 25 15 15 25 15 15 25 15 15 25 15 15 25 15 15 25 15 15 25 15 15 25 15 15 25 15 15 25 15 15 25 15 15 25 15 15 25 15 15 25 15 15 25 15 15 25 15 15 25 
15 15 25 15 15 25 15 15 25 15 15 25 15 15 25 15 15 25 15 15 25 15 15 25 15 15 25 15 15 25 15 15 25 15 15 25 15 15 25 15 15 25 15 15 25 15 15 25 15 15 25 15 15 25 15 15 25 15 15 25 15 15 25 15 15 25 15 15 25 15 15 25 15 15 25 15 15 25 15 15 25 15 15 25 15 15 25 15 15 25 15 15 25 15 15 25 15 15 25 15 15 25 15 15 25 15 15 25 15 15 25 15 15 25 15 15 25 15 15 25 15 15 25 255 255 255 15 15 25 15 15 25 15 15 25 15 15 25 15 15 25 15 15 25 15 15 25 15 15 25 15 15 25 15 15 25 15 15 25 15 15 25 15 15 25 15 15 25 0 255 0 15 15 25 15 15 25 15 15 25 255 255 255 15 15 25 15 15 25 15 15 25 15 15 25 15 15 25 15 15 25 15 15 25 15 15 25 15 15 25 15 15 25 15 15 25 15 15 25 15 15 25 15 15 25 15 15 25 15 15 25 15 15 25 15 15 25 15 15 25 15 15 25 15 15 25 15 15 25 15 15 25 15 15 25 15 15 25 15 15 25 15 15 25 15 15 25 15 15 25 15 15 25 15 15 25 15 15 25 15 15 25 15 15 25 15 15 25 15 15 25 15 15 25 15 15 25 15 15 25 15 15 25 15 15 25 15 15 25 15 15 25 15 15 25 15 15 25 15 15 25 15 15 25 15 15 25 15 15 25 15 15 25 15 15 25 15 15 25 15 15 25 15 15 25 15 15 25 15 15 25 15 15 25 15 15 25 15 15 25 15 15 25 15 15 25 15 15 25 15 15 25 15 15 25 15 15 25 15 15 25 15 15 25 15 15 25 15 15 25 15 15 25 15 15 25 15 15 25 15 15 25 15 15 25 15 15 25 15 15 25 255 180 0 15 15 25 15 15 25 15 15 25 15 15 25 15 15 25 15 15 25 15 15 25 15 15 25 15 15 25 15 15 25 15 15 25 15 15 25 15 15 25 15 15 25 15 15 25 15 15 25 15 15 25 15 15 25 15 15 25 15 15 25 15 15 25 15 15 25 15 15 25 15 15 25 15 15 25 15 15 25 15 15 25 15 15 25 15 15 25 15 15 25 15 15 25 15 15 25 15 15 25 15 15 25 15 15 25 15 15 25 15 15 25 15 15 25 15 15 25 15 15 25 15 15 25 15 15 25 15 15 25 15 15 25 15 15 25 15 15 25 15 15 25 15 15 25 15 15 25 15 15 25 15 15 25 15 15 25 15 15 25 15 15 25 15 15 25 15 15 25 15 15 25 15 15 25 15 15 25 15 15 25 15 15 25 255 0 0 15 15 25 15 15 25 15 15 25 255 180 0 15 15 25 15 15 25 15 15 25 15 15 25 15 15 25 15 15 25 15 15 25 15 15 25 15 15 25 15 15 25 15 15 25 15 15 25 15 15 25 15 15 25 15 15 25 15 15 25 15 15 25 15 15 25 15 15 25 15 15 25 15 15 25 15 15 25 15 15 25 15 15 25 15 15 25 15 15 25 15 15 25 15 15 25 15 15 25 15 15 25 15 15 25 15 15 25 15 15 25 15 15 25 15 15 25 15 15 25 15 15 25 15 15 25 15 15 25 15 15 25 15 15 25 15 15 25 15 15 25 15 15 25 15 15 25 15 15 25 15 15 25 15 15 25 15 15 25 15 15 25 15 15 25 15 15 25 
15 15 25 15 15 25 15 15 25 15 15 25 15 15 25 15 15 25 15 15 25 15 15 25 15 15 25 15 15 25 15 15 25 15 15 25 15 15 25 15 15 25 15 15 25 15 15 25 15 15 25 15 15 25 15 15 25 15 15 25 15 15 25 15 15 25 15 15 25 15 15 25 15 15 25 15 15 25 15 15 25 15 15 25 15 15 25 15 15 25 15 15 25 15 15 25 15 15 25 15 15 25 15 15 25 15 15 25 15 15 25 15 15 25 15 15 25 15 15 25 255 255 255 15 15 25 15 15 25 15 15 25 15 15 25 15 15 25 15 15 25 15 15 25 15 15 25 15 15 25 15 15 25 15 15 25 15 15 25 15 15 25 15 15 25 0 255 0 15 15 25 15 15 25 15 15 25 15 15 25 255 255 255 15 15 25 15 15 25 15 15 25 15 15 25 15 15 25 15 15 25 15 15 25 15 15 25 15 15 25 15 15 25 15 15 25 15 15 25 15 15 25 15 15 25 15 15 25 15 15 25 15 15 25 15 15 25 15 15 25 15 15 25 15 15 25 15 15 25 15 15 25 15 15 25 15 15 25 15 15 25 15 15 25 15 15 25 15 15 25 15 15 25 15 15 25 15 15 25 15 15 25 15 15 25 15 15 25 15 15 25 15 15 25 15 15 25 15 15 25 15 15 25 15 15 25 15 15 25 15 15 25 15 15 25 15 15 25 15 15 25 15 15 25 15 15 25 15 15 25 15 15 25 15 15 25 15 15 25 15 15 25 15 15 25 15 15 25 15 15 25 15 15 25 15 15 25 15 15 25 15 15 25 15 15 25 15 15 25 15 15 25 15 15 25 15 15 25 15 15 25 15 15 25 15 15 25 15 15 25 15 15 25 15 15 25 15 15 25 15 15 25 15 15 25 15 15 25 15 15 25 255 180 0 15 15 25 15 15 25 15 15 25 15 15 25 15 15 25 15 15 25 15 15 25 15 15 25 15 15 25 15 15 25 15 15 25 15 15 25 15 15 25 15 15 25 15 15 25 15 15 25 15 15 25 15 15 25 15 15 25 15 15 25 15 15 25 15 15 25 15 15 25 15 15 25 15 15 25 15 15 25 15 15 25 15 15 25 15 15 25 15 15 25 15 15 25 15 15 25 15 15 25 15 15 25 15 15 25 15 15 25 15 15 25 15 15 25 15 15 25 15 15 25 15 15 25 15 15 25 15 15 25 15 15 25 15 15 25 15 15 25 15 15 25 15 15 25 15 15 25 15 15 25 15 15 25 15 15 25 15 15 25 15 15 25 15 15 25 15 15 25 15 15 25 15 15 25 15 15 25 15 15 25 15 15 25 15 15 25 255 0 0 15 15 25 15 15 25 15 15 25 255 180 0 15 15 25 15 15 25 15 15 25 15 15 25 15 15 25 15 15 25 15 15 25 15 15 25 15 15 25 15 15 25 15 15 25 15 15 25 15 15 25 15 15 25 15 15 25 15 15 25 15 15 25 15 15 25 15 15 25 15 15 25 15 15 25 15 15 25 15 15 25 15 15 25 15 15 25 15 15 25 15 15 25 15 15 25 15 15 25 15 15 25 15 15 25 15 15 25 15 15 25 15 15 25 15 15 25 15 15 25 15 15 25 15 15 25 15 15 25 15 15 25 15 15 25 15 15 25 15 15 25 15 15 25 15 15 25 15 15 25 15 15 25 15 15 25 15 15 25 15 15 25 15 15 25 
15 15 25 15 15 25 15 15 25 15 15 25 15 15 25 15 15 25 15 15 25 15 15 25 15 15 25 15 15 25 15 15 25 15 15 25 15 15 25 15 15 25 15 15 25 15 15 25 15 15 25 15 15 25 15 15 25 15 15 25 15 15 25 15 15 25 15 15 25 15 15 25 15 15 25 15 15 25 15 15 25 15 15 25 15 15 25 15 15 25 15 15 25 15 15 25 15 15 25 15 15 25 15 15 25 15 15 25 15 15 25 15 15 25 15 15 25 15 15 25 255 255 255 15 15 25 15 15 25 15 15 25 15 15 25 15 15 25 15 15 25 15 15 25 15 15 25 15 15 25 15 15 25 15 15 25 15 15 25 15 15 25 0 255 0 15 15 25 15 15 25 15 15 25 15 15 25 15 15 25 15 15 25 255 255 255 15 15 25 15 15 25 15 15 25 15 15 25 15 15 25 15 15 25 15 15 25 15 15 25 15 15 25 15 15 25 15 15 25 15 15 25 15 15 25 15 15 25 15 15 25 15 15 25 15 15 25 15 15 25 15 15 25 15 15 25 15 15 25 15 15 25 15 15 25 15 15 25 15 15 25 15 15 25 15 15 25 15 15 25 15 15 25 15 15 25 15 15 25 15 15 25 15 15 25 15 15 25 15 15 25 15 15 25 15 15 25 15 15 25 15 15 25 15 15 25 15 15 25 15 15 25 15 15 25 15 15 25 15 15 25 15 15 25 15 15 25 15 15 25 15 15 25 15 15 25 15 15 25 15 15 25 15 15 25 15 15 25 15 15 25 15 15 25 15 15 25 15 15 25 15 15 25 15 15 25 15 15 25 15 15 25 15 15 25 15 15 25 15 15 25 15 15 25 15 15 25 15 15 25 15 15 25 15 15 25 15 15 25 15 15 25 15 15 25 15 15 25 255 180 0 15 15 25 15 15 25 15 15 25 15 15 25 15 15 25 15 15 25 15 15 25 15 15 25 15 15 25 15 15 25 15 15 25 15 15 25 15 15 25 15 15 25 15 15 25 15 15 25 15 15 25 15 15 25 15 15 25 15 15 25 15 15 25 15 15 25 15 15 25 15 15 25 15 15 25 15 15 25 15 15 25 15 15 25 15 15 25 15 15 25 15 15 25 15 15 25 15 15 25 15 15 25 15 15 25 15 15 25 15 15 25 15 15 25 15 15 25 15 15 25 15 15 25 15 15 25 15 15 25 15 15 25 15 15 25 15 15 25 15 15 25 15 15 25 15 15 25 15 15 25 15 15 25 15 15 25 15 15 25 15 15 25 15 15 25 15 15 25 15 15 25 15 15 25 15 15 25 15 15 25 15 15 25 15 15 25 15 15 25 15 15 25 255 0 0 15 15 25 15 15 25 15 15 25 255 180 0 15 15 25 15 15 25 15 15 25 15 15 25 15 15 25 15 15 25 15 15 25 15 15 25 15 15 25 15 15 25 15 15 25 15 15 25 15 15 25 15 15 25 15 15 25 15 15 25 15 15 25 15 15 25 15 15 25 15 15 25 15 15 25 15 15 25 15 15 25 15 15 25 15 15 25 15 15 25 15 15 25 15 15 25 15 15 25 15 15 25 15 15 25 15 15 25 15 15 25 15 15 25 15 15 25 15 15 25 15 15 25 15 15 25 15 15 25 15 15 25 15 15 25 15 15 25 15 15 25 15 15 25 15 15 25 15 15 25 15 15 25 15 15 25 15 15 25 15 15 25 
15 15 25 15 15 25 15 15 25 15 15 25 15 15 25 15 15 25 15 15 25 15 15 25 15 15 25 15 15 25 15 15 25 15 15 25 15 15 25 15 15 25 15 15 25 15 15 25 15 15 25 15 15 25 15 15 25 15 15 25 15 15 25 15 15 25 15 15 25 15 15 25 15 15 25 15 15 25 15 15 25 15 15 25 15 15 25 15 15 25 15 15 25 15 15 25 15 15 25 15 15 25 15 15 25 15 15 25 15 15 25 15 15 25 15 15 25 255 255 255 15 15 25 15 15 25 15 15 25 15 15 25 15 15 25 15 15 25 15 15 25 15 15 25 15 15 25 15 15 25 15 15 25 15 15 25 15 15 25 0 255 0 15 15 25 15 15 25 15 15 25 15 15 25 15 15 25 15 15 25 15 15 25 255 255 255 15 15 25 15 15 25 15 15 25 15 15 25 15 15 25 15 15 25 15 15 25 15 15 25 15 15 25 15 15 25 15 15 25 15 15 25 15 15 25 15 15 25 15 15 25 15 15 25 15 15 25 15 15 25 15 15 25 15 15 25 15 15 25 15 15 25 15 15 25 15 15 25 15 15 25 15 15 25 15 15 25 15 15 25 15 15 25 15 15 25 15 15 25 15 15 25 15 15 25 15 15 25 15 15 25 15 15 25 15 15 25 15 15 25 15 15 25 15 15 25 15 15 25 15 15 25 15 15 25 15 15 25 15 15 25 15 15 25 15 15 25 15 15 25 15 15 25 15 15 25 15 15 25 15 15 25 15 15 25 15 15 25 15 15 25 15 15 25 15 15 25 15 15 25 15 15 25 15 15 25 15 15 25 15 15 25 15 15 25 15 15 25 15 15 25 15 15 25 15 15 25 15 15 25 15 15 25 15 15 25 15 15 25 15 15 25 15 15 25 255 180 0 15 15 25 15 15 25 15 15 25 15 15 25 15 15 25 15 15 25 15 15 25 15 15 25 15 15 25 15 15 25 15 15 25 15 15 25 15 15 25 15 15 25 15 15 25 15 15 25 15 15 25 15 15 25 15 15 25 15 15 25 15 15 25 15 15 25 15 15 25 15 15 25 15 15 25 15 15 25 15 15 25 15 15 25 15 15 25 15 15 25 15 15 25 15 15 25 15 15 25 15 15 25 15 15 25 15 15 25 15 15 25 15 15 25 15 15 25 15 15 25 15 15 25 15 15 25 15 15 25 15 15 25 15 15 25 15 15 25 15 15 25 15 15 25 15 15 25 15 15 25 15 15 25 15 15 25 15 15 25 15 15 25 15 15 25 15 15 25 15 15 25 15 15 25 15 15 25 15 15 25 15 15 25 15 15 25 15 15 25 15 15 25 15 15 25 15 15 25 255 0 0 15 15 25 15 15 25 15 15 25 255 180 0 15 15 25 15 15 25 15 15 25 15 15 25 15 15 25 15 15 25 15 15 25 15 15 25 15 15 25 15 15 25 15 15 25 15 15 25 15 15 25 15 15 25 15 15 25 15 15 25 15 15 25 15 15 25 15 15 25 15 15 25 15 15 25 15 15 25 15 15 25 15 15 25 15 15 25 15 15 25 15 15 25 15 15 25 15 15 25 15 15 25 15 15 25 15 15 25 15 15 25 15 15 25 15 15 25 15 15 25 15 15 25 15 15 25 15 15 25 15 15 25 15 15 25 15 15 25 15 15 25 15 15 25 15 15 25 15 15 25 15 15 25 15 15 25 15 15 25 
15 15 25 15 15 25 15 15 25 15 15 25 15 15 25 15 15 25 15 15 25 15 15 25 15 15 25 15 15 25 15 15 25 15 15 25 15 15 25 15 15 25 15 15 25 15 15 25 15 15 25 15 15 25 15 15 25 15 15 25 15 15 25 15 15 25 15 15 25 15 15 25 15 15 25 15 15 25 15 15 25 15 15 25 15 15 25 15 15 25 15 15 25 15 15 25 15 15 25 15 15 25 15 15 25 15 15 25 15 15 25 15 15 25 15 15 25 255 255 255 15 15 25 15 15 25 15 15 25 15 15 25 15 15 25 15 15 25 15 15 25 15 15 25 15 15 25 15 15 25 15 15 25 15 15 25 0 255 0 15 15 25 15 15 25 15 15 25 15 15 25 15 15 25 15 15 25 15 15 25 15 15 25 15 15 25 255 255 255 15 15 25 15 15 25 15 15 25 15 15 25 15 15 25 15 15 25 15 15 25 15 15 25 15 15 25 15 15 25 15 15 25 15 15 25 15 15 25 15 15 25 15 15 25 15 15 25 15 15 25 15 15 25 15 15 25 15 15 25 15 15 25 15 15 25 15 15 25 15 15 25 15 15 25 15 15 25 15 15 25 15 15 25 15 15 25 15 15 25 15 15 25 15 15 25 15 15 25 15 15 25 15 15 25 15 15 25 15 15 25 15 15 25 15 15 25 15 15 25 15 15 25 15 15 25 15 15 25 15 15 25 15 15 25 15 15 25 15 15 25 15 15 25 15 15 25 15 15 25 15 15 25 15 15 25 15 15 25 15 15 25 15 15 25 15 15 25 15 15 25 15 15 25 15 15 25 15 15 25 15 15 25 15 15 25 15 15 25 15 15 25 15 15 25 15 15 25 15 15 25 15 15 25 15 15 25 15 15 25 15 15 25 255 180 0 15 15 25 15 15 25 15 15 25 15 15 25 15 15 25 15 15 25 15 15 25 15 15 25 15 15 25 15 15 25 15 15 25 15 15 25 15 15 25 15 15 25 15 15 25 15 15 25 15 15 25 15 15 25 15 15 25 15 15 25 15 15 25 15 15 25 15 15 25 15 15 25 15 15 25 15 15 25 15 15 25 15 15 25 15 15 25 15 15 25 15 15 25 15 15 25 15 15 25 15 15 25 15 15 25 15 15 25 15 15 25 15 15 25 15 15 25 15 15 25 15 15 25 15 15 25 15 15 25 15 15 25 15 15 25 15 15 25 15 15 25 15 15 25 15 15 25 15 15 25 15 15 25 15 15 25 15 15 25 15 15 25 15 15 25 15 15 25 15 15 25 15 15 25 15 15 25 15 15 25 15 15 25 15 15 25 15 15 25 15 15 25 15 15 25 15 15 25 15 15 25 15 15 25 255 0 0 15 15 25 15 15 25 15 15 25 255 180 0 15 15 25 15 15 25 15 15 25 15 15 25 15 15 25 15 15 25 15 15 25 15 15 25 15 15 25 15 15 25 15 15 25 15 15 25 15 15 25 15 15 25 15 15 25 15 15 25 15 15 25 15 15 25 15 15 25 15 15 25 15 15 25 15 15 25 15 15 25 15 15 25 15 15 25 15 15 25 15 15 25 15 15 25 15 15 25 15 15 25 15 15 25 15 15 25 15 15 25 15 15 25 15 15 25 15 15 25 15 15 25 15 15 25 15 15 25 15 15 25 15 15 25 15 15 25 15 15 25 15 15 25 15 15 25 15 15 25 15 15 25 15 15 25 
15 15 25 15 15 25 15 15 25 15 15 25 15 15 25 15 15 25 15 15 25 15 15 25 15 15 25 15 15 25 15 15 25 15 15 25 15 15 25 15 15 25 15 15 25 15 15 25 15 15 25 15 15 25 15 15 25 15 15 25 15 15 25 15 15 25 15 15 25 15 15 25 15 15 25 15 15 25 15 15 25 15 15 25 15 15 25 15 15 25 15 15 25 15 15 25 15 15 25 15 15 25 15 15 25 15 15 25 15 15 25 15 15 25 255 255 255 15 15 25 15 15 25 15 15 25 15 15 25 15 15 25 15 15 25 15 15 25 15 15 25 15 15 25 15 15 25 15 15 25 15 15 25 0 255 0 15 15 25 15 15 25 15 15 25 15 15 25 15 15 25 15 15 25 15 15 25 15 15 25 15 15 25 15 15 25 255 255 255 15 15 25 15 15 25 15 15 25 15 15 25 15 15 25 15 15 25 15 15 25 15 15 25 15 15 25 15 15 25 15 15 25 15 15 25 15 15 25 15 15 25 15 15 25 15 15 25 15 15 25 15 15 25 15 15 25 15 15 25 15 15 25 15 15 25 15 15 25 15 15 25 15 15 25 15 15 25 15 15 25 15 15 25 15 15 25 15 15 25 15 15 25 15 15 25 15 15 25 15 15 25 15 15 25 15 15 25 15 15 25 15 15 25 15 15 25 15 15 25 15 15 25 15 15 25 15 15 25 15 15 25 15 15 25 15 15 25 15 15 25 15 15 25 15 15 25 15 15 25 15 15 25 15 15 25 15 15 25 15 15 25 15 15 25 15 15 25 15 15 25 15 15 25 15 15 25 15 15 25 15 15 25 15 15 25 15 15 25 15 15 25 15 15 25 15 15 25 15 15 25 15 15 25 15 15 25 15 15 25 255 180 0 15 15 25 15 15 25 15 15 25 15 15 25 15 15 25 15 15 25 15 15 25 15 15 25 15 15 25 15 15 25 15 15 25 15 15 25 15 15 25 15 15 25 15 15 25 15 15 25 15 15 25 15 15 25 15 15 25 15 15 25 15 15 25 15 15 25 15 15 25 15 15 25 15 15 25 15 15 25 15 15 25 15 15 25 15 15 25 15 15 25 15 15 25 15 15 25 15 15 25 15 15 25 15 15 25 15 15 25 15 15 25 15 15 25 15 15 25 15 15 25 15 15 25 15 15 25 15 15 25 15 15 25 15 15 25 15 15 25 15 15 25 15 15 25 15 15 25 15 15 25 15 15 25 15 15 25 15 15 25 15 15 25 15 15 25 15 15 25 15 15 25 15 15 25 15 15 25 15 15 25 15 15 25 15 15 25 15 15 25 15 15 25 15 15 25 15 15 25 15 15 25 15 15 25 15 15 25 15 15 25 255 0 0 15 15 25 15 15 25 15 15 25 255 180 0 15 15 25 15 15 25 15 15 25 15 15 25 15 15 25 15 15 25 15 15 25 15 15 25 15 15 25 15 15 25 15 15 25 15 15 25 15 15 25 15 15 25 15 15 25 15 15 25 15 15 25 15 15 25 15 15 25 15 15 25 15 15 25 15 15 25 15 15 25 15 15 25 15 15 25 15 15 25 15 15 25 15 15 25 15 15 25 15 15 25 15 15 25 15 15 25 15 15 25 15 15 25 15 15 25 15 15 25 15 15 25 15 15 25 15 15 25 15 15 25 15 15 25 15 15 25 15 15 25 15 15 25 15 15 25 15 15 25 15 15 25 
15 15 25 15 15 25 15 15 25 15 15 25 15 15 25 15 15 25 15 15 25 15 15 25 15 15 25 15 15 25 15 15 25 15 15 25 15 15 25 15 15 25 15 15 25 15 15 25 15 15 25 15 15 25 15 15 25 15 15 25 15 15 25 15 15 25 15 15 25 15 15 25 15 15 25 15 15 25 15 15 25 15 15 25 15 15 25 15 15 25 15 15 25 15 15 25 15 15 25 15 15 25 15 15 25 15 15 25 15 15 25 15 15 25 255 255 255 15 15 25 15 15 25 15 15 25 15 15 25 15 15 25 15 15 25 15 15 25 15 15 25 15 15 25 15 15 25 15 15 25 0 255 0 15 15 25 15 15 25 15 15 25 15 15 25 15 15 25 15 15 25 15 15 25 15 15 25 15 15 25 15 15 25 15 15 25 15 15 25 255 255 255 15 15 25 15 15 25 15 15 25 15 15 25 15 15 25 15 15 25 15 15 25 15 15 25 15 15 25 15 15 25 15 15 25 15 15 25 15 15 25 15 15 25 15 15 25 15 15 25 15 15 25 15 15 25 15 15 25 15 15 25 15 15 25 15 15 25 15 15 25 15 15 25 15 15 25 15 15 25 15 15 25 15 15 25 15 15 25 15 15 25 15 15 25 15 15 25 15 15 25 15 15 25 15 15 25 15 15 25 15 15 25 15 15 25 15 15 25 15 15 25 15 15 25 15 15 25 15 15 25 15 15 25 15 15 25 15 15 25 15 15 25 15 15 25 15 15 25 15 15 25 15 15 25 15 15 25 15 15 25 15 15 25 15 15 25 15 15 25 15 15 25 15 15 25 15 15 25 15 15 25 15 15 25 15 15 25 15 15 25 15 15 25 15 15 25 15 15 25 15 15 25 15 15 25 255 180 0 15 15 25 15 15 25 15 15 25 15 15 25 15 15 25 15 15 25 15 15 25 15 15 25 15 15 25 15 15 25 15 15 25 15 15 25 15 15 25 15 15 25 15 15 25 15 15 25 15 15 25 15 15 25 15 15 25 15 15 25 15 15 25 15 15 25 15 15 25 15 15 25 15 15 25 15 15 25 15 15 25 15 15 25 15 15 25 15 15 25 15 15 25 15 15 25 15 15 25 15 15 25 15 15 25 15 15 25 15 15 25 15 15 25 15 15 25 15 15 25 15 15 25 15 15 25 15 15 25 15 15 25 15 15 25 15 15 25 15 15 25 15 15 25 15 15 25 15 15 25 15 15 25 15 15 25 15 15 25 15 15 25 15 15 25 15 15 25 15 15 25 15 15 25 15 15 25 15 15 25 15 15 25 15 15 25 15 15 25 15 15 25 15 15 25 15 15 25 15 15 25 15 15 25 15 15 25 15 15 25 15 15 25 15 15 25 255 0 0 15 15 25 15 15 25 15 15 25 255 180 0 15 15 25 15 15 25 15 15 25 15 15 25 15 15 25 15 15 25 15 15 25 15 15 25 15 15 25 15 15 25 15 15 25 15 15 25 15 15 25 15 15 25 15 15 25 15 15 25 15 15 25 15 15 25 15 15 25 15 15 25 15 15 25 15 15 25 15 15 25 15 15 25 15 15 25 15 15 25 15 15 25 15 15 25 15 15 25 15 15 25 15 15 25 15 15 25 15 15 25 15 15 25 15 15 25 15 15 25 15 15 25 15 15 25 15 15 25 15 15 25 15 15 25 15 15 25 15 15 25 15 15 25 15 15 25 15 15 25 
15 15 25 15 15 25 15 15 25 15 15 25 15 15 25 15 15 25 15 15 25 15 15 25 15 15 25 15 15 25 15 15 25 15 15 25 15 15 25 15 15 25 15 15 25 15 15 25 15 15 25 15 15 25 15 15 25 15 15 25 15 15 25 15 15 25 15 15 25 15 15 25 15 15 25 15 15 25 15 15 25 15 15 25 15 15 25 15 15 25 15 15 25 15 15 25 15 15 25 15 15 25 15 15 25 15 15 25 15 15 25 255 255 255 15 15 25 15 15 25 15 15 25 15 15 25 15 15 25 15 15 25 15 15 25 15 15 25 15 15 25 15 15 25 15 15 25 0 255 0 15 15 25 15 15 25 15 15 25 15 15 25 15 15 25 15 15 25 15 15 25 15 15 25 15 15 25 15 15 25 15 15 25 15 15 25 15 15 25 255 255 255 15 15 25 15 15 25 15 15 25 15 15 25 15 15 25 15 15 25 15 15 25 15 15 25 15 15 25 15 15 25 15 15 25 15 15 25 15 15 25 15 15 25 15 15 25 15 15 25 15 15 25 15 15 25 15 15 25 15 15 25 15 15 25 15 15 25 15 15 25 15 15 25 15 15 25 15 15 25 15 15 25 15 15 25 15 15 25 15 15 25 15 15 25 15 15 25 15 15 25 15 15 25 15 15 25 15 15 25 15 15 25 15 15 25 15 15 25 15 15 25 15 15 25 15 15 25 15 15 25 15 15 25 15 15 25 15 15 25 15 15 25 15 15 25 15 15 25 15 15 25 15 15 25 15 15 25 15 15 25 15 15 25 15 15 25 15 15 25 15 15 25 15 15 25 15 15 25 15 15 25 15 15 25 15 15 25 15 15 25 15 15 25 15 15 25 15 15 25 15 15 25 15 15 25 255 180 0 15 15 25 15 15 25 15 15 25 15 15 25 15 15 25 15 15 25 15 15 25 15 15 25 15 15 25 15 15 25 15 15 25 15 15 25 15 15 25 15 15 25 15 15 25 15 15 25 15 15 25 15 15 25 15 15 25 15 15 25 15 15 25 15 15 25 15 15 25 15 15 25 15 15 25 15 15 25 15 15 25 15 15 25 15 15 25 15 15 25 15 15 25 15 15 25 15 15 25 15 15 25 15 15 25 15 15 25 15 15 25 15 15 25 15 15 25 15 15 25 15 15 25 15 15 25 15 15 25 15 15 25 15 15 25 15 15 25 15 15 25 15 15 25 15 15 25 15 15 25 15 15 25 15 15 25 15 15 25 15 15 25 15 15 25 15 15 25 15 15 25 15 15 25 15 15 25 15 15 25 15 15 25 15 15 25 15 15 25 15 15 25 15 15 25 15 15 25 15 15 25 15 15 25 15 15 25 15 15 25 15 15 25 15 15 25 15 15 25 255 0 0 15 15 25 15 15 25 255 180 0 15 15 25 15 15 25 15 15 25 15 15 25 15 15 25 15 15 25 15 15 25 15 15 25 15 15 25 15 15 25 15 15 25 15 15 25 15 15 25 15 15 25 15 15 25 15 15 25 15 15 25 15 15 25 15 15 25 15 15 25 15 15 25 15 15 25 15 15 25 15 15 25 15 15 25 15 15 25 15 15 25 15 15 25 15 15 25 15 15 25 15 15 25 15 15 25 15 15 25 15 15 25 15 15 25 15 15 25 15 15 25 15 15 25 15 15 25 15 15 25 15 15 25 15 15 25 15 15 25 15 15 25 15 15 25 15 15 25 
15 15 25 15 15 25 15 15 25 15 15 25 15 15 25 15 15 25 15 15 25 15 15 25 15 15 25 15 15 25 15 15 25 15 15 25 15 15 25 15 15 25 15 15 25 15 15 25 15 15 25 15 15 25 15 15 25 15 15 25 15 15 25 15 15 25 15 15 25 15 15 25 15 15 25 15 15 25 15 15 25 15 15 25 15 15 25 15 15 25 15 15 25 15 15 25 15 15 25 15 15 25 15 15 25 15 15 25 15 15 25 255 255 255 15 15 25 15 15 25 15 15 25 15 15 25 15 15 25 15 15 25 15 15 25 15 15 25 15 15 25 15 15 25 0 255 0 15 15 25 15 15 25 15 15 25 15 15 25 15 15 25 15 15 25 15 15 25 15 15 25 15 15 25 15 15 25 15 15 25 15 15 25 15 15 25 15 15 25 15 15 25 255 255 255 15 15 25 15 15 25 15 15 25 15 15 25 15 15 25 15 15 25 15 15 25 15 15 25 15 15 25 15 15 25 15 15 25 15 15 25 15 15 25 15 15 25 15 15 25 15 15 25 15 15 25 15 15 25 15 15 25 15 15 25 15 15 25 15 15 25 15 15 25 15 15 25 15 15 25 15 15 25 15 15 25 15 15 25 15 15 25 15 15 25 15 15 25 15 15 25 15 15 25 15 15 25 15 15 25 15 15 25 15 15 25 15 15 25 15 15 25 15 15 25 15 15 25 15 15 25 15 15 25 15 15 25 15 15 25 15 15 25 15 15 25 15 15 25 15 15 25 15 15 25 15 15 25 15 15 25 15 15 25 15 15 25 15 15 25 15 15 25 15 15 25 15 15 25 15 15 25 15 15 25 15 15 25 15 15 25 15 15 25 15 15 25 15 15 25 15 15 25 255 180 0 15 15 25 15 15 25 15 15 25 15 15 25 15 15 25 15 15 25 15 15 25 15 15 25 15 15 25 15 15 25 15 15 25 15 15 25 15 15 25 15 15 25 15 15 25 15 15 25 15 15 25 15 15 25 15 15 25 15 15 25 15 15 25 15 15 25 15 15 25 15 15 25 15 15 25 15 15 25 15 15 25 15 15 25 15 15 25 15 15 25 15 15 25 15 15 25 15 15 25 15 15 25 15 15 25 15 15 25 15 15 25 15 15 25 15 15 25 15 15 25 15 15 25 15 15 25 15 15 25 15 15 25 15 15 25 15 15 25 15 15 25 15 15 25 15 15 25 15 15 25 15 15 25 15 15 25 15 15 25 15 15 25 15 15 25 15 15 25 15 15 25 15 15 25 15 15 25 15 15 25 15 15 25 15 15 25 15 15 25 15 15 25 15 15 25 15 15 25 15 15 25 15 15 25 15 15 25 15 15 25 15 15 25 15 15 25 15 15 25 15 15 25 15 15 25 255 0 0 15 15 25 15 15 25 255 180 0 15 15 25 15 15 25 15 15 25 15 15 25 15 15 25 15 15 25 15 15 25 15 15 25 15 15 25 15 15 25 15 15 25 15 15 25 15 15 25 15 15 25 15 15 25 15 15 25 15 15 25 15 15 25 15 15 25 15 15 25 15 15 25 15 15 25 15 15 25 15 15 25 15 15 25 15 15 25 15 15 25 15 15 25 15 15 25 15 15 25 15 15 25 15 15 25 15 15 25 15 15 25 15 15 25 15 15 25 15 15 25 15 15 25 15 15 25 15 15 25 15 15 25 15 15 25 15 15 25 15 15 25 15 15 25 
15 15 25 15 15 25 15 15 25 15 15 25 15 15 25 15 15 25 15 15 25 15 15 25 15 15 25 15 15 25 15 15 25 15 15 25 15 15 25 15 15 25 15 15 25 15 15 25 15 15 25 15 15 25 15 15 25 15 15 25 15 15 25 15 15 25 15 15 25 15 15 25 15 15 25 15 15 25 15 15 25 15 15 25 15 15 25 15 15 25 15 15 25 15 15 25 15 15 25 15 15 25 15 15 25 15 15 25 255 255 255 15 15 25 15 15 25 15 15 25 15 15 25 15 15 25 15 15 25 15 15 25 15 15 25 15 15 25 15 15 25 0 255 0 15 15 25 15 15 25 15 15 25 15 15 25 15 15 25 15 15 25 15 15 25 15 15 25 15 15 25 15 15 25 15 15 25 15 15 25 15 15 25 15 15 25 15 15 25 15 15 25 255 255 255 15 15 25 15 15 25 15 15 25 15 15 25 15 15 25 15 15 25 15 15 25 15 15 25 15 15 25 15 15 25 15 15 25 15 15 25 15 15 25 15 15 25 15 15 25 15 15 25 15 15 25 15 15 25 15 15 25 15 15 25 15 15 25 15 15 25 15 15 25 15 15 25 15 15 25 15 15 25 15 15 25 15 15 25 15 15 25 15 15 25 15 15 25 15 15 25 15 15 25 15 15 25 15 15 25 15 15 25 15 15 25 15 15 25 15 15 25 15 15 25 15 15 25 15 15 25 15 15 25 15 15 25 15 15 25 15 15 25 15 15 25 15 15 25 15 15 25 15 15 25 15 15 25 15 15 25 15 15 25 15 15 25 15 15 25 15 15 25 15 15 25 15 15 25 15 15 25 15 15 25 15 15 25 15 15 25 15 15 25 15 15 25 15 15 25 255 180 0 15 15 25 15 15 25 15 15 25 15 15 25 15 15 25 15 15 25 15 15 25 15 15 25 15 15 25 15 15 25 15 15 25 15 15 25 15 15 25 15 15 25 15 15 25 15 15 25 15 15 25 15 15 25 15 15 25 15 15 25 15 15 25 15 15 25 15 15 25 15 15 25 15 15 25 15 15 25 15 15 25 15 15 25 15 15 25 15 15 25 15 15 25 15 15 25 15 15 25 15 15 25 15 15 25 15 15 25 15 15 25 15 15 25 15 15 25 15 15 25 15 15 25 15 15 25 15 15 25 15 15 25 15 15 25 15 15 25 15 15 25 15 15 25 15 15 25 15 15 25 15 15 25 15 15 25 15 15 25 15 15 25 15 15 25 15 15 25 15 15 25 15 15 25 15 15 25 15 15 25 15 15 25 15 15 25 15 15 25 15 15 25 15 15 25 15 15 25 15 15 25 15 15 25 15 15 25 15 15 25 15 15 25 15 15 25 15 15 25 15 15 25 15 15 25 15 15 25 15 15 25 255 0 0 15 15 25 15 15 25 255 180 0 15 15 25 15 15 25 15 15 25 15 15 25 15 15 25 15 15 25 15 15 25 15 15 25 15 15 25 15 15 25 15 15 25 15 15 25 15 15 25 15 15 25 15 15 25 15 15 25 15 15 25 15 15 25 15 15 25 15 15 25 15 15 25 15 15 25 15 15 25 15 15 25 15 15 25 15 15 25 15 15 25 15 15 25 15 15 25 15 15 25 15 15 25 15 15 25 15 15 25 15 15 25 15 15 25 15 15 25 15 15 25 15 15 25 15 15 25 15 15 25 15 15 25 15 15 25 15 15 25 15 15 25 
15 15 25 15 15 25 15 15 25 15 15 25 15 15 25 15 15 25 15 15 25 15 15 25 15 15 25 15 15 25 15 15 25 15 15 25 15 15 25 15 15 25 15 15 25 15 15 25 15 15 25 15 15 25 15 15 25 15 15 25 15 15 25 15 15 25 15 15 25 15 15 25 15 15 25 15 15 25 15 15 25 15 15 25 15 15 25 15 15 25 15 15 25 15 15 25 15 15 25 15 15 25 15 15 25 15 15 25 255 255 255 15 15 25 15 15 25 15 15 25 15 15 25 15 15 25 15 15 25 15 15 25 15 15 25 15 15 25 0 255 0 15 15 25 15 15 25 15 15 25 15 15 25 15 15 25 15 15 25 15 15 25 15 15 25 15 15 25 15 15 25 15 15 25 15 15 25 15 15 25 15 15 25 15 15 25 15 15 25 15 15 25 15 15 25 255 255 255 15 15 25 15 15 25 15 15 25 15 15 25 15 15 25 15 15 25 15 15 25 15 15 25 15 15 25 15 15 25 15 15 25 15 15 25 15 15 25 15 15 25 15 15 25 15 15 25 15 15 25 15 15 25 15 15 25 15 15 25 15 15 25 15 15 25 15 15 25 15 15 25 15 15 25 15 15 25 15 15 25 15 15 25 15 15 25 15 15 25 15 15 25 15 15 25 15 15 25 15 15 25 15 15 25 15 15 25 15 15 25 15 15 25 15 15 25 15 15 25 15 15 25 15 15 25 15 15 25 15 15 25 15 15 25 15 15 25 15 15 25 15 15 25 15 15 25 15 15 25 15 15 25 15 15 25 15 15 25 15 15 25 15 15 25 15 15 25 15 15 25 15 15 25 15 15 25 15 15 25 15 15 25 15 15 25 15 15 25 255 180 0 15 15 25 15 15 25 15 15 25 15 15 25 15 15 25 15 15 25 15 15 25 15 15 25 15 15 25 15 15 25 15 15 25 15 15 25 15 15 25 15 15 25 15 15 25 15 15 25 15 15 25 15 15 25 15 15 25 15 15 25 15 15 25 15 15 25 15 15 25 15 15 25 15 15 25 15 15 25 15 15 25 15 15 25 15 15 25 15 15 25 15 15 25 15 15 25 15 15 25 15 15 25 15 15 25 15 15 25 15 15 25 15 15 25 15 15 25 15 15 25 15 15 25 15 15 25 15 15 25 15 15 25 15 15 25 15 15 25 15 15 25 15 15 25 15 15 25 15 15 25 15 15 25 15 15 25 15 15 25 15 15 25 15 15 25 15 15 25 15 15 25 15 15 25 15 15 25 15 15 25 15 15 25 15 15 25 15 15 25 15 15 25 15 15 25 15 15 25 15 15 25 15 15 25 15 15 25 15 15 25 15 15 25 15 15 25 15 15 25 15 15 25 15 15 25 15 15 25 15 15 25 15 15 25 15 15 25 255 0 0 15 15 25 15 15 25 255 180 0 15 15 25 15 15 25 15 15 25 15 15 25 15 15 25 15 15 25 15 15 25 15 15 25 15 15 25 15 15 25 15 15 25 15 15 25 15 15 25 15 15 25 15 15 25 15 15 25 15 15 25 15 15 25 15 15 25 15 15 25 15 15 25 15 15 25 15 15 25 15 15 25 15 15 25 15 15 25 15 15 25 15 15 25 15 15 25 15 15 25 15 15 25 15 15 25 15 15 25 15 15 25 15 15 25 15 15 25 15 15 25 15 15 25 15 15 25 15 15 25 15 15 25 15 15 25 15 15 25 
15 15 25 15 15 25 15 15 25 15 15 25 15 15 25 15 15 25 15 15 25 15 15 25 15 15 25 15 15 25 15 15 25 15 15 25 15 15 25 15 15 25 15 15 25 15 15 25 15 15 25 15 15 25 15 15 25 15 15 25 15 15 25 15 15 25 15 15 25 15 15 25 15 15 25 15 15 25 15 15 25 15 15 25 15 15 25 15 15 25 15 15 25 15 15 25 15 15 25 15 15 25 15 15 25 255 255 255 15 15 25 15 15 25 15 15 25 15 15 25 15 15 25 15 15 25 15 15 25 15 15 25 15 15 25 0 255 0 15 15 25 15 15 25 15 15 25 15 15 25 15 15 25 15 15 25 15 15 25 15 15 25 15 15 25 15 15 25 15 15 25 15 15 25 15 15 25 15 15 25 15 15 25 15 15 25 15 15 25 15 15 25 15 15 25 255 255 255 15 15 25 15 15 25 15 15 25 15 15 25 15 15 25 15 15 25 15 15 25 15 15 25 15 15 25 15 15 25 15 15 25 15 15 25 15 15 25 15 15 25 15 15 25 15 15 25 15 15 25 15 15 25 15 15 25 15 15 25 15 15 25 15 15 25 15 15 25 15 15 25 15 15 25 15 15 25 15 15 25 15 15 25 15 15 25 15 15 25 15 15 25 15 15 25 15 15 25 15 15 25 15 15 25 15 15 25 15 15 25 15 15 25 15 15 25 15 15 25 15 15 25 15 15 25 15 15 25 15 15 25 15 15 25 15 15 25 15 15 25 15 15 25 15 15 25 15 15 25 15 15 25 15 15 25 15 15 25 15 15 25 15 15 25 15 15 25 15 15 25 15 15 25 15 15 25 15 15 25 15 15 25 15 15 25 255 180 0 15 15 25 15 15 25 15 15 25 15 15 25 15 15 25 15 15 25 15 15 25 15 15 25 15 15 25 15 15 25 15 15 25 15 15 25 15 15 25 15 15 25 15 15 25 15 15 25 15 15 25 15 15 25 15 15 25 15 15 25 15 15 25 15 15 25 15 15 25 15 15 25 15 15 25 15 15 25 15 15 25 15 15 25 15 15 25 15 15 25 15 15 25 15 15 25 15 15 25 15 15 25 15 15 25 15 15 25 15 15 25 15 15 25 15 15 25 15 15 25 15 15 25 15 15 25 15 15 25 15 15 25 15 15 25 15 15 25 15 15 25 15 15 25 15 15 25 15 15 25 15 15 25 15 15 25 15 15 25 15 15 25 15 15 25 15 15 25 15 15 25 15 15 25 15 15 25 15 15 25 15 15 25 15 15 25 15 15 25 15 15 25 15 15 25 15 15 25 15 15 25 15 15 25 15 15 25 15 15 25 15 15 25 15 15 25 15 15 25 15 15 25 15 15 25 15 15 25 15 15 25 15 15 25 15 15 25 15 15 25 15 15 25 255 0 0 15 15 25 15 15 25 255 180 0 15 15 25 15 15 25 15 15 25 15 15 25 15 15 25 15 15 25 15 15 25 15 15 25 15 15 25 15 15 25 15 15 25 15 15 25 15 15 25 15 15 25 15 15 25 15 15 25 15 15 25 15 15 25 15 15 25 15 15 25 15 15 25 15 15 25 15 15 25 15 15 25 15 15 25 15 15 25 15 15 25 15 15 25 15 15 25 15 15 25 15 15 25 15 15 25 15 15 25 15 15 25 15 15 25 15 15 25 15 15 25 15 15 25 15 15 25 15 15 25 15 15 25 15 15 25 
15 15 25 15 15 25 15 15 25 15 15 25 15 15 25 15 15 25 15 15 25 15 15 25 15 15 25 15 15 25 15 15 25 15 15 25 15 15 25 15 15 25 15 15 25 15 15 25 15 15 25 15 15 25 15 15 25 15 15 25 15 15 25 15 15 25 15 15 25 15 15 25 15 15 25 15 15 25 15 15 25 15 15 25 15 15 25 15 15 25 15 15 25 15 15 25 15 15 25 15 15 25 15 15 25 255 255 255 15 15 25 15 15 25 15 15 25 15 15 25 15 15 25 15 15 25 15 15 25 15 15 25 0 255 0 15 15 25 15 15 25 15 15 25 15 15 25 15 15 25 15 15 25 15 15 25 15 15 25 15 15 25 15 15 25 15 15 25 15 15 25 15 15 25 15 15 25 15 15 25 15 15 25 15 15 25 15 15 25 15 15 25 15 15 25 15 15 25 255 255 255 15 15 25 15 15 25 15 15 25 15 15 25 15 15 25 15 15 25 15 15 25 15 15 25 15 15 25 15 15 25 15 15 25 15 15 25 15 15 25 15 15 25 15 15 25 15 15 25 15 15 25 15 15 25 15 15 25 15 15 25 15 15 25 15 15 25 15 15 25 15 15 25 15 15 25 15 15 25 15 15 25 15 15 25 15 15 25 15 15 25 15 15 25 15 15 25 15 15 25 15 15 25 15 15 25 15 15 25 15 15 25 15 15 25 15 15 25 15 15 25 15 15 25 15 15 25 15 15 25 15 15 25 15 15 25 15 15 25 15 15 25 15 15 25 15 15 25 15 15 25 15 15 25 15 15 25 15 15 25 15 15 25 15 15 25 15 15 25 15 15 25 15 15 25 15 15 25 15 15 25 255 180 0 15 15 25 15 15 25 15 15 25 15 15 25 15 15 25 15 15 25 15 15 25 15 15 25 15 15 25 15 15 25 15 15 25 15 15 25 15 15 25 15 15 25 15 15 25 15 15 25 15 15 25 15 15 25 15 15 25 15 15 25 15 15 25 15 15 25 15 15 25 15 15 25 15 15 25 15 15 25 15 15 25 15 15 25 15 15 25 15 15 25 15 15 25 15 15 25 15 15 25 15 15 25 15 15 25 15 15 25 15 15 25 15 15 25 15 15 25 15 15 25 15 15 25 15 15 25 15 15 25 15 15 25 15 15 25 15 15 25 15 15 25 15 15 25 15 15 25 15 15 25 15 15 25 15 15 25 15 15 25 15 15 25 15 15 25 15 15 25 15 15 25 15 15 25 15 15 25 15 15 25 15 15 25 15 15 25 15 15 25 15 15 25 15 15 25 15 15 25 15 15 25 15 15 25 15 15 25 15 15 25 15 15 25 15 15 25 15 15 25 15 15 25 15 15 25 15 15 25 15 15 25 15 15 25 15 15 25 15 15 25 15 15 25 15 15 25 15 15 25 255 0 0 15 15 25 15 15 25 255 180 0 15 15 25 15 15 25 15 15 25 15 15 25 15 15 25 15 15 25 15 15 25 15 15 25 15 15 25 15 15 25 15 15 25 15 15 25 15 15 25 15 15 25 15 15 25 15 15 25 15 15 25 15 15 25 15 15 25 15 15 25 15 15 25 15 15 25 15 15 25 15 15 25 15 15 25 15 15 25 15 15 25 15 15 25 15 15 25 15 15 25 15 15 25 15 15 25 15 15 25 15 15 25 15 15 25 15 15 25 15 15 25 15 15 25 15 15 25 15 15 25 15 15 25 
15 15 25 15 15 25 15 15 25 15 15 25 15 15 25 15 15 25 15 15 25 15 15 25 15 15 25 15 15 25 15 15 25 15 15 25 15 15 25 15 15 25 15 15 25 15 15 25 15 15 25 15 15 25 15 15 25 15 15 25 15 15 25 15 15 25 15 15 25 15 15 25 15 15 25 15 15 25 15 15 25 15 15 25 15 15 25 15 15 25 15 15 25 15 15 25 15 15 25 15 15 25 255 255 255 15 15 25 15 15 25 15 15 25 15 15 25 15 15 25 15 15 25 15 15 25 15 15 25 0 255 0 15 15 25 15 15 25 15 15 25 15 15 25 15 15 25 15 15 25 15 15 25 15 15 25 15 15 25 15 15 25 15 15 25 15 15 25 15 15 25 15 15 25 15 15 25 15 15 25 15 15 25 15 15 25 15 15 25 15 15 25 15 15 25 15 15 25 255 255 255 15 15 25 15 15 25 15 15 25 15 15 25 15 15 25 15 15 25 15 15 25 15 15 25 15 15 25 15 15 25 15 15 25 15 15 25 15 15 25 15 15 25 15 15 25 15 15 25 15 15 25 15 15 25 15 15 25 15 15 25 15 15 25 15 15 25 15 15 25 15 15 25 15 15 25 15 15 25 15 15 25 15 15 25 15 15 25 15 15 25 15 15 25 15 15 25 15 15 25 15 15 25 15 15 25 15 15 25 15 15 25 15 15 25 15 15 25 15 15 25 15 15 25 15 15 25 15 15 25 15 15 25 15 15 25 15 15 25 15 15 25 15 15 25 15 15 25 15 15 25 15 15 25 15 15 25 15 15 25 15 15 25 15 15 25 15 15 25 15 15 25 15 15 25 15 15 25 15 15 25 255 180 0 15 15 25 15 15 25 15 15 25 15 15 25 15 15 25 15 15 25 15 15 25 15 15 25 15 15 25 15 15 25 15 15 25 15 15 25 15 15 25 15 15 25 15 15 25 15 15 25 15 15 25 15 15 25 15 15 25 15 15 25 15 15 25 15 15 25 15 15 25 15 15 25 15 15 25 15 15 25 15 15 25 15 15 25 15 15 25 15 15 25 15 15 25 15 15 25 15 15 25 15 15 25 15 15 25 15 15 25 15 15 25 15 15 25 15 15 25 15 15 25 15 15 25 15 15 25 15 15 25 15 15 25 15 15 25 15 15 25 15 15 25 15 15 25 15 15 25 15 15 25 15 15 25 15 15 25 15 15 25 15 15 25 15 15 25 15 15 25 15 15 25 15 15 25 15 15 25 15 15 25 15 15 25 15 15 25 15 15 25 15 15 25 15 15 25 15 15 25 15 15 25 15 15 25 15 15 25 15 15 25 15 15 25 15 15 25 15 15 25 15 15 25 15 15 25 15 15 25 15 15 25 15 15 25 15 15 25 15 15 25 15 15 25 15 15 25 15 15 25 15 15 25 255 0 0 15 15 25 15 15 25 255 180 0 15 15 25 15 15 25 15 15 25 15 15 25 15 15 25 15 15 25 15 15 25 15 15 25 15 15 25 15 15 25 15 15 25 15 15 25 15 15 25 15 15 25 15 15 25 15 15 25 15 15 25 15 15 25 15 15 25 15 15 25 15 15 25 15 15 25 15 15 25 15 15 25 15 15 25 15 15 25 15 15 25 15 15 25 15 15 25 15 15 25 15 15 25 15 15 25 15 15 25 15 15 25 15 15 25 15 15 25 15 15 25 15 15 25 15 15 25 15 15 25 
15 15 25 15 15 25 15 15 25 15 15 25 15 15 25 15 15 25 15 15 25 15 15 25 15 15 25 15 15 25 15 15 25 15 15 25 15 15 25 15 15 25 15 15 25 15 15 25 15 15 25 15 15 25 15 15 25 15 15 25 15 15 25 15 15 25 15 15 25 15 15 25 15 15 25 15 15 25 15 15 25 15 15 25 15 15 25 15 15 25 15 15 25 15 15 25 15 15 25 15 15 25 255 255 255 15 15 25 15 15 25 15 15 25 15 15 25 15 15 25 15 15 25 15 15 25 0 255 0 15 15 25 15 15 25 15 15 25 15 15 25 15 15 25 15 15 25 15 15 25 15 15 25 15 15 25 15 15 25 15 15 25 15 15 25 15 15 25 15 15 25 15 15 25 15 15 25 15 15 25 15 15 25 15 15 25 15 15 25 15 15 25 15 15 25 15 15 25 15 15 25 255 255 255 15 15 25 15 15 25 15 15 25 15 15 25 15 15 25 15 15 25 15 15 25 15 15 25 15 15 25 15 15 25 15 15 25 15 15 25 15 15 25 15 15 25 15 15 25 15 15 25 15 15 25 15 15 25 15 15 25 15 15 25 15 15 25 15 15 25 15 15 25 15 15 25 15 15 25 15 15 25 15 15 25 15 15 25 15 15 25 15 15 25 15 15 25 15 15 25 15 15 25 15 15 25 15 15 25 15 15 25 15 15 25 15 15 25 15 15 25 15 15 25 15 15 25 15 15 25 15 15 25 15 15 25 15 15 25 15 15 25 15 15 25 15 15 25 15 15 25 15 15 25 15 15 25 15 15 25 15 15 25 15 15 25 15 15 25 15 15 25 15 15 25 15 15 25 255 180 0 15 15 25 15 15 25 15 15 25 15 15 25 15 15 25 15 15 25 15 15 25 15 15 25 15 15 25 15 15 25 15 15 25 15 15 25 15 15 25 15 15 25 15 15 25 15 15 25 15 15 25 15 15 25 15 15 25 15 15 25 15 15 25 15 15 25 15 15 25 15 15 25 15 15 25 15 15 25 15 15 25 15 15 25 15 15 25 15 15 25 15 15 25 15 15 25 15 15 25 15 15 25 15 15 25 15 15 25 15 15 25 15 15 25 15 15 25 15 15 25 15 15 25 15 15 25 15 15 25 15 15 25 15 15 25 15 15 25 15 15 25 15 15 25 15 15 25 15 15 25 15 15 25 15 15 25 15 15 25 15 15 25 15 15 25 15 15 25 15 15 25 15 15 25 15 15 25 15 15 25 15 15 25 15 15 25 15 15 25 15 15 25 15 15 25 15 15 25 15 15 25 15 15 25 15 15 25 15 15 25 15 15 25 15 15 25 15 15 25 15 15 25 15 15 25 15 15 25 15 15 25 15 15 25 15 15 25 15 15 25 15 15 25 15 15 25 15 15 25 15 15 25 15 15 25 15 15 25 255 0 0 15 15 25 255 180 0 15 15 25 15 15 25 15 15 25 15 15 25 15 15 25 15 15 25 15 15 25 15 15 25 15 15 25 15 15 25 15 15 25 15 15 25 15 15 25 15 15 25 15 15 25 15 15 25 15 15 25 15 15 25 15 15 25 15 15 25 15 15 25 15 15 25 15 15 25 15 15 25 15 15 25 15 15 25 15 15 25 15 15 25 15 15 25 15 15 25 15 15 25 15 15 25 15 15 25 15 15 25 15 15 25 15 15 25 15 15 25 15 15 25 15 15 25 15 15 25 
15 15 25 15 15 25 15 15 25 15 15 25 15 15 25 15 15 25 15 15 25 15 15 25 15 15 25 15 15 25 15 15 25 15 15 25 15 15 25 15 15 25 15 15 25 15 15 25 15 15 25 15 15 25 15 15 25 15 15 25 15 15 25 15 15 25 15 15 25 15 15 25 15 15 25 15 15 25 15 15 25 15 15 25 15 15 25 15 15 25 15 15 25 15 15 25 15 15 25 255 255 255 15 15 25 15 15 25 15 15 25 15 15 25 15 15 25 15 15 25 15 15 25 0 255 0 15 15 25 15 15 25 15 15 25 15 15 25 15 15 25 15 15 25 15 15 25 15 15 25 15 15 25 15 15 25 15 15 25 15 15 25 15 15 25 15 15 25 15 15 25 15 15 25 15 15 25 15 15 25 15 15 25 15 15 25 15 15 25 15 15 25 15 15 25 15 15 25 15 15 25 255 255 255 15 15 25 15 15 25 15 15 25 15 15 25 15 15 25 15 15 25 15 15 25 15 15 25 15 15 25 15 15 25 15 15 25 15 15 25 15 15 25 15 15 25 15 15 25 15 15 25 15 15 25 15 15 25 15 15 25 15 15 25 15 15 25 15 15 25 15 15 25 15 15 25 15 15 25 15 15 25 15 15 25 15 15 25 15 15 25 15 15 25 15 15 25 15 15 25 15 15 25 15 15 25 15 15 25 15 15 25 15 15 25 15 15 25 15 15 25 15 15 25 15 15 25 15 15 25 15 15 25 15 15 25 15 15 25 15 15 25 15 15 25 15 15 25 15 15 25 15 15 25 15 15 25 15 15 25 15 15 25 15 15 25 15 15 25 15 15 25 15 15 25 255 180 0 15 15 25 15 15 25 15 15 25 15 15 25 15 15 25 15 15 25 15 15 25 15 15 25 15 15 25 15 15 25 15 15 25 15 15 25 15 15 25 15 15 25 15 15 25 15 15 25 15 15 25 15 15 25 15 15 25 15 15 25 15 15 25 15 15 25 15 15 25 15 15 25 15 15 25 15 15 25 15 15 25 15 15 25 15 15 25 15 15 25 15 15 25 15 15 25 15 15 25 15 15 25 15 15 25 15 15 25 15 15 25 15 15 25 15 15 25 15 15 25 15 15 25 15 15 25 15 15 25 15 15 25 15 15 25 15 15 25 15 15 25 15 15 25 15 15 25 15 15 25 15 15 25 15 15 25 15 15 25 15 15 25 15 15 25 15 15 25 15 15 25 15 15 25 15 15 25 15 15 25 15 15 25 15 15 25 15 15 25 15 15 25 15 15 25 15 15 25 15 15 25 15 15 25 15 15 25 15 15 25 15 15 25 15 15 25 15 15 25 15 15 25 15 15 25 15 15 25 15 15 25 15 15 25 15 15 25 15 15 25 15 15 25 15 15 25 15 15 25 15 15 25 15 15 25 15 15 25 15 15 25 15 15 25 255 0 0 15 15 25 255 180 0 15 15 25 15 15 25 15 15 25 15 15 25 15 15 25 15 15 25 15 15 25 15 15 25 15 15 25 15 15 25 15 15 25 15 15 25 15 15 25 15 15 25 15 15 25 15 15 25 15 15 25 15 15 25 15 15 25 15 15 25 15 15 25 15 15 25 15 15 25 15 15 25 15 15 25 15 15 25 15 15 25 15 15 25 15 15 25 15 15 25 15 15 25 15 15 25 15 15 25 15 15 25 15 15 25 15 15 25 15 15 25 15 15 25 15 15 25 
15 15 25 15 15 25 15 15 25 15 15 25 15 15 25 15 15 25 15 15 25 15 15 25 15 15 25 15 15 25 15 15 25 15 15 25 15 15 25 15 15 25 15 15 25 15 15 25 15 15 25 15 15 25 15 15 25 15 15 25 15 15 25 15 15 25 15 15 25 15 15 25 15 15 25 15 15 25 15 15 25 15 15 25 15 15 25 15 15 25 15 15 25 15 15 25 15 15 25 255 255 255 15 15 25 15 15 25 15 15 25 15 15 25 15 15 25 15 15 25 0 255 0 15 15 25 15 15 25 15 15 25 15 15 25 15 15 25 15 15 25 15 15 25 15 15 25 15 15 25 15 15 25 15 15 25 15 15 25 15 15 25 15 15 25 15 15 25 15 15 25 15 15 25 15 15 25 15 15 25 15 15 25 15 15 25 15 15 25 15 15 25 15 15 25 15 15 25 15 15 25 15 15 25 255 255 255 15 15 25 15 15 25 15 15 25 15 15 25 15 15 25 15 15 25 15 15 25 15 15 25 15 15 25 15 15 25 15 15 25 15 15 25 15 15 25 15 15 25 15 15 25 15 15 25 15 15 25 15 15 25 15 15 25 15 15 25 15 15 25 15 15 25 15 15 25 15 15 25 15 15 25 15 15 25 15 15 25 15 15 25 15 15 25 15 15 25 15 15 25 15 15 25 15 15 25 15 15 25 15 15 25 15 15 25 15 15 25 15 15 25 15 15 25 15 15 25 15 15 25 15 15 25 15 15 25 15 15 25 15 15 25 15 15 25 15 15 25 15 15 25 15 15 25 15 15 25 15 15 25 15 15 25 15 15 25 15 15 25 15 15 25 255 180 0 15 15 25 15 15 25 15 15 25 15 15 25 15 15 25 15 15 25 15 15 25 15 15 25 15 15 25 15 15 25 15 15 25 15 15 25 15 15 25 15 15 25 15 15 25 15 15 25 15 15 25 15 15 25 15 15 25 15 15 25 15 15 25 15 15 25 15 15 25 15 15 25 15 15 25 15 15 25 15 15 25 15 15 25 15 15 25 15 15 25 15 15 25 15 15 25 15 15 25 15 15 25 15 15 25 15 15 25 15 15 25 15 15 25 15 15 25 15 15 25 15 15 25 15 15 25 15 15 25 15 15 25 15 15 25 15 15 25 15 15 25 15 15 25 15 15 25 15 15 25 15 15 25 15 15 25 15 15 25 15 15 25 15 15 25 15 15 25 15 15 25 15 15 25 15 15 25 15 15 25 15 15 25 15 15 25 15 15 25 15 15 25 15 15 25 15 15 25 15 15 25 15 15 25 15 15 25 15 15 25 15 15 25 15 15 25 15 15 25 15 15 25 15 15 25 15 15 25 15 15 25 15 15 25 15 15 25 15 15 25 15 15 25 15 15 25 15 15 25 15 15 25 15 15 25 15 15 25 15 15 25 15 15 25 15 15 25 15 15 25 255 0 0 15 15 25 255 180 0 15 15 25 15 15 25 15 15 25 15 15 25 15 15 25 15 15 25 15 15 25 15 15 25 15 15 25 15 15 25 15 15 25 15 15 25 15 15 25 15 15 25 15 15 25 15 15 25 15 15 25 15 15 25 15 15 25 15 15 25 15 15 25 15 15 25 15 15 25 15 15 25 15 15 25 15 15 25 15 15 25 15 15 25 15 15 25 15 15 25 15 15 25 15 15 25 15 15 25 15 15 25 15 15 25 15 15 25 15 15 25 15 15 25 
15 15 25 15 15 25 15 15 25 15 15 25 15 15 25 15 15 25 15 15 25 15 15 25 15 15 25 15 15 25 15 15 25 15 15 25 15 15 25 15 15 25 15 15 25 15 15 25 15 15 25 15 15 25 15 15 25 15 15 25 15 15 25 15 15 25 15 15 25 15 15 25 15 15 25 15 15 25 15 15 25 15 15 25 15 15 25 15 15 25 15 15 25 15 15 25 255 255 255 15 15 25 15 15 25 15 15 25 15 15 25 15 15 25 15 15 25 0 255 0 15 15 25 15 15 25 15 15 25 15 15 25 15 15 25 15 15 25 15 15 25 15 15 25 15 15 25 15 15 25 15 15 25 15 15 25 15 15 25 15 15 25 15 15 25 15 15 25 15 15 25 15 15 25 15 15 25 15 15 25 15 15 25 15 15 25 15 15 25 15 15 25 15 15 25 15 15 25 15 15 25 15 15 25 255 255 255 15 15 25 15 15 25 15 15 25 15 15 25 15 15 25 15 15 25 15 15 25 15 15 25 15 15 25 15 15 25 15 15 25 15 15 25 15 15 25 15 15 25 15 15 25 15 15 25 15 15 25 15 15 25 15 15 25 15 15 25 15 15 25 15 15 25 15 15 25 15 15 25 15 15 25 15 15 25 15 15 25 15 15 25 15 15 25 15 15 25 15 15 25 15 15 25 15 15 25 15 15 25 15 15 25 15 15 25 15 15 25 15 15 25 15 15 25 15 15 25 15 15 25 15 15 25 15 15 25 15 15 25 15 15 25 15 15 25 15 15 25 15 15 25 15 15 25 15 15 25 15 15 25 15 15 25 15 15 25 15 15 25 255 180 0 15 15 25 15 15 25 15 15 25 15 15 25 15 15 25 15 15 25 15 15 25 15 15 25 15 15 25 15 15 25 15 15 25 15 15 25 15 15 25 15 15 25 15 15 25 15 15 25 15 15 25 15 15 25 15 15 25 15 15 25 15 15 25 15 15 25 15 15 25 15 15 25 15 15 25 15 15 25 15 15 25 15 15 25 15 15 25 15 15 25 15 15 25 15 15 25 15 15 25 15 15 25 15 15 25 15 15 25 15 15 25 15 15 25 15 15 25 15 15 25 15 15 25 15 15 25 15 15 25 15 15 25 15 15 25 15 15 25 15 15 25 15 15 25 15 15 25 15 15 25 15 15 25 15 15 25 15 15 25 15 15 25 15 15 25 15 15 25 15 15 25 15 15 25 15 15 25 15 15 25 15 15 25 15 15 25 15 15 25 15 15 25 15 15 25 15 15 25 15 15 25 15 15 25 15 15 25 15 15 25 15 15 25 15 15 25 15 15 25 15 15 25 15 15 25 15 15 25 15 15 25 15 15 25 15 15 25 15 15 25 15 15 25 15 15 25 15 15 25 15 15 25 15 15 25 15 15 25 15 15 25 15 15 25 15 15 25 15 15 25 15 15 25 15 15 25 255 0 0 15 15 25 255 180 0 15 15 25 15 15 25 15 15 25 15 15 25 15 15 25 15 15 25 15 15 25 15 15 25 15 15 25 15 15 25 15 15 25 15 15 25 15 15 25 15 15 25 15 15 25 15 15 25 15 15 25 15 15 25 15 15 25 15 15 25 15 15 25 15 15 25 15 15 25 15 15 25 15 15 25 15 15 25 15 15 25 15 15 25 15 15 25 15 15 25 15 15 25 15 15 25 15 15 25 15 15 25 15 15 25 15 15 25 15 15 25 
15 15 25 15 15 25 15 15 25 15 15 25 15 15 25 15 15 25 15 15 25 15 15 25 15 15 25 15 15 25 15 15 25 15 15 25 15 15 25 15 15 25 15 15 25 15 15 25 15 15 25 15 15 25 15 15 25 15 15 25 15 15 25 15 15 25 15 15 25 15 15 25 15 15 25 15 15 25 15 15 25 15 15 25 15 15 25 15 15 25 15 15 25 15 15 25 255 255 255 15 15 25 15 15 25 15 15 25 15 15 25 15 15 25 0 255 0 15 15 25 15 15 25 15 15 25 15 15 25 15 15 25 15 15 25 15 15 25 15 15 25 15 15 25 15 15 25 15 15 25 15 15 25 15 15 25 15 15 25 15 15 25 15 15 25 15 15 25 15 15 25 15 15 25 15 15 25 15 15 25 15 15 25 15 15 25 15 15 25 15 15 25 15 15 25 15 15 25 15 15 25 15 15 25 15 15 25 255 255 255 15 15 25 15 15 25 15 15 25 15 15 25 15 15 25 15 15 25 15 15 25 15 15 25 15 15 25 15 15 25 15 15 25 15 15 25 15 15 25 15 15 25 15 15 25 15 15 25 15 15 25 15 15 25 15 15 25 15 15 25 15 15 25 15 15 25 15 15 25 15 15 25 15 15 25 15 15 25 15 15 25 15 15 25 15 15 25 15 15 25 15 15 25 15 15 25 15 15 25 15 15 25 15 15 25 15 15 25 15 15 25 15 15 25 15 15 25 15 15 25 15 15 25 15 15 25 15 15 25 15 15 25 15 15 25 15 15 25 15 15 25 15 15 25 15 15 25 15 15 25 15 15 25 15 15 25 255 180 0 15 15 25 15 15 25 15 15 25 15 15 25 15 15 25 15 15 25 15 15 25 15 15 25 15 15 25 15 15 25 15 15 25 15 15 25 15 15 25 15 15 25 15 15 25 15 15 25 15 15 25 15 15 25 15 15 25 15 15 25 15 15 25 15 15 25 15 15 25 15 15 25 15 15 25 15 15 25 15 15 25 15 15 25 15 15 25 15 15 25 15 15 25 15 15 25 15 15 25 15 15 25 15 15 25 15 15 25 15 15 25 15 15 25 15 15 25 15 15 25 15 15 25 15 15 25 15 15 25 15 15 25 15 15 25 15 15 25 15 15 25 15 15 25 15 15 25 15 15 25 15 15 25 15 15 25 15 15 25 15 15 25 15 15 25 15 15 25 15 15 25 15 15 25 15 15 25 15 15 25 15 15 25 15 15 25 15 15 25 15 15 25 15 15 25 15 15 25 15 15 25 15 15 25 15 15 25 15 15 25 15 15 25 15 15 25 15 15 25 15 15 25 15 15 25 15 15 25 15 15 25 15 15 25 15 15 25 15 15 25 15 15 25 15 15 25 15 15 25 15 15 25 15 15 25 15 15 25 15 15 25 15 15 25 15 15 25 15 15 25 15 15 25 15 15 25 15 15 25 15 15 25 255 0 0 15 15 25 255 180 0 15 15 25 15 15 25 15 15 25 15 15 25 15 15 25 15 15 25 15 15 25 15 15 25 15 15 25 15 15 25 15 15 25 15 15 25 15 15 25 15 15 25 15 15 25 15 15 25 15 15 25 15 15 25 15 15 25 15 15 25 15 15 25 15 15 25 15 15 25 15 15 25 15 15 25 15 15 25 15 15 25 15 15 25 15 15 25 15 15 25 15 15 25 15 15 25 15 15 25 15 15 25 15 15 25 15 15 25 
15 15 25 15 15 25 15 15 25 15 15 25 15 15 25 15 15 25 15 15 25 15 15 25 15 15 25 15 15 25 15 15 25 15 15 25 15 15 25 15 15 25 15 15 25 15 15 25 15 15 25 15 15 25 15 15 25 15 15 25 15 15 25 15 15 25 15 15 25 15 15 25 15 15 25 15 15 25 15 15 25 15 15 25 15 15 25 15 15 25 15 15 25 255 255 255 15 15 25 15 15 25 15 15 25 15 15 25 15 15 25 0 255 0 15 15 25 15 15 25 15 15 25 15 15 25 15 15 25 15 15 25 15 15 25 15 15 25 15 15 25 15 15 25 15 15 25 15 15 25 15 15 25 15 15 25 15 15 25 15 15 25 15 15 25 15 15 25 15 15 25 15 15 25 15 15 25 15 15 25 15 15 25 15 15 25 15 15 25 15 15 25 15 15 25 15 15 25 15 15 25 15 15 25 15 15 25 255 255 255 15 15 25 15 15 25 15 15 25 15 15 25 15 15 25 15 15 25 15 15 25 15 15 25 15 15 25 15 15 25 15 15 25 15 15 25 15 15 25 15 15 25 15 15 25 15 15 25 15 15 25 15 15 25 15 15 25 15 15 25 15 15 25 15 15 25 15 15 25 15 15 25 15 15 25 15 15 25 15 15 25 15 15 25 15 15 25 15 15 25 15 15 25 15 15 25 15 15 25 15 15 25 15 15 25 15 15 25 15 15 25 15 15 25 15 15 25 15 15 25 15 15 25 15 15 25 15 15 25 15 15 25 15 15 25 15 15 25 15 15 25 15 15 25 15 15 25 15 15 25 15 15 25 15 15 25 255 180 0 15 15 25 15 15 25 15 15 25 15 15 25 15 15 25 15 15 25 15 15 25 15 15 25 15 15 25 15 15 25 15 15 25 15 15 25 15 15 25 15 15 25 15 15 25 15 15 25 15 15 25 15 15 25 15 15 25 15 15 25 15 15 25 15 15 25 15 15 25 15 15 25 15 15 25 15 15 25 15 15 25 15 15 25 15 15 25 15 15 25 15 15 25 15 15 25 15 15 25 15 15 25 15 15 25 15 15 25 15 15 25 15 15 25 15 15 25 15 15 25 15 15 25 15 15 25 15 15 25 15 15 25 15 15 25 15 15 25 15 15 25 15 15 25 15 15 25 15 15 25 15 15 25 15 15 25 15 15 25 15 15 25 15 15 25 15 15 25 15 15 25 15 15 25 15 15 25 15 15 25 15 15 25 15 15 25 15 15 25 15 15 25 15 15 25 15 15 25 15 15 25 15 15 25 15 15 25 15 15 25 15 15 25 15 15 25 15 15 25 15 15 25 15 15 25 15 15 25 15 15 25 15 15 25 15 15 25 15 15 25 15 15 25 15 15 25 15 15 25 15 15 25 15 15 25 15 15 25 15 15 25 15 15 25 15 15 25 15 15 25 15 15 25 15 15 25 15 15 25 15 15 25 15 15 25 255 0 0 15 15 25 255 180 0 15 15 25 15 15 25 15 15 25 15 15 25 15 15 25 15 15 25 15 15 25 15 15 25 15 15 25 15 15 25 15 15 25 15 15 25 15 15 25 15 15 25 15 15 25 15 15 25 15 15 25 15 15 25 15 15 25 15 15 25 15 15 25 15 15 25 15 15 25 15 15 25 15 15 25 15 15 25 15 15 25 15 15 25 15 15 25 15 15 25 15 15 25 15 15 25 15 15 25 15 15 25 15 15 25 
15 15 25 15 15 25 15 15 25 15 15 25 15 15 25 15 15 25 15 15 25 15 15 25 15 15 25 15 15 25 15 15 25 15 15 25 15 15 25 15 15 25 15 15 25 15 15 25 15 15 25 15 15 25 15 15 25 15 15 25 15 15 25 15 15 25 15 15 25 15 15 25 15 15 25 15 15 25 15 15 25 15 15 25 15 15 25 15 15 25 15 15 25 255 255 255 15 15 25 15 15 25 15 15 25 15 15 25 0 255 0 15 15 25 15 15 25 15 15 25 15 15 25 15 15 25 15 15 25 15 15 25 15 15 25 15 15 25 15 15 25 15 15 25 15 15 25 15 15 25 15 15 25 15 15 25 15 15 25 15 15 25 15 15 25 15 15 25 15 15 25 15 15 25 15 15 25 15 15 25 15 15 25 15 15 25 15 15 25 15 15 25 15 15 25 15 15 25 15 15 25 15 15 25 15 15 25 15 15 25 255 255 255 15 15 25 15 15 25 15 15 25 15 15 25 15 15 25 15 15 25 15 15 25 15 15 25 15 15 25 15 15 25 15 15 25 15 15 25 15 15 25 15 15 25 15 15 25 15 15 25 15 15 25 15 15 25 15 15 25 15 15 25 15 15 25 15 15 25 15 15 25 15 15 25 15 15 25 15 15 25 15 15 25 15 15 25 15 15 25 15 15 25 15 15 25 15 15 25 15 15 25 15 15 25 15 15 25 15 15 25 15 15 25 15 15 25 15 15 25 15 15 25 15 15 25 15 15 25 15 15 25 15 15 25 15 15 25 15 15 25 15 15 25 15 15 25 15 15 25 15 15 25 255 180 0 15 15 25 15 15 25 15 15 25 15 15 25 15 15 25 15 15 25 15 15 25 15 15 25 15 15 25 15 15 25 15 15 25 15 15 25 15 15 25 15 15 25 15 15 25 15 15 25 15 15 25 15 15 25 15 15 25 15 15 25 15 15 25 15 15 25 15 15 25 15 15 25 15 15 25 15 15 25 15 15 25 15 15 25 15 15 25 15 15 25 15 15 25 15 15 25 15 15 25 15 15 25 15 15 25 15 15 25 15 15 25 15 15 25 15 15 25 15 15 25 15 15 25 15 15 25 15 15 25 15 15 25 15 15 25 15 15 25 15 15 25 15 15 25 15 15 25 15 15 25 15 15 25 15 15 25 15 15 25 15 15 25 15 15 25 15 15 25 15 15 25 15 15 25 15 15 25 15 15 25 15 15 25 15 15 25 15 15 25 15 15 25 15 15 25 15 15 25 15 15 25 15 15 25 15 15 25 15 15 25 15 15 25 15 15 25 15 15 25 15 15 25 15 15 25 15 15 25 15 15 25 15 15 25 15 15 25 15 15 25 15 15 25 15 15 25 15 15 25 15 15 25 15 15 25 15 15 25 15 15 25 15 15 25 15 15 25 15 15 25 15 15 25 15 15 25 15 15 25 15 15 25 15 15 25 15 15 25 15 15 25 255 0 0 15 15 25 255 180 0 15 15 25 15 15 25 15 15 25 15 15 25 15 15 25 15 15 25 15 15 25 15 15 25 15 15 25 15 15 25 15 15 25 15 15 25 15 15 25 15 15 25 15 15 25 15 15 25 15 15 25 15 15 25 15 15 25 15 15 25 15 15 25 15 15 25 15 15 25 15 15 25 15 15 25 15 15 25 15 15 25 15 15 25 15 15 25 15 15 25 15 15 25 15 15 25 15 15 25 15 15 25 
15 15 25 15 15 25 15 15 25 15 15 25 15 15 25 15 15 25 15 15 25 15 15 25 15 15 25 15 15 25 15 15 25 15 15 25 15 15 25 15 15 25 15 15 25 15 15 25 15 15 25 15 15 25 15 15 25 15 15 25 15 15 25 15 15 25 15 15 25 15 15 25 15 15 25 15 15 25 15 15 25 15 15 25 15 15 25 15 15 25 255 255 255 15 15 25 15 15 25 15 15 25 15 15 25 0 255 0 15 15 25 15 15 25 15 15 25 15 15 25 15 15 25 15 15 25 15 15 25 15 15 25 15 15 25 15 15 25 15 15 25 15 15 25 15 15 25 15 15 25 15 15 25 15 15 25 15 15 25 15 15 25 15 15 25 15 15 25 15 15 25 15 15 25 15 15 25 15 15 25 15 15 25 15 15 25 15 15 25 15 15 25 15 15 25 15 15 25 15 15 25 15 15 25 15 15 25 15 15 25 255 255 255 15 15 25 15 15 25 15 15 25 15 15 25 15 15 25 15 15 25 15 15 25 15 15 25 15 15 25 15 15 25 15 15 25 15 15 25 15 15 25 15 15 25 15 15 25 15 15 25 15 15 25 15 15 25 15 15 25 15 15 25 15 15 25 15 15 25 15 15 25 15 15 25 15 15 25 15 15 25 15 15 25 15 15 25 15 15 25 15 15 25 15 15 25 15 15 25 15 15 25 15 15 25 15 15 25 15 15 25 15 15 25 15 15 25 15 15 25 15 15 25 15 15 25 15 15 25 15 15 25 15 15 25 15 15 25 15 15 25 15 15 25 15 15 25 15 15 25 255 180 0 255 180 0 255 180 0 255 180 0 255 180 0 255 180 0 15 15 25 15 15 25 15 15 25 15 15 25 15 15 25 15 15 25 15 15 25 15 15 25 15 15 25 15 15 25 15 15 25 15 15 25 15 15 25 15 15 25 15 15 25 15 15 25 15 15 25 15 15 25 15 15 25 15 15 25 15 15 25 15 15 25 15 15 25 15 15 25 15 15 25 15 15 25 15 15 25 15 15 25 15 15 25 15 15 25 15 15 25 15 15 25 15 15 25 15 15 25 15 15 25 15 15 25 15 15 25 15 15 25 15 15 25 15 15 25 15 15 25 15 15 25 15 15 25 15 15 25 15 15 25 15 15 25 15 15 25 15 15 25 15 15 25 15 15 25 15 15 25 15 15 25 15 15 25 15 15 25 15 15 25 15 15 25 15 15 25 15 15 25 15 15 25 15 15 25 15 15 25 15 15 25 15 15 25 15 15 25 15 15 25 15 15 25 15 15 25 15 15 25 15 15 25 15 15 25 15 15 25 15 15 25 15 15 25 15 15 25 15 15 25 15 15 25 15 15 25 15 15 25 15 15 25 15 15 25 15 15 25 15 15 25 15 15 25 15 15 25 15 15 25 15 15 25 15 15 25 15 15 25 15 15 25 15 15 25 15 15 25 15 15 25 15 15 25 15 15 25 255 0 0 255 180 0 15 15 25 15 15 25 15 15 25 15 15 25 15 15 25 15 15 25 15 15 25 15 15 25 15 15 25 15 15 25 15 15 25 15 15 25 15 15 25 15 15 25 15 15 25 15 15 25 15 15 25 15 15 25 15 15 25 15 15 25 15 15 25 15 15 25 15 15 25 15 15 25 15 15 25 15 15 25 15 15 25 15 15 25 15 15 25 15 15 25 15 15 25 15 15 25 15 15 25 15 15 25 
15 15 25 15 15 25 15 15 25 15 15 25 15 15 25 15 15 25 15 15 25 15 15 25 15 15 25 15 15 25 15 15 25 15 15 25 15 15 25 15 15 25 15 15 25 15 15 25 15 15 25 15 15 25 15 15 25 15 15 25 15 15 25 15 15 25 15 15 25 15 15 25 15 15 25 15 15 25 15 15 25 15 15 25 15 15 25 15 15 25 255 255 255 15 15 25 15 15 25 15 15 25 0 255 0 15 15 25 15 15 25 15 15 25 15 15 25 15 15 25 15 15 25 15 15 25 15 15 25 15 15 25 15 15 25 15 15 25 15 15 25 15 15 25 15 15 25 15 15 25 15 15 25 15 15 25 15 15 25 15 15 25 15 15 25 15 15 25 15 15 25 15 15 25 15 15 25 15 15 25 15 15 25 15 15 25 15 15 25 15 15 25 15 15 25 15 15 25 15 15 25 15 15 25 15 15 25 15 15 25 15 15 25 255 255 255 15 15 25 15 15 25 15 15 25 15 15 25 15 15 25 15 15 25 15 15 25 15 15 25 15 15 25 15 15 25 15 15 25 15 15 25 15 15 25 15 15 25 15 15 25 15 15 25 15 15 25 15 15 25 15 15 25 15 15 25 15 15 25 15 15 25 15 15 25 15 15 25 15 15 25 15 15 25 15 15 25 15 15 25 15 15 25 15 15 25 15 15 25 15 15 25 15 15 25 15 15 25 15 15 25 15 15 25 15 15 25 15 15 25 15 15 25 15 15 25 15 15 25 15 15 25 15 15 25 15 15 25 15 15 25 15 15 25 15 15 25 15 15 25 15 15 25 15 15 25 15 15 25 15 15 25 15 15 25 15 15 25 255 180 0 255 180 0 255 180 0 255 180 0 255 180 0 255 180 0 255 180 0 255 180 0 255 180 0 255 180 0 255 180 0 15 15 25 15 15 25 15 15 25 15 15 25 15 15 25 15 15 25 15 15 25 15 15 25 15 15 25 15 15 25 15 15 25 15 15 25 15 15 25 15 15 25 15 15 25 15 15 25 15 15 25 15 15 25 15 15 25 15 15 25 15 15 25 15 15 25 15 15 25 15 15 25 15 15 25 15 15 25 15 15 25 15 15 25 15 15 25 15 15 25 15 15 25 15 15 25 15 15 25 15 15 25 15 15 25 15 15 25 15 15 25 15 15 25 15 15 25 15 15 25 15 15 25 15 15 25 15 15 25 15 15 25 15 15 25 15 15 25 15 15 25 15 15 25 15 15 25 15 15 25 15 15 25 15 15 25 15 15 25 15 15 25 15 15 25 15 15 25 15 15 25 15 15 25 15 15 25 15 15 25 15 15 25 15 15 25 15 15 25 15 15 25 15 15 25 15 15 25 15 15 25 15 15 25 15 15 25 15 15 25 15 15 25 15 15 25 15 15 25 15 15 25 15 15 25 15 15 25 15 15 25 15 15 25 15 15 25 15 15 25 15 15 25 15 15 25 15 15 25 15 15 25 255 0 0 255 180 0 15 15 25 15 15 25 15 15 25 15 15 25 15 15 25 15 15 25 15 15 25 15 15 25 15 15 25 15 15 25 15 15 25 15 15 25 15 15 25 15 15 25 15 15 25 15 15 25 15 15 25 15 15 25 15 15 25 15 15 25 15 15 25 15 15 25 15 15 25 15 15 25 15 15 25 15 15 25 15 15 25 15 15 25 15 15 25 15 15 25 15 15 25 15 15 25 15 15 25 
15 15 25 15 15 25 15 15 25 15 15 25 15 15 25 15 15 25 15 15 25 15 15 25 15 15 25 15 15 25 15 15 25 15 15 25 15 15 25 15 15 25 15 15 25 15 15 25 15 15 25 15 15 25 15 15 25 15 15 25 15 15 25 15 15 25 15 15 25 15 15 25 15 15 25 15 15 25 15 15 25 15 15 25 15 15 25 255 255 255 15 15 25 15 15 25 15 15 25 0 255 0 15 15 25 15 15 25 15 15 25 15 15 25 15 15 25 15 15 25 15 15 25 15 15 25 15 15 25 15 15 25 15 15 25 15 15 25 15 15 25 15 15 25 15 15 25 15 15 25 15 15 25 15 15 25 15 15 25 15 15 25 15 15 25 15 15 25 15 15 25 15 15 25 15 15 25 15 15 25 15 15 25 15 15 25 15 15 25 15 15 25 15 15 25 15 15 25 15 15 25 15 15 25 15 15 25 15 15 25 15 15 25 255 255 255 15 15 25 15 15 25 15 15 25 15 15 25 15 15 25 15 15 25 15 15 25 15 15 25 15 15 25 15 15 25 15 15 25 15 15 25 15 15 25 15 15 25 15 15 25 15 15 25 15 15 25 15 15 25 15 15 25 15 15 25 15 15 25 15 15 25 15 15 25 15 15 25 15 15 25 15 15 25 15 15 25 15 15 25 15 15 25 15 15 25 15 15 25 15 15 25 15 15 25 15 15 25 15 15 25 15 15 25 15 15 25 15 15 25 15 15 25 15 15 25 15 15 25 15 15 25 15 15 25 15 15 25 15 15 25 15 15 25 15 15 25 15 15 25 15 15 25 15 15 25 15 15 25 15 15 25 15 15 25 15 15 25 15 15 25 15 15 25 15 15 25 15 15 25 15 15 25 15 15 25 15 15 25 15 15 25 15 15 25 15 15 25 15 15 25 255 180 0 255 180 0 255 180 0 255 180 0 255 180 0 255 180 0 255 180 0 255 180 0 255 180 0 255 180 0 255 180 0 15 15 25 15 15 25 15 15 25 15 15 25 15 15 25 15 15 25 15 15 25 15 15 25 15 15 25 15 15 25 15 15 25 15 15 25 15 15 25 15 15 25 15 15 25 15 15 25 15 15 25 15 15 25 15 15 25 15 15 25 15 15 25 15 15 25 15 15 25 15 15 25 15 15 25 15 15 25 15 15 25 15 15 25 15 15 25 15 15 25 15 15 25 15 15 25 15 15 25 15 15 25 15 15 25 15 15 25 15 15 25 15 15 25 15 15 25 15 15 25 15 15 25 15 15 25 15 15 25 15 15 25 15 15 25 15 15 25 15 15 25 15 15 25 15 15 25 15 15 25 15 15 25 15 15 25 15 15 25 15 15 25 15 15 25 15 15 25 15 15 25 15 15 25 15 15 25 15 15 25 15 15 25 15 15 25 15 15 25 15 15 25 15 15 25 15 15 25 15 15 25 15 15 25 15 15 25 15 15 25 15 15 25 15 15 25 15 15 25 15 15 25 255 0 0 255 180 0 15 15 25 15 15 25 15 15 25 15 15 25 15 15 25 15 15 25 15 15 25 15 15 25 15 15 25 15 15 25 15 15 25 15 15 25 15 15 25 15 15 25 15 15 25 15 15 25 15 15 25 15 15 25 15 15 25 15 15 25 15 15 25 15 15 25 15 15 25 15 15 25 15 15 25 15 15 25 15 15 25 15 15 25 15 15 25 15 15 25 15 15 25 15 15 25 
15 15 25 15 15 25 15 15 25 15 15 25 15 15 25 15 15 25 15 15 25 15 15 25 15 15 25 15 15 25 15 15 25 15 15 25 15 15 25 15 15 25 15 15 25 15 15 25 15 15 25 15 15 25 15 15 25 15 15 25 15 15 25 15 15 25 15 15 25 15 15 25 15 15 25 15 15 25 15 15 25 15 15 25 15 15 25 255 255 255 15 15 25 15 15 25 0 255 0 15 15 25 15 15 25 15 15 25 15 15 25 15 15 25 15 15 25 15 15 25 15 15 25 15 15 25 15 15 25 15 15 25 15 15 25 15 15 25 15 15 25 15 15 25 15 15 25 15 15 25 15 15 25 15 15 25 15 15 25 15 15 25 15 15 25 15 15 25 15 15 25 15 15 25 15 15 25 15 15 25 15 15 25 15 15 25 15 15 25 15 15 25 15 15 25 15 15 25 15 15 25 15 15 25 15 15 25 15 15 25 15 15 25 15 15 25 255 255 255 15 15 25 15 15 25 15 15 25 15 15 25 15 15 25 15 15 25 15 15 25 15 15 25 15 15 25 15 15 25 15 15 25 15 15 25 15 15 25 15 15 25 15 15 25 15 15 25 15 15 25 15 15 25 15 15 25 15 15 25 15 15 25 15 15 25 15 15 25 15 15 25 15 15 25 15 15 25 15 15 25 15 15 25 15 15 25 15 15 25 15 15 25 15 15 25 15 15 25 15 15 25 15 15 25 15 15 25 15 15 25 15 15 25 15 15 25 15 15 25 15 15 25 15 15 25 15 15 25 15 15 25 15 15 25 15 15 25 15 15 25 15 15 25 15 15 25 15 15 25 15 15 25 15 15 25 15 15 25 15 15 25 15 15 25 15 15 25 15 15 25 15 15 25 15 15 25 15 15 25 15 15 25 15 15 25 15 15 25 15 15 25 15 15 25 15 15 25 15 15 25 15 15 25 15 15 25 15 15 25 15 15 25 15 15 25 15 15 25 15 15 25 15 15 25 255 180 0 255 180 0 255 180 0 255 180 0 255 180 0 255 180 0 255 180 0 255 180 0 255 180 0 255 180 0 255 180 0 15 15 25 15 15 25 15 15 25 15 15 25 15 15 25 15 15 25 15 15 25 15 15 25 15 15 25 15 15 25 15 15 25 15 15 25 15 15 25 15 15 25 15 15 25 15 15 25 15 15 25 15 15 25 15 15 25 15 15 25 15 15 25 15 15 25 15 15 25 15 15 25 15 15 25 15 15 25 15 15 25 15 15 25 15 15 25 15 15 25 15 15 25 15 15 25 15 15 25 15 15 25 15 15 25 15 15 25 15 15 25 15 15 25 15 15 25 15 15 25 15 15 25 15 15 25 15 15 25 15 15 25 15 15 25 15 15 25 15 15 25 15 15 25 15 15 25 15 15 25 15 15 25 15 15 25 15 15 25 15 15 25 15 15 25 15 15 25 15 15 25 15 15 25 15 15 25 15 15 25 15 15 25 15 15 25 15 15 25 15 15 25 255 0 0 255 180 0 15 15 25 15 15 25 15 15 25 15 15 25 15 15 25 15 15 25 15 15 25 15 15 25 15 15 25 15 15 25 15 15 25 15 15 25 15 15 25 15 15 25 15 15 25 15 15 25 15 15 25 15 15 25 15 15 25 15 15 25 15 15 25 15 15 25 15 15 25 15 15 25 15 15 25 15 15 25 15 15 25 15 15 25 15 15 25 15 15 25 15 15 25 
15 15 25 15 15 25 15 15 25 15 15 25 15 15 25 15 15 25 15 15 25 15 15 25 15 15 25 15 15 25 15 15 25 15 15 25 15 15 25 15 15 25 15 15 25 15 15 25 15 15 25 15 15 25 15 15 25 15 15 25 15 15 25 15 15 25 15 15 25 15 15 25 15 15 25 15 15 25 15 15 25 15 15 25 255 255 255 15 15 25 15 15 25 0 255 0 15 15 25 15 15 25 15 15 25 15 15 25 15 15 25 15 15 25 15 15 25 15 15 25 15 15 25 15 15 25 15 15 25 15 15 25 15 15 25 15 15 25 15 15 25 15 15 25 15 15 25 15 15 25 15 15 25 15 15 25 15 15 25 15 15 25 15 15 25 15 15 25 15 15 25 15 15 25 15 15 25 15 15 25 15 15 25 15 15 25 15 15 25 15 15 25 15 15 25 15 15 25 15 15 25 15 15 25 15 15 25 15 15 25 15 15 25 15 15 25 255 255 255 15 15 25 15 15 25 15 15 25 15 15 25 15 15 25 15 15 25 15 15 25 15 15 25 15 15 25 15 15 25 15 15 25 15 15 25 15 15 25 15 15 25 15 15 25 15 15 25 15 15 25 15 15 25 15 15 25 15 15 25 15 15 25 15 15 25 15 15 25 15 15 25 15 15 25 15 15 25 15 15 25 15 15 25 15 15 25 15 15 25 15 15 25 15 15 25 15 15 25 15 15 25 15 15 25 15 15 25 15 15 25 15 15 25 15 15 25 15 15 25 15 15 25 15 15 25 15 15 25 15 15 25 15 15 25 15 15 25 15 15 25 15 15 25 15 15 25 15 15 25 15 15 25 15 15 25 15 15 25 15 15 25 15 15 25 15 15 25 15 15 25 15 15 25 15 15 25 15 15 25 15 15 25 15 15 25 15 15 25 15 15 25 15 15 25 15 15 25 15 15 25 15 15 25 15 15 25 15 15 25 15 15 25 15 15 25 15 15 25 15 15 25 15 15 25 15 15 25 15 15 25 15 15 25 15 15 25 15 15 25 15 15 25 15 15 25 15 15 25 15 15 25 15 15 25 15 15 25 255 180 0 255 180 0 255 180 0 255 180 0 255 180 0 255 180 0 255 180 0 255 180 0 255 180 0 255 180 0 255 180 0 15 15 25 15 15 25 15 15 25 15 15 25 15 15 25 15 15 25 15 15 25 15 15 25 15 15 25 15 15 25 15 15 25 15 15 25 15 15 25 15 15 25 15 15 25 15 15 25 15 15 25 15 15 25 15 15 25 15 15 25 15 15 25 15 15 25 15 15 25 15 15 25 15 15 25 15 15 25 15 15 25 15 15 25 15 15 25 15 15 25 15 15 25 15 15 25 15 15 25 15 15 25 15 15 25 15 15 25 15 15 25 15 15 25 15 15 25 15 15 25 15 15 25 15 15 25 15 15 25 15 15 25 15 15 25 15 15 25 15 15 25 15 15 25 15 15 25 15 15 25 15 15 25 15 15 25 15 15 25 15 15 25 255 0 0 255 180 0 15 15 25 15 15 25 15 15 25 15 15 25 15 15 25 15 15 25 15 15 25 15 15 25 15 15 25 15 15 25 15 15 25 15 15 25 15 15 25 15 15 25 15 15 25 15 15 25 15 15 25 15 15 25 15 15 25 15 15 25 15 15 25 15 15 25 15 15 25 15 15 25 15 15 25 15 15 25 15 15 25 15 15 25 15 15 25 15 15 25 
15 15 25 15 15 25 15 15 25 15 15 25 15 15 25 15 15 25 15 15 25 15 15 25 15 15 25 15 15 25 15 15 25 15 15 25 15 15 25 15 15 25 15 15 25 15 15 25 15 15 25 15 15 25 15 15 25 15 15 25 15 15 25 15 15 25 15 15 25 15 15 25 15 15 25 15 15 25 15 15 25 15 15 25 255 255 255 15 15 25 0 255 0 15 15 25 15 15 25 15 15 25 15 15 25 15 15 25 15 15 25 15 15 25 15 15 25 15 15 25 15 15 25 15 15 25 15 15 25 15 15 25 15 15 25 15 15 25 15 15 25 15 15 25 15 15 25 15 15 25 15 15 25 15 15 25 15 15 25 15 15 25 15 15 25 15 15 25 15 15 25 15 15 25 15 15 25 15 15 25 15 15 25 15 15 25 15 15 25 15 15 25 15 15 25 15 15 25 15 15 25 15 15 25 15 15 25 15 15 25 15 15 25 15 15 25 15 15 25 255 255 255 15 15 25 15 15 25 15 15 25 15 15 25 15 15 25 15 15 25 15 15 25 15 15 25 15 15 25 15 15 25 15 15 25 15 15 25 15 15 25 15 15 25 15 15 25 15 15 25 15 15 25 15 15 25 15 15 25 15 15 25 15 15 25 15 15 25 15 15 25 15 15 25 15 15 25 15 15 25 15 15 25 15 15 25 15 15 25 15 15 25 15 15 25 15 15 25 15 15 25 15 15 25 15 15 25 15 15 25 15 15 25 15 15 25 15 15 25 15 15 25 15 15 25 15 15 25 15 15 25 15 15 25 15 15 25 15 15 25 15 15 25 15 15 25 15 15 25 15 15 25 15 15 25 15 15 25 15 15 25 15 15 25 15 15 25 15 15 25 15 15 25 15 15 25 15 15 25 15 15 25 15 15 25 15 15 25 15 15 25 15 15 25 15 15 25 15 15 25 15 15 25 15 15 25 15 15 25 15 15 25 15 15 25 15 15 25 15 15 25 15 15 25 15 15 25 15 15 25 15 15 25 15 15 25 15 15 25 15 15 25 15 15 25 15 15 25 15 15 25 15 15 25 15 15 25 15 15 25 15 15 25 15 15 25 15 15 25 15 15 25 15 15 25 15 15 25 15 15 25 15 15 25 15 15 25 15 15 25 255 180 0 255 180 0 255 180 0 255 180 0 255 180 0 255 180 0 255 180 0 255 180 0 255 180 0 255 180 0 255 180 0 15 15 25 15 15 25 15 15 25 15 15 25 15 15 25 15 15 25 15 15 25 15 15 25 15 15 25 15 15 25 15 15 25 15 15 25 15 15 25 15 15 25 15 15 25 15 15 25 15 15 25 15 15 25 15 15 25 15 15 25 15 15 25 15 15 25 15 15 25 15 15 25 15 15 25 15 15 25 15 15 25 15 15 25 15 15 25 15 15 25 15 15 25 15 15 25 15 15 25 15 15 25 15 15 25 15 15 25 15 15 25 15 15 25 15 15 25 15 15 25 15 15 25 15 15 25 15 15 25 15 15 25 255 0 0 255 180 0 15 15 25 15 15 25 15 15 25 15 15 25 15 15 25 15 15 25 15 15 25 15 15 25 15 15 25 15 15 25 15 15 25 15 15 25 15 15 25 15 15 25 15 15 25 15 15 25 15 15 25 15 15 25 15 15 25 15 15 25 15 15 25 15 15 25 15 15 25 15 15 25 15 15 25 15 15 25 15 15 25 15 15 25 15 15 25 
15 15 25 15 15 25 15 15 25 15 15 25 15 15 25 15 15 25 15 15 25 15 15 25 15 15 25 15 15 25 15 15 25 15 15 25 15 15 25 15 15 25 15 15 25 15 15 25 15 15 25 15 15 25 15 15 25 15 15 25 15 15 25 15 15 25 15 15 25 15 15 25 15 15 25 15 15 25 15 15 25 255 255 255 15 15 25 0 255 0 15 15 25 15 15 25 15 15 25 15 15 25 15 15 25 15 15 25 15 15 25 15 15 25 15 15 25 15 15 25 15 15 25 15 15 25 15 15 25 15 15 25 15 15 25 15 15 25 15 15 25 15 15 25 15 15 25 15 15 25 15 15 25 15 15 25 15 15 25 15 15 25 15 15 25 15 15 25 15 15 25 15 15 25 15 15 25 15 15 25 15 15 25 15 15 25 15 15 25 15 15 25 15 15 25 15 15 25 15 15 25 15 15 25 15 15 25 15 15 25 15 15 25 15 15 25 15 15 25 255 255 255 15 15 25 15 15 25 15 15 25 15 15 25 15 15 25 15 15 25 15 15 25 15 15 25 15 15 25 15 15 25 15 15 25 15 15 25 15 15 25 15 15 25 15 15 25 15 15 25 15 15 25 15 15 25 15 15 25 15 15 25 15 15 25 15 15 25 15 15 25 15 15 25 15 15 25 15 15 25 15 15 25 15 15 25 15 15 25 15 15 25 15 15 25 15 15 25 15 15 25 15 15 25 15 15 25 15 15 25 15 15 25 15 15 25 15 15 25 15 15 25 15 15 25 15 15 25 15 15 25 15 15 25 15 15 25 15 15 25 15 15 25 15 15 25 15 15 25 15 15 25 15 15 25 15 15 25 15 15 25 15 15 25 15 15 25 15 15 25 15 15 25 15 15 25 15 15 25 15 15 25 15 15 25 15 15 25 15 15 25 15 15 25 15 15 25 15 15 25 15 15 25 15 15 25 15 15 25 15 15 25 15 15 25 15 15 25 15 15 25 15 15 25 15 15 25 15 15 25 15 15 25 15 15 25 15 15 25 15 15 25 15 15 25 15 15 25 15 15 25 15 15 25 15 15 25 15 15 25 15 15 25 15 15 25 15 15 25 15 15 25 15 15 25 15 15 25 15 15 25 15 15 25 15 15 25 15 15 25 15 15 25 15 15 25 15 15 25 15 15 25 15 15 25 15 15 25 15 15 25 15 15 25 15 15 25 15 15 25 15 15 25 255 180 0 255 180 0 255 180 0 255 180 0 255 180 0 255 180 0 255 180 0 255 180 0 255 180 0 255 180 0 255 180 0 15 15 25 15 15 25 15 15 25 15 15 25 15 15 25 15 15 25 15 15 25 15 15 25 15 15 25 15 15 25 15 15 25 15 15 25 15 15 25 15 15 25 15 15 25 15 15 25 15 15 25 15 15 25 15 15 25 15 15 25 15 15 25 15 15 25 15 15 25 15 15 25 15 15 25 15 15 25 15 15 25 15 15 25 15 15 25 15 15 25 15 15 25 15 15 25 15 15 25 15 15 25 255 0 0 255 180 0 15 15 25 15 15 25 15 15 25 15 15 25 15 15 25 15 15 25 15 15 25 15 15 25 15 15 25 15 15 25 15 15 25 15 15 25 15 15 25 15 15 25 15 15 25 15 15 25 15 15 25 15 15 25 15 15 25 15 15 25 15 15 25 15 15 25 15 15 25 15 15 25 15 15 25 15 15 25 15 15 25 15 15 25 
15 15 25 15 15 25 15 15 25 15 15 25 15 15 25 15 15 25 15 15 25 15 15 25 15 15 25 15 15 25 15 15 25 15 15 25 15 15 25 15 15 25 15 15 25 15 15 25 15 15 25 15 15 25 15 15 25 15 15 25 15 15 25 15 15 25 15 15 25 15 15 25 15 15 25 15 15 25 15 15 25 255 255 255 0 255 0 15 15 25 15 15 25 15 15 25 15 15 25 15 15 25 15 15 25 15 15 25 15 15 25 15 15 25 15 15 25 15 15 25 15 15 25 15 15 25 15 15 25 15 15 25 15 15 25 15 15 25 15 15 25 15 15 25 15 15 25 15 15 25 15 15 25 15 15 25 15 15 25 15 15 25 15 15 25 15 15 25 15 15 25 15 15 25 15 15 25 15 15 25 15 15 25 15 15 25 15 15 25 15 15 25 15 15 25 15 15 25 15 15 25 15 15 25 15 15 25 15 15 25 15 15 25 15 15 25 15 15 25 15 15 25 255 255 255 15 15 25 15 15 25 15 15 25 15 15 25 15 15 25 15 15 25 15 15 25 15 15 25 15 15 25 15 15 25 15 15 25 15 15 25 15 15 25 15 15 25 15 15 25 15 15 25 15 15 25 15 15 25 15 15 25 15 15 25 15 15 25 15 15 25 15 15 25 15 15 25 15 15 25 15 15 25 15 15 25 15 15 25 15 15 25 15 15 25 15 15 25 15 15 25 15 15 25 15 15 25 15 15 25 15 15 25 15 15 25 15 15 25 15 15 25 15 15 25 15 15 25 15 15 25 15 15 25 15 15 25 15 15 25 15 15 25 15 15 25 15 15 25 15 15 25 15 15 25 15 15 25 15 15 25 15 15 25 15 15 25 15 15 25 15 15 25 15 15 25 15 15 25 15 15 25 15 15 25 15 15 25 15 15 25 15 15 25 15 15 25 15 15 25 15 15 25 15 15 25 15 15 25 15 15 25 15 15 25 15 15 25 15 15 25 15 15 25 15 15 25 15 15 25 15 15 25 15 15 25 15 15 25 15 15 25 15 15 25 15 15 25 15 15 25 15 15 25 15 15 25 15 15 25 15 15 25 15 15 25 15 15 25 15 15 25 15 15 25 15 15 25 15 15 25 15 15 25 15 15 25 15 15 25 15 15 25 15 15 25 15 15 25 15 15 25 15 15 25 15 15 25 15 15 25 15 15 25 15 15 25 15 15 25 15 15 25 15 15 25 15 15 25 15 15 25 15 15 25 15 15 25 15 15 25 15 15 25 15 15 25 15 15 25 15 15 25 15 15 25 255 180 0 255 180 0 255 180 0 255 180 0 255 180 0 255 180 0 255 180 0 255 180 0 255 180 0 255 180 0 255 180 0 15 15 25 15 15 25 15 15 25 15 15 25 15 15 25 15 15 25 15 15 25 15 15 25 15 15 25 15 15 25 15 15 25 15 15 25 15 15 25 15 15 25 15 15 25 15 15 25 15 15 25 15 15 25 15 15 25 15 15 25 15 15 25 15 15 25 15 15 25 15 15 25 255 180 0 15 15 25 15 15 25 15 15 25 15 15 25 15 15 25 15 15 25 15 15 25 15 15 25 15 15 25 15 15 25 15 15 25 15 15 25 15 15 25 15 15 25 15 15 25 15 15 25 15 15 25 15 15 25 15 15 25 15 15 25 15 15 25 15 15 25 15 15 25 15 15 25 15 15 25 15 15 25 15 15 25 15 15 25 
15 15 25 15 15 25 15 15 25 15 15 25 15 15 25 15 15 25 15 15 25 15 15 25 15 15 25 15 15 25 15 15 25 15 15 25 15 15 25 15 15 25 15 15 25 15 15 25 15 15 25 15 15 25 15 15 25 15 15 25 15 15 25 15 15 25 15 15 25 15 15 25 15 15 25 15 15 25 255 255 255 0 255 0 15 15 25 15 15 25 15 15 25 15 15 25 15 15 25 15 15 25 15 15 25 15 15 25 15 15 25 15 15 25 15 15 25 15 15 25 15 15 25 15 15 25 15 15 25 15 15 25 15 15 25 15 15 25 15 15 25 15 15 25 15 15 25 15 15 25 15 15 25 15 15 25 15 15 25 15 15 25 15 15 25 15 15 25 15 15 25 15 15 25 15 15 25 15 15 25 15 15 25 15 15 25 15 15 25 15 15 25 15 15 25 15 15 25 15 15 25 15 15 25 15 15 25 15 15 25 15 15 25 15 15 25 15 15 25 15 15 25 255 255 255 15 15 25 15 15 25 15 15 25 15 15 25 15 15 25 15 15 25 15 15 25 15 15 25 15 15 25 15 15 25 15 15 25 15 15 25 15 15 25 15 15 25 15 15 25 15 15 25 15 15 25 15 15 25 15 15 25 15 15 25 15 15 25 15 15 25 15 15 25 15 15 25 15 15 25 15 15 25 15 15 25 15 15 25 15 15 25 15 15 25 15 15 25 15 15 25 15 15 25 15 15 25 15 15 25 15 15 25 15 15 25 15 15 25 15 15 25 15 15 25 15 15 25 15 15 25 15 15 25 15 15 25 15 15 25 15 15 25 15 15 25 15 15 25 15 15 25 15 15 25 15 15 25 15 15 25 15 15 25 15 15 25 15 15 25 15 15 25 15 15 25 15 15 25 15 15 25 15 15 25 15 15 25 15 15 25 15 15 25 15 15 25 15 15 25 15 15 25 15 15 25 15 15 25 15 15 25 15 15 25 15 15 25 15 15 25 15 15 25 15 15 25 15 15 25 15 15 25 15 15 25 15 15 25 15 15 25 15 15 25 15 15 25 15 15 25 15 15 25 15 15 25 15 15 25 15 15 25 15 15 25 15 15 25 15 15 25 15 15 25 15 15 25 15 15 25 15 15 25 15 15 25 15 15 25 15 15 25 15 15 25 15 15 25 15 15 25 15 15 25 15 15 25 15 15 25 15 15 25 15 15 25 15 15 25 15 15 25 15 15 25 15 15 25 15 15 25 15 15 25 15 15 25 15 15 25 15 15 25 15 15 25 15 15 25 15 15 25 15 15 25 15 15 25 15 15 25 15 15 25 15 15 25 15 15 25 15 15 25 15 15 25 15 15 25 15 15 25 15 15 25 15 15 25 255 180 0 255 180 0 255 180 0 255 180 0 255 180 0 255 180 0 255 180 0 255 180 0 255 180 0 255 180 0 255 180 0 15 15 25 15 15 25 15 15 25 15 15 25 15 15 25 15 15 25 15 15 25 15 15 25 15 15 25 15 15 25 15 15 25 15 15 25 15 15 25 15 15 25 255 180 0 15 15 25 15 15 25 15 15 25 15 15 25 15 15 25 15 15 25 15 15 25 15 15 25 15 15 25 15 15 25 15 15 25 15 15 25 15 15 25 15 15 25 15 15 25 15 15 25 15 15 25 15 15 25 15 15 25 15 15 25 15 15 25 15 15 25 15 15 25 15 15 25 15 15 25 15 15 25 15 15 25 
15 15 25 15 15 25 15 15 25 15 15 25 15 15 25 15 15 25 15 15 25 15 15 25 15 15 25 15 15 25 15 15 25 15 15 25 15 15 25 15 15 25 15 15 25 15 15 25 15 15 25 15 15 25 15 15 25 15 15 25 15 15 25 15 15 25 15 15 25 15 15 25 15 15 25 15 15 25 255 255 255 15 15 25 15 15 25 15 15 25 15 15 25 15 15 25 15 15 25 15 15 25 15 15 25 15 15 25 15 15 25 15 15 25 15 15 25 15 15 25 15 15 25 15 15 25 15 15 25 15 15 25 15 15 25 15 15 25 15 15 25 15 15 25 15 15 25 15 15 25 15 15 25 15 15 25 15 15 25 15 15 25 15 15 25 15 15 25 15 15 25 15 15 25 15 15 25 15 15 25 15 15 25 15 15 25 15 15 25 15 15 25 15 15 25 15 15 25 15 15 25 15 15 25 15 15 25 15 15 25 15 15 25 15 15 25 15 15 25 15 15 25 15 15 25 255 255 255 15 15 25 15 15 25 15 15 25 15 15 25 15 15 25 15 15 25 15 15 25 15 15 25 15 15 25 15 15 25 15 15 25 15 15 25 15 15 25 15 15 25 15 15 25 15 15 25 15 15 25 15 15 25 15 15 25 15 15 25 15 15 25 15 15 25 15 15 25 15 15 25 15 15 25 15 15 25 15 15 25 15 15 25 15 15 25 15 15 25 15 15 25 15 15 25 15 15 25 15 15 25 15 15 25 15 15 25 15 15 25 15 15 25 15 15 25 15 15 25 15 15 25 15 15 25 15 15 25 15 15 25 15 15 25 15 15 25 15 15 25 15 15 25 15 15 25 15 15 25 15 15 25 15 15 25 15 15 25 15 15 25 15 15 25 15 15 25 15 15 25 15 15 25 15 15 25 15 15 25 15 15 25 15 15 25 15 15 25 15 15 25 15 15 25 15 15 25 15 15 25 15 15 25 15 15 25 15 15 25 15 15 25 15 15 25 15 15 25 15 15 25 15 15 25 15 15 25 15 15 25 15 15 25 15 15 25 15 15 25 15 15 25 15 15 25 15 15 25 15 15 25 15 15 25 15 15 25 15 15 25 15 15 25 15 15 25 15 15 25 15 15 25 15 15 25 15 15 25 15 15 25 15 15 25 15 15 25 15 15 25 15 15 25 15 15 25 15 15 25 15 15 25 15 15 25 15 15 25 15 15 25 15 15 25 15 15 25 15 15 25 15 15 25 15 15 25 15 15 25 15 15 25 15 15 25 15 15 25 15 15 25 15 15 25 15 15 25 15 15 25 15 15 25 15 15 25 15 15 25 15 15 25 15 15 25 15 15 25 15 15 25 15 15 25 15 15 25 15 15 25 15 15 25 15 15 25 15 15 25 15 15 25 15 15 25 15 15 25 15 15 25 15 15 25 15 15 25 15 15 25 15 15 25 255 180 0 255 180 0 255 180 0 255 180 0 255 180 0 255 180 0 255 180 0 255 180 0 255 180 0 255 180 0 255 180 0 15 15 25 15 15 25 15 15 25 15 15 25 255 180 0 15 15 25 15 15 25 15 15 25 15 15 25 15 15 25 15 15 25 15 15 25 15 15 25 15 15 25 15 15 25 15 15 25 15 15 25 15 15 25 15 15 25 15 15 25 15 15 25 15 15 25 15 15 25 15 15 25 15 15 25 15 15 25 15 15 25 15 15 25 15 15 25 15 15 25 15 15 25 
15 15 25 15 15 25 15 15 25 15 15 25 15 15 25 15 15 25 15 15 25 15 15 25 15 15 25 15 15 25 15 15 25 15 15 25 15 15 25 15 15 25 15 15 25 15 15 25 15 15 25 15 15 25 15 15 25 15 15 25 15 15 25 15 15 25 15 15 25 15 15 25 15 15 25 255 255 255 15 15 25 15 15 25 15 15 25 15 15 25 15 15 25 15 15 25 15 15 25 15 15 25 15 15 25 15 15 25 15 15 25 15 15 25 15 15 25 15 15 25 15 15 25 15 15 25 15 15 25 15 15 25 15 15 25 15 15 25 15 15 25 15 15 25 15 15 25 15 15 25 15 15 25 15 15 25 15 15 25 15 15 25 15 15 25 15 15 25 15 15 25 15 15 25 15 15 25 15 15 25 15 15 25 15 15 25 15 15 25 15 15 25 15 15 25 15 15 25 15 15 25 15 15 25 15 15 25 15 15 25 15 15 25 15 15 25 15 15 25 15 15 25 15 15 25 255 255 255 15 15 25 15 15 25 15 15 25 15 15 25 15 15 25 15 15 25 15 15 25 15 15 25 15 15 25 15 15 25 15 15 25 15 15 25 15 15 25 15 15 25 15 15 25 15 15 25 15 15 25 15 15 25 15 15 25 15 15 25 15 15 25 15 15 25 15 15 25 15 15 25 15 15 25 15 15 25 15 15 25 15 15 25 15 15 25 15 15 25 15 15 25 15 15 25 15 15 25 15 15 25 15 15 25 15 15 25 15 15 25 15 15 25 15 15 25 15 15 25 15 15 25 15 15 25 15 15 25 15 15 25 15 15 25 15 15 25 15 15 25 15 15 25 15 15 25 15 15 25 15 15 25 15 15 25 15 15 25 15 15 25 15 15 25 15 15 25 15 15 25 15 15 25 15 15 25 15 15 25 15 15 25 15 15 25 15 15 25 15 15 25 15 15 25 15 15 25 15 15 25 15 15 25 15 15 25 15 15 25 15 15 25 15 15 25 15 15 25 15 15 25 15 15 25 15 15 25 15 15 25 15 15 25 15 15 25 15 15 25 15 15 25 15 15 25 15 15 25 15 15 25 15 15 25 15 15 25 15 15 25 15 15 25 15 15 25 15 15 25 15 15 25 15 15 25 15 15 25 15 15 25 15 15 25 15 15 25 15 15 25 15 15 25 15 15 25 15 15 25 15 15 25 15 15 25 15 15 25 15 15 25 15 15 25 15 15 25 15 15 25 15 15 25 15 15 25 15 15 25 15 15 25 15 15 25 15 15 25 15 15 25 15 15 25 15 15 25 15 15 25 15 15 25 15 15 25 15 15 25 15 15 25 15 15 25 15 15 25 15 15 25 15 15 25 15 15 25 15 15 25 15 15 25 15 15 25 15 15 25 15 15 25 15 15 25 15 15 25 15 15 25 15 15 25 15 15 25 15 15 25 15 15 25 15 15 25 15 15 25 15 15 25 15 15 25 15 15 25 15 15 25 15 15 25 15 15 25 15 15 25 15 15 25 15 15 25 255 180 0 255 180 0 255 180 0 255 180 0 255 180 0 255 180 0 15 15 25 15 15 25 15 15 25 15 15 25 15 15 25 15 15 25 15 15 25 15 15 25 15 15 25 15 15 25 15 15 25 15 15 25 15 15 25 15 15 25 15 15 25 15 15 25 15 15 25 15 15 25 15 15 25 15 15 25 15 15 25 15 15 25 15 15 25 15 15 25 15 15 25 
15 15 25 15 15 25 15 15 25 15 15 25 15 15 25 15 15 25 15 15 25 15 15 25 15 15 25 15 15 25 15 15 25 15 15 25 15 15 25 15 15 25 15 15 25 15 15 25 15 15 25 15 15 25 15 15 25 15 15 25 15 15 25 15 15 25 15 15 25 15 15 25 0 255 0 255 255 255 15 15 25 15 15 25 15 15 25 15 15 25 15 15 25 15 15 25 15 15 25 15 15 25 15 15 25 15 15 25 15 15 25 15 15 25 15 15 25 15 15 25 15 15 25 15 15 25 15 15 25 15 15 25 15 15 25 15 15 25 15 15 25 15 15 25 15 15 25 15 15 25 15 15 25 15 15 25 15 15 25 15 15 25 15 15 25 15 15 25 15 15 25 15 15 25 15 15 25 15 15 25 15 15 25 15 15 25 15 15 25 15 15 25 15 15 25 15 15 25 15 15 25 15 15 25 15 15 25 15 15 25 15 15 25 15 15 25 15 15 25 15 15 25 15 15 25 15 15 25 255 255 255 15 15 25 15 15 25 15 15 25 15 15 25 15 15 25 15 15 25 15 15 25 15 15 25 15 15 25 15 15 25 15 15 25 15 15 25 15 15 25 15 15 25 15 15 25 15 15 25 15 15 25 15 15 25 15 15 25 15 15 25 15 15 25 15 15 25 15 15 25 15 15 25 15 15 25 15 15 25 15 15 25 15 15 25 15 15 25 15 15 25 15 15 25 15 15 25 15 15 25 15 15 25 15 15 25 15 15 25 15 15 25 15 15 25 15 15 25 15 15 25 15 15 25 15 15 25 15 15 25 15 15 25 15 15 25 15 15 25 15 15 25 15 15 25 15 15 25 15 15 25 15 15 25 15 15 25 15 15 25 15 15 25 15 15 25 15 15 25 15 15 25 15 15 25 15 15 25 15 15 25 15 15 25 15 15 25 15 15 25 15 15 25 15 15 25 15 15 25 15 15 25 15 15 25 15 15 25 15 15 25 15 15 25 15 15 25 15 15 25 15 15 25 15 15 25 15 15 25 15 15 25 15 15 25 15 15 25 15 15 25 15 15 25 15 15 25 15 15 25 15 15 25 15 15 25 15 15 25 15 15 25 15 15 25 15 15 25 15 15 25 15 15 25 15 15 25 15 15 25 15 15 25 15 15 25 15 15 25 15 15 25 15 15 25 15 15 25 15 15 25 15 15 25 15 15 25 15 15 25 15 15 25 15 15 25 15 15 25 15 15 25 15 15 25 15 15 25 15 15 25 15 15 25 15 15 25 15 15 25 15 15 25 15 15 25 15 15 25 15 15 25 15 15 25 15 15 25 15 15 25 15 15 25 15 15 25 15 15 25 15 15 25 15 15 25 15 15 25 15 15 25 15 15 25 15 15 25 15 15 25 15 15 25 15 15 25 15 15 25 15 15 25 15 15 25 15 15 25 15 15 25 15 15 25 15 15 25 15 15 25 15 15 25 15 15 25 15 15 25 15 15 25 15 15 25 15 15 25 15 15 25 15 15 25 15 15 25 15 15 25 15 15 25 15 15 25 15 15 25 15 15 25 255 0 0 15 15 25 15 15 25 15 15 25 15 15 25 15 15 25 15 15 25 15 15 25 15 15 25 15 15 25 15 15 25 15 15 25 15 15 25 15 15 25 15 15 25 15 15 25 15 15 25 15 15 25 15 15 25 15 15 25 15 15 25 15 15 25 15 15 25 15 15 25 15 15 25 
15 15 25 15 15 25 15 15 25 15 15 25 15 15 25 15 15 25 15 15 25 15 15 25 15 15 25 15 15 25 15 15 25 15 15 25 15 15 25 15 15 25 15 15 25 15 15 25 15 15 25 15 15 25 15 15 25 15 15 25 15 15 25 15 15 25 15 15 25 0 255 0 255 255 255 15 15 25 15 15 25 15 15 25 15 15 25 15 15 25 15 15 25 15 15 25 15 15 25 15 15 25 15 15 25 15 15 25 15 15 25 15 15 25 15 15 25 15 15 25 15 15 25 15 15 25 15 15 25 15 15 25 15 15 25 15 15 25 15 15 25 15 15 25 15 15 25 15 15 25 15 15 25 15 15 25 15 15 25 15 15 25 15 15 25 15 15 25 15 15 25 15 15 25 15 15 25 15 15 25 15 15 25 15 15 25 15 15 25 15 15 25 15 15 25 15 15 25 15 15 25 15 15 25 15 15 25 15 15 25 15 15 25 15 15 25 15 15 25 15 15 25 15 15 25 15 15 25 255 255 255 15 15 25 15 15 25 15 15 25 15 15 25 15 15 25 15 15 25 15 15 25 15 15 25 15 15 25 15 15 25 15 15 25 15 15 25 15 15 25 15 15 25 15 15 25 15 15 25 15 15 25 15 15 25 15 15 25 15 15 25 15 15 25 15 15 25 15 15 25 15 15 25 15 15 25 15 15 25 15 15 25 15 15 25 15 15 25 15 15 25 15 15 25 15 15 25 15 15 25 15 15 25 15 15 25 15 15 25 15 15 25 15 15 25 15 15 25 15 15 25 15 15 25 15 15 25 15 15 25 15 15 25 15 15 25 15 15 25 15 15 25 15 15 25 15 15 25 15 15 25 15 15 25 15 15 25 15 15 25 15 15 25 15 15 25 15 15 25 15 15 25 15 15 25 15 15 25 15 15 25 15 15 25 15 15 25 15 15 25 15 15 25 15 15 25 15 15 25 15 15 25 15 15 25 15 15 25 15 15 25 15 15 25 15 15 25 15 15 25 15 15 25 15 15 25 15 15 25 15 15 25 15 15 25 15 15 25 15 15 25 15 15 25 15 15 25 15 15 25 15 15 25 15 15 25 15 15 25 15 15 25 15 15 25 15 15 25 15 15 25 15 15 25 15 15 25 15 15 25 15 15 25 15 15 25 15 15 25 15 15 25 15 15 25 15 15 25 15 15 25 15 15 25 15 15 25 15 15 25 15 15 25 15 15 25 15 15 25 15 15 25 15 15 25 15 15 25 15 15 25 15 15 25 15 15 25 15 15 25 15 15 25 15 15 25 15 15 25 15 15 25 15 15 25 15 15 25 15 15 25 15 15 25 15 15 25 15 15 25 15 15 25 15 15 25 15 15 25 15 15 25 15 15 25 15 15 25 15 15 25 15 15 25 15 15 25 15 15 25 15 15 25 15 15 25 15 15 25 15 15 25 15 15 25 15 15 25 15 15 25 15 15 25 15 15 25 15 15 25 15 15 25 15 15 25 15 15 25 15 15 25 15 15 25 15 15 25 15 15 25 15 15 25 15 15 25 15 15 25 15 15 25 15 15 25 255 0 0 15 15 25 15 15 25 15 15 25 15 15 25 15 15 25 15 15 25 15 15 25 15 15 25 15 15 25 15 15 25 15 15 25 15 15 25 15 15 25 15 15 25 15 15 25 15 15 25 15 15 25 15 15 25 15 15 25 15 15 25 15 15 25 15 15 25 15 15 25 
15 15 25 15 15 25 15 15 25 15 15 25 15 15 25 15 15 25 15 15 25 15 15 25 15 15 25 15 15 25 15 15 25 15 15 25 15 15 25 15 15 25 15 15 25 15 15 25 15 15 25 15 15 25 15 15 25 15 15 25 15 15 25 15 15 25 0 255 0 15 15 25 255 255 255 15 15 25 15 15 25 15 15 25 15 15 25 15 15 25 15 15 25 15 15 25 15 15 25 15 15 25 15 15 25 15 15 25 15 15 25 15 15 25 15 15 25 15 15 25 15 15 25 15 15 25 15 15 25 15 15 25 15 15 25 15 15 25 15 15 25 15 15 25 15 15 25 15 15 25 15 15 25 15 15 25 15 15 25 15 15 25 15 15 25 15 15 25 15 15 25 15 15 25 15 15 25 15 15 25 15 15 25 15 15 25 15 15 25 15 15 25 15 15 25 15 15 25 15 15 25 15 15 25 15 15 25 15 15 25 15 15 25 15 15 25 15 15 25 15 15 25 15 15 25 15 15 25 15 15 25 255 255 255 15 15 25 15 15 25 15 15 25 15 15 25 15 15 25 15 15 25 15 15 25 15 15 25 15 15 25 15 15 25 15 15 25 15 15 25 15 15 25 15 15 25 15 15 25 15 15 25 15 15 25 15 15 25 15 15 25 15 15 25 15 15 25 15 15 25 15 15 25 15 15 25 15 15 25 15 15 25 15 15 25 15 15 25 15 15 25 15 15 25 15 15 25 15 15 25 15 15 25 15 15 25 15 15 25 15 15 25 15 15 25 15 15 25 15 15 25 15 15 25 15 15 25 15 15 25 15 15 25 15 15 25 15 15 25 15 15 25 15 15 25 15 15 25 15 15 25 15 15 25 15 15 25 15 15 25 15 15 25 15 15 25 15 15 25 15 15 25 15 15 25 15 15 25 15 15 25 15 15 25 15 15 25 15 15 25 15 15 25 15 15 25 15 15 25 15 15 25 15 15 25 15 15 25 15 15 25 15 15 25 15 15 25 15 15 25 15 15 25 15 15 25 15 15 25 15 15 25 15 15 25 15 15 25 15 15 25 15 15 25 15 15 25 15 15 25 15 15 25 15 15 25 15 15 25 15 15 25 15 15 25 15 15 25 15 15 25 15 15 25 15 15 25 15 15 25 15 15 25 15 15 25 15 15 25 15 15 25 15 15 25 15 15 25 15 15 25 15 15 25 15 15 25 15 15 25 15 15 25 15 15 25 15 15 25 15 15 25 15 15 25 15 15 25 15 15 25 15 15 25 15 15 25 15 15 25 15 15 25 15 15 25 15 15 25 15 15 25 15 15 25 15 15 25 15 15 25 15 15 25 15 15 25 15 15 25 15 15 25 15 15 25 15 15 25 15 15 25 15 15 25 15 15 25 15 15 25 15 15 25 15 15 25 15 15 25 15 15 25 15 15 25 15 15 25 15 15 25 15 15 25 15 15 25 15 15 25 15 15 25 15 15 25 15 15 25 15 15 25 15 15 25 15 15 25 15 15 25 15 15 25 15 15 25 15 15 25 15 15 25 15 15 25 15 15 25 15 15 25 15 15 25 15 15 25 255 0 0 15 15 25 15 15 25 15 15 25 15 15 25 15 15 25 15 15 25 15 15 25 15 15 25 15 15 25 15 15 25 15 15 25 15 15 25 15 15 25 15 15 25 15 15 25 15 15 25 15 15 25 15 15 25 15 15 25 15 15 25 15 15 25 15 15 25 
15 15 25 15 15 25 15 15 25 15 15 25 15 15 25 15 15 25 15 15 25 15 15 25 15 15 25 15 15 25 15 15 25 15 15 25 15 15 25 15 15 25 15 15 25 15 15 25 15 15 25 15 15 25 15 15 25 15 15 25 15 15 25 0 255 0 15 15 25 255 255 255 15 15 25 15 15 25 15 15 25 15 15 25 15 15 25 15 15 25 15 15 25 15 15 25 15 15 25 15 15 25 15 15 25 15 15 25 15 15 25 15 15 25 15 15 25 15 15 25 15 15 25 15 15 25 15 15 25 15 15 25 15 15 25 15 15 25 15 15 25 15 15 25 15 15 25 15 15 25 15 15 25 15 15 25 15 15 25 15 15 25 15 15 25 15 15 25 15 15 25 15 15 25 15 15 25 15 15 25 15 15 25 15 15 25 15 15 25 15 15 25 15 15 25 15 15 25 15 15 25 15 15 25 15 15 25 15 15 25 15 15 25 15 15 25 15 15 25 15 15 25 15 15 25 15 15 25 15 15 25 255 255 255 15 15 25 15 15 25 15 15 25 15 15 25 15 15 25 15 15 25 15 15 25 15 15 25 15 15 25 15 15 25 15 15 25 15 15 25 15 15 25 15 15 25 15 15 25 15 15 25 15 15 25 15 15 25 15 15 25 15 15 25 15 15 25 15 15 25 15 15 25 15 15 25 15 15 25 15 15 25 15 15 25 15 15 25 15 15 25 15 15 25 15 15 25 15 15 25 15 15 25 15 15 25 15 15 25 15 15 25 15 15 25 15 15 25 15 15 25 15 15 25 15 15 25 15 15 25 15 15 25 15 15 25 15 15 25 15 15 25 15 15 25 15 15 25 15 15 25 15 15 25 15 15 25 15 15 25 15 15 25 15 15 25 15 15 25 15 15 25 15 15 25 15 15 25 15 15 25 15 15 25 15 15 25 15 15 25 15 15 25 15 15 25 15 15 25 15 15 25 15 15 25 15 15 25 15 15 25 15 15 25 15 15 25 15 15 25 15 15 25 15 15 25 15 15 25 15 15 25 15 15 25 15 15 25 15 15 25 15 15 25 15 15 25 15 15 25 15 15 25 15 15 25 15 15 25 15 15 25 15 15 25 15 15 25 15 15 25 15 15 25 15 15 25 15 15 25 15 15 25 15 15 25 15 15 25 15 15 25 15 15 25 15 15 25 15 15 25 15 15 25 15 15 25 15 15 25 15 15 25 15 15 25 15 15 25 15 15 25 15 15 25 15 15 25 15 15 25 15 15 25 15 15 25 15 15 25 15 15 25 15 15 25 15 15 25 15 15 25 15 15 25 15 15 25 15 15 25 15 15 25 15 15 25 15 15 25 15 15 25 15 15 25 15 15 25 15 15 25 15 15 25 15 15 25 15 15 25 15 15 25 15 15 25 15 15 25 15 15 25 15 15 25 15 15 25 15 15 25 15 15 25 15 15 25 15 15 25 15 15 25 15 15 25 15 15 25 15 15 25 15 15 25 15 15 25 15 15 25 15 15 25 15 15 25 15 15 25 15 15 25 15 15 25 15 15 25 15 15 25 15 15 25 15 15 25 15 15 25 255 0 0 15 15 25 15 15 25 15 15 25 15 15 25 15 15 25 15 15 25 15 15 25 15 15 25 15 15 25 15 15 25 15 15 25 15 15 25 15 15 25 15 15 25 15 15 25 15 15 25 15 15 25 15 15 25 15 15 25 15 15 25 15 15 25 
15 15 25 15 15 25 15 15 25 15 15 25 15 15 25 15 15 25 15 15 25 15 15 25 15 15 25 15 15 25 15 15 25 15 15 25 15 15 25 15 15 25 15 15 25 15 15 25 15 15 25 15 15 25 15 15 25 15 15 25 0 255 0 15 15 25 15 15 25 255 255 255 15 15 25 15 15 25 15 15 25 15 15 25 15 15 25 15 15 25 15 15 25 15 15 25 15 15 25 15 15 25 15 15 25 15 15 25 15 15 25 15 15 25 15 15 25 15 15 25 15 15 25 15 15 25 15 15 25 15 15 25 15 15 25 15 15 25 15 15 25 15 15 25 15 15 25 15 15 25 15 15 25 15 15 25 15 15 25 15 15 25 15 15 25 15 15 25 15 15 25 15 15 25 15 15 25 15 15 25 15 15 25 15 15 25 15 15 25 15 15 25 15 15 25 15 15 25 15 15 25 15 15 25 15 15 25 15 15 25 15 15 25 15 15 25 15 15 25 15 15 25 15 15 25 15 15 25 15 15 25 15 15 25 255 255 255 15 15 25 15 15 25 15 15 25 15 15 25 15 15 25 15 15 25 15 15 25 15 15 25 15 15 25 15 15 25 15 15 25 15 15 25 15 15 25 15 15 25 15 15 25 15 15 25 15 15 25 15 15 25 15 15 25 15 15 25 15 15 25 15 15 25 15 15 25 15 15 25 15 15 25 15 15 25 15 15 25 15 15 25 15 15 25 15 15 25 15 15 25 15 15 25 15 15 25 15 15 25 15 15 25 15 15 25 15 15 25 15 15 25 15 15 25 15 15 25 15 15 25 15 15 25 15 15 25 15 15 25 15 15 25 15 15 25 15 15 25 15 15 25 15 15 25 15 15 25 15 15 25 15 15 25 15 15 25 15 15 25 15 15 25 15 15 25 15 15 25 15 15 25 15 15 25 15 15 25 15 15 25 15 15 25 15 15 25 15 15 25 15 15 25 15 15 25 15 15 25 15 15 25 15 15 25 15 15 25 15 15 25 15 15 25 15 15 25 15 15 25 15 15 25 15 15 25 15 15 25 15 15 25 15 15 25 15 15 25 15 15 25 15 15 25 15 15 25 15 15 25 15 15 25 15 15 25 15 15 25 15 15 25 15 15 25 15 15 25 15 15 25 15 15 25 15 15 25 15 15 25 15 15 25 15 15 25 15 15 25 15 15 25 15 15 25 15 15 25 15 15 25 15 15 25 15 15 25 15 15 25 15 15 25 15 15 25 15 15 25 15 15 25 15 15 25 15 15 25 15 15 25 15 15 25 15 15 25 15 15 25 15 15 25 15 15 25 15 15 25 15 15 25 15 15 25 15 15 25 15 15 25 15 15 25 15 15 25 15 15 25 15 15 25 15 15 25 15 15 25 15 15 25 15 15 25 15 15 25 15 15 25 15 15 25 15 15 25 15 15 25 15 15 25 15 15 25 15 15 25 15 15 25 15 15 25 15 15 25 15 15 25 15 15 25 15 15 25 15 15 25 15 15 25 15 15 25 15 15 25 15 15 25 15 15 25 15 15 25 15 15 25 15 15 25 15 15 25 15 15 25 15 15 25 15 15 25 255 0 0 15 15 25 15 15 25 15 15 25 15 15 25 15 15 25 15 15 25 15 15 25 15 15 25 15 15 25 15 15 25 15 15 25 15 15 25 15 15 25 15 15 25 15 15 25 15 15 25 15 15 25 15 15 25 15 15 25 15 15 25 
15 15 25 15 15 25 15 15 25 15 15 25 15 15 25 15 15 25 15 15 25 15 15 25 15 15 25 15 15 25 15 15 25 15 15 25 15 15 25 15 15 25 15 15 25 15 15 25 15 15 25 15 15 25 15 15 25 0 255 0 15 15 25 15 15 25 255 255 255 15 15 25 15 15 25 15 15 25 15 15 25 15 15 25 15 15 25 15 15 25 15 15 25 15 15 25 15 15 25 15 15 25 15 15 25 15 15 25 15 15 25 15 15 25 15 15 25 15 15 25 15 15 25 15 15 25 15 15 25 15 15 25 15 15 25 15 15 25 15 15 25 15 15 25 15 15 25 15 15 25 15 15 25 15 15 25 15 15 25 15 15 25 15 15 25 15 15 25 15 15 25 15 15 25 15 15 25 15 15 25 15 15 25 15 15 25 15 15 25 15 15 25 15 15 25 15 15 25 15 15 25 15 15 25 15 15 25 15 15 25 15 15 25 15 15 25 15 15 25 15 15 25 15 15 25 15 15 25 15 15 25 15 15 25 255 255 255 15 15 25 15 15 25 15 15 25 15 15 25 15 15 25 15 15 25 15 15 25 15 15 25 15 15 25 15 15 25 15 15 25 15 15 25 15 15 25 15 15 25 15 15 25 15 15 25 15 15 25 15 15 25 15 15 25 15 15 25 15 15 25 15 15 25 15 15 25 15 15 25 15 15 25 15 15 25 15 15 25 15 15 25 15 15 25 15 15 25 15 15 25 15 15 25 15 15 25 15 15 25 15 15 25 15 15 25 15 15 25 15 15 25 15 15 25 15 15 25 15 15 25 15 15 25 15 15 25 15 15 25 15 15 25 15 15 25 15 15 25 15 15 25 15 15 25 15 15 25 15 15 25 15 15 25 15 15 25 15 15 25 15 15 25 15 15 25 15 15 25 15 15 25 15 15 25 15 15 25 15 15 25 15 15 25 15 15 25 15 15 25 15 15 25 15 15 25 15 15 25 15 15 25 15 15 25 15 15 25 15 15 25 15 15 25 15 15 25 15 15 25 15 15 25 15 15 25 15 15 25 15 15 25 15 15 25 15 15 25 15 15 25 15 15 25 15 15 25 15 15 25 15 15 25 15 15 25 15 15 25 15 15 25 15 15 25 15 15 25 15 15 25 15 15 25 15 15 25 15 15 25 15 15 25 15 15 25 15 15 25 15 15 25 15 15 25 15 15 25 15 15 25 15 15 25 15 15 25 15 15 25 15 15 25 15 15 25 15 15 25 15 15 25 15 15 25 15 15 25 15 15 25 15 15 25 15 15 25 15 15 25 15 15 25 15 15 25 15 15 25 15 15 25 15 15 25 15 15 25 15 15 25 15 15 25 15 15 25 15 15 25 15 15 25 15 15 25 15 15 25 15 15 25 15 15 25 15 15 25 15 15 25 15 15 25 15 15 25 15 15 25 15 15 25 15 15 25 15 15 25 15 15 25 15 15 25 15 15 25 15 15 25 15 15 25 15 15 25 15 15 25 15 15 25 15 15 25 15 15 25 15 15 25 15 15 25 15 15 25 15 15 25 15 15 25 15 15 25 15 15 25 15 15 25 15 15 25 15 15 25 255 0 0 15 15 25 15 15 25 15 15 25 15 15 25 15 15 25 15 15 25 15 15 25 15 15 25 15 15 25 15 15 25 15 15 25 15 15 25 15 15 25 15 15 25 15 15 25 15 15 25 15 15 25 15 15 25 15 15 25 
15 15 25 15 15 25 15 15 25 15 15 25 15 15 25 15 15 25 15 15 25 15 15 25 15 15 25 15 15 25 15 15 25 15 15 25 15 15 25 15 15 25 15 15 25 15 15 25 15 15 25 15 15 25 0 255 0 15 15 25 15 15 25 15 15 25 255 255 255 15 15 25 15 15 25 15 15 25 15 15 25 15 15 25 15 15 25 15 15 25 15 15 25 15 15 25 15 15 25 15 15 25 15 15 25 15 15 25 15 15 25 15 15 25 15 15 25 15 15 25 15 15 25 15 15 25 15 15 25 15 15 25 15 15 25 15 15 25 15 15 25 15 15 25 15 15 25 15 15 25 15 15 25 15 15 25 15 15 25 15 15 25 15 15 25 15 15 25 15 15 25 15 15 25 15 15 25 15 15 25 15 15 25 15 15 25 15 15 25 15 15 25 15 15 25 15 15 25 15 15 25 15 15 25 15 15 25 15 15 25 15 15 25 15 15 25 15 15 25 15 15 25 15 15 25 15 15 25 15 15 25 15 15 25 15 15 25 255 255 255 15 15 25 15 15 25 15 15 25 15 15 25 15 15 25 15 15 25 15 15 25 15 15 25 15 15 25 15 15 25 15 15 25 15 15 25 15 15 25 15 15 25 15 15 25 15 15 25 15 15 25 15 15 25 15 15 25 15 15 25 15 15 25 15 15 25 15 15 25 15 15 25 15 15 25 15 15 25 15 15 25 15 15 25 15 15 25 15 15 25 15 15 25 15 15 25 15 15 25 15 15 25 15 15 25 15 15 25 15 15 25 15 15 25 15 15 25 15 15 25 15 15 25 15 15 25 15 15 25 15 15 25 15 15 25 15 15 25 15 15 25 15 15 25 15 15 25 15 15 25 15 15 25 15 15 25 15 15 25 15 15 25 15 15 25 15 15 25 15 15 25 15 15 25 15 15 25 15 15 25 15 15 25 15 15 25 15 15 25 15 15 25 15 15 25 15 15 25 15 15 25 15 15 25 15 15 25 15 15 25 15 15 25 15 15 25 15 15 25 15 15 25 15 15 25 15 15 25 15 15 25 15 15 25 15 15 25 15 15 25 15 15 25 15 15 25 15 15 25 15 15 25 15 15 25 15 15 25 15 15 25 15 15 25 15 15 25 15 15 25 15 15 25 15 15 25 15 15 25 15 15 25 15 15 25 15 15 25 15 15 25 15 15 25 15 15 25 15 15 25 15 15 25 15 15 25 15 15 25 15 15 25 15 15 25 15 15 25 15 15 25 15 15 25 15 15 25 15 15 25 15 15 25 15 15 25 15 15 25 15 15 25 15 15 25 15 15 25 15 15 25 15 15 25 15 15 25 15 15 25 15 15 25 15 15 25 15 15 25 15 15 25 15 15 25 15 15 25 15 15 25 15 15 25 15 15 25 15 15 25 15 15 25 15 15 25 15 15 25 15 15 25 15 15 25 15 15 25 15 15 25 15 15 25 15 15 25 15 15 25 15 15 25 15 15 25 15 15 25 15 15 25 15 15 25 15 15 25 15 15 25 15 15 25 15 15 25 15 15 25 15 15 25 15 15 25 15 15 25 15 15 25 15 15 25 15 15 25 15 15 25 255 0 0 15 15 25 15 15 25 15 15 25 15 15 25 15 15 25 15 15 25 15 15 25 15 15 25 15 15 25 15 15 25 15 15 25 15 15 25 15 15 25 15 15 25 15 15 25 15 15 25 15 15 25 15 15 25 
15 15 25 15 15 25 15 15 25 15 15 25 15 15 25 15 15 25 15 15 25 15 15 25 15 15 25 15 15 25 15 15 25 15 15 25 15 15 25 15 15 25 15 15 25 15 15 25 15 15 25 0 255 0 15 15 25 15 15 25 15 15 25 255 255 255 15 15 25 15 15 25 15 15 25 15 15 25 15 15 25 15 15 25 15 15 25 15 15 25 15 15 25 15 15 25 15 15 25 15 15 25 15 15 25 15 15 25 15 15 25 15 15 25 15 15 25 15 15 25 15 15 25 15 15 25 15 15 25 15 15 25 15 15 25 15 15 25 15 15 25 15 15 25 15 15 25 15 15 25 15 15 25 15 15 25 15 15 25 15 15 25 15 15 25 15 15 25 15 15 25 15 15 25 15 15 25 15 15 25 15 15 25 15 15 25 15 15 25 15 15 25 15 15 25 15 15 25 15 15 25 15 15 25 15 15 25 15 15 25 15 15 25 15 15 25 15 15 25 15 15 25 15 15 25 15 15 25 15 15 25 15 15 25 15 15 25 255 255 255 15 15 25 15 15 25 15 15 25 15 15 25 15 15 25 15 15 25 15 15 25 15 15 25 15 15 25 15 15 25 15 15 25 15 15 25 15 15 25 15 15 25 15 15 25 15 15 25 15 15 25 15 15 25 15 15 25 15 15 25 15 15 25 15 15 25 15 15 25 15 15 25 15 15 25 15 15 25 15 15 25 15 15 25 15 15 25 15 15 25 15 15 25 15 15 25 15 15 25 15 15 25 15 15 25 15 15 25 15 15 25 15 15 25 15 15 25 15 15 25 15 15 25 15 15 25 15 15 25 15 15 25 15 15 25 15 15 25 15 15 25 15 15 25 15 15 25 15 15 25 15 15 25 15 15 25 15 15 25 15 15 25 15 15 25 15 15 25 15 15 25 15 15 25 15 15 25 15 15 25 15 15 25 15 15 25 15 15 25 15 15 25 15 15 25 15 15 25 15 15 25 15 15 25 15 15 25 15 15 25 15 15 25 15 15 25 15 15 25 15 15 25 15 15 25 15 15 25 15 15 25 15 15 25 15 15 25 15 15 25 15 15 25 15 15 25 15 15 25 15 15 25 15 15 25 15 15 25 15 15 25 15 15 25 15 15 25 15 15 25 15 15 25 15 15 25 15 15 25 15 15 25 15 15 25 15 15 25 15 15 25 15 15 25 15 15 25 15 15 25 15 15 25 15 15 25 15 15 25 15 15 25 15 15 25 15 15 25 15 15 25 15 15 25 15 15 25 15 15 25 15 15 25 15 15 25 15 15 25 15 15 25 15 15 25 15 15 25 15 15 25 15 15 25 15 15 25 15 15 25 15 15 25 15 15 25 15 15 25 15 15 25 15 15 25 15 15 25 15 15 25 15 15 25 15 15 25 15 15 25 15 15 25 15 15 25 15 15 25 15 15 25 15 15 25 15 15 25 15 15 25 15 15 25 15 15 25 15 15 25 15 15 25 15 15 25 15 15 25 15 15 25 15 15 25 15 15 25 15 15 25 15 15 25 15 15 25 15 15 25 15 15 25 15 15 25 15 15 25 15 15 25 15 15 25 15 15 25 15 15 25 15 15 25 255 0 0 15 15 25 15 15 25 15 15 25 15 15 25 15 15 25 15 15 25 15 15 25 15 15 25 15 15 25 15 15 25 15 15 25 15 15 25 15 15 25 15 15 25 15 15 25 15 15 25 15 15 25 
15 15 25 15 15 25 15 15 25 15 15 25 15 15 25 15 15 25 15 15 25 15 15 25 15 15 25 15 15 25 15 15 25 15 15 25 15 15 25 15 15 25 15 15 25 15 15 25 0 255 0 15 15 25 15 15 25 15 15 25 15 15 25 255 255 255 15 15 25 15 15 25 15 15 25 15 15 25 15 15 25 15 15 25 15 15 25 15 15 25 15 15 25 15 15 25 15 15 25 15 15 25 15 15 25 15 15 25 15 15 25 15 15 25 15 15 25 15 15 25 15 15 25 15 15 25 15 15 25 15 15 25 15 15 25 15 15 25 15 15 25 15 15 25 15 15 25 15 15 25 15 15 25 15 15 25 15 15 25 15 15 25 15 15 25 15 15 25 15 15 25 15 15 25 15 15 25 15 15 25 15 15 25 15 15 25 15 15 25 15 15 25 15 15 25 15 15 25 15 15 25 15 15 25 15 15 25 15 15 25 15 15 25 15 15 25 15 15 25 15 15 25 15 15 25 15 15 25 15 15 25 15 15 25 15 15 25 15 15 25 255 255 255 15 15 25 15 15 25 15 15 25 15 15 25 15 15 25 15 15 25 15 15 25 15 15 25 15 15 25 15 15 25 15 15 25 15 15 25 15 15 25 15 15 25 15 15 25 15 15 25 15 15 25 15 15 25 15 15 25 15 15 25 15 15 25 15 15 25 15 15 25 15 15 25 15 15 25 15 15 25 15 15 25 15 15 25 15 15 25 15 15 25 15 15 25 15 15 25 15 15 25 15 15 25 15 15 25 15 15 25 15 15 25 15 15 25 15 15 25 15 15 25 15 15 25 15 15 25 15 15 25 15 15 25 15 15 25 15 15 25 15 15 25 15 15 25 15 15 25 15 15 25 15 15 25 15 15 25 15 15 25 15 15 25 15 15 25 15 15 25 15 15 25 15 15 25 15 15 25 15 15 25 15 15 25 15 15 25 15 15 25 15 15 25 15 15 25 15 15 25 15 15 25 15 15 25 15 15 25 15 15 25 15 15 25 15 15 25 15 15 25 15 15 25 15 15 25 15 15 25 15 15 25 15 15 25 15 15 25 15 15 25 15 15 25 15 15 25 15 15 25 15 15 25 15 15 25 15 15 25 15 15 25 15 15 25 15 15 25 15 15 25 15 15 25 15 15 25 15 15 25 15 15 25 15 15 25 15 15 25 15 15 25 15 15 25 15 15 25 15 15 25 15 15 25 15 15 25 15 15 25 15 15 25 15 15 25 15 15 25 15 15 25 15 15 25 15 15 25 15 15 25 15 15 25 15 15 25 15 15 25 15 15 25 15 15 25 15 15 25 15 15 25 15 15 25 15 15 25 15 15 25 15 15 25 15 15 25 15 15 25 15 15 25 15 15 25 15 15 25 15 15 25 15 15 25 15 15 25 15 15 25 15 15 25 15 15 25 15 15 25 15 15 25 15 15 25 15 15 25 15 15 25 15 15 25 15 15 25 15 15 25 15 15 25 15 15 25 15 15 25 15 15 25 15 15 25 15 15 25 15 15 25 15 15 25 15 15 25 15 15 25 15 15 25 15 15 25 15 15 25 15 15 25 15 15 25 15 15 25 15 15 25 15 15 25 255 0 0 15 15 25 15 15 25 15 15 25 15 15 25 15 15 25 15 15 25 15 15 25 15 15 25 15 15 25 15 15 25 15 15 25 15 15 25 15 15 25 15 15 25 15 15 25 15 15 25 
15 15 25 15 15 25 15 15 25 15 15 25 15 15 25 15 15 25 15 15 25 15 15 25 15 15 25 15 15 25 15 15 25 15 15 25 15 15 25 15 15 25 15 15 25 0 255 0 15 15 25 15 15 25 15 15 25 15 15 25 255 255 255 255 255 255 255 255 255 255 255 255 255 255 255 255 255 255 255 255 255 255 255 255 255 255 255 255 255 255 255 255 255 255 255 255 255 255 255 255 255 255 255 255 255 255 255 255 255 255 255 255 255 255 255 255 255 255 255 255 255 255 255 255 255 255 255 255 255 255 255 255 255 255 255 255 255 255 255 255 255 255 255 255 255 255 255 255 255 255 255 255 255 255 255 255 255 255 255 255 255 255 255 255 255 255 255 255 255 255 255 255 255 255 255 255 255 255 255 255 255 255 255 255 255 255 255 255 255 255 255 255 255 255 255 255 255 255 255 255 255 255 255 255 255 255 255 255 255 255 255 255 255 255 255 255 255 255 255 255 255 255 255 255 255 255 255 255 255 255 255 255 255 255 255 255 255 255 255 255 255 255 255 15 15 25 15 15 25 15 15 25 15 15 25 15 15 25 15 15 25 15 15 25 15 15 25 15 15 25 15 15 25 15 15 25 15 15 25 15 15 25 15 15 25 15 15 25 15 15 25 15 15 25 15 15 25 15 15 25 15 15 25 15 15 25 15 15 25 15 15 25 15 15 25 15 15 25 15 15 25 15 15 25 15 15 25 15 15 25 15 15 25 15 15 25 15 15 25 15 15 25 15 15 25 15 15 25 15 15 25 15 15 25 15 15 25 15 15 25 15 15 25 15 15 25 15 15 25 15 15 25 15 15 25 15 15 25 15 15 25 15 15 25 15 15 25 15 15 25 15 15 25 15 15 25 15 15 25 15 15 25 15 15 25 15 15 25 15 15 25 15 15 25 15 15 25 15 15 25 15 15 25 15 15 25 15 15 25 15 15 25 15 15 25 15 15 25 15 15 25 15 15 25 15 15 25 15 15 25 15 15 25 15 15 25 15 15 25 15 15 25 15 15 25 15 15 25 15 15 25 15 15 25 15 15 25 15 15 25 15 15 25 15 15 25 15 15 25 15 15 25 15 15 25 15 15 25 15 15 25 15 15 25 15 15 25 15 15 25 15 15 25 15 15 25 15 15 25 15 15 25 15 15 25 15 15 25 15 15 25 15 15 25 15 15 25 15 15 25 15 15 25 15 15 25 15 15 25 15 15 25 15 15 25 15 15 25 15 15 25 15 15 25 15 15 25 15 15 25 15 15 25 15 15 25 15 15 25 15 15 25 15 15 25 15 15 25 15 15 25 15 15 25 15 15 25 15 15 25 15 15 25 15 15 25 15 15 25 15 15 25 15 15 25 15 15 25 15 15 25 15 15 25 15 15 25 15 15 25 15 15 25 15 15 25 15 15 25 15 15 25 15 15 25 15 15 25 15 15 25 15 15 25 15 15 25 15 15 25 15 15 25 15 15 25 15 15 25 15 15 25 15 15 25 15 15 25 15 15 25 15 15 25 15 15 25 15 15 25 15 15 25 15 15 25 15 15 25 15 15 25 15 15 25 15 15 25 15 15 25 15 15 25 15 15 25 15 15 25 255 0 0 15 15 25 15 15 25 15 15 25 15 15 25 15 15 25 15 15 25 15 15 25 15 15 25 15 15 25 15 15 25 15 15 25 15 15 25 15 15 25 15 15 25 15 15 25 
15 15 25 15 15 25 15 15 25 15 15 25 15 15 25 15 15 25 15 15 25 15 15 25 15 15 25 15 15 25 15 15 25 15 15 25 15 15 25 15 15 25 0 255 0 15 15 25 15 15 25 15 15 25 15 15 25 15 15 25 15 15 25 15 15 25 15 15 25 15 15 25 15 15 25 15 15 25 15 15 25 15 15 25 15 15 25 15 15 25 15 15 25 15 15 25 15 15 25 15 15 25 15 15 25 15 15 25 15 15 25 15 15 25 15 15 25 15 15 25 15 15 25 15 15 25 15 15 25 15 15 25 15 15 25 15 15 25 15 15 25 15 15 25 15 15 25 15 15 25 15 15 25 15 15 25 15 15 25 15 15 25 15 15 25 15 15 25 15 15 25 15 15 25 15 15 25 15 15 25 15 15 25 15 15 25 15 15 25 15 15 25 15 15 25 15 15 25 15 15 25 15 15 25 15 15 25 15 15 25 15 15 25 15 15 25 15 15 25 15 15 25 15 15 25 15 15 25 15 15 25 15 15 25 15 15 25 15 15 25 15 15 25 15 15 25 15 15 25 15 15 25 15 15 25 15 15 25 15 15 25 15 15 25 15 15 25 15 15 25 15 15 25 15 15 25 15 15 25 15 15 25 15 15 25 15 15 25 15 15 25 15 15 25 15 15 25 15 15 25 15 15 25 15 15 25 15 15 25 15 15 25 15 15 25 15 15 25 15 15 25 15 15 25 15 15 25 15 15 25 15 15 25 15 15 25 15 15 25 15 15 25 15 15 25 15 15 25 15 15 25 15 15 25 15 15 25 15 15 25 15 15 25 15 15 25 15 15 25 15 15 25 15 15 25 15 15 25 15 15 25 15 15 25 15 15 25 15 15 25 15 15 25 15 15 25 15 15 25 15 15 25 15 15 25 15 15 25 15 15 25 15 15 25 15 15 25 15 15 25 15 15 25 15 15 25 15 15 25 15 15 25 15 15 25 15 15 25 15 15 25 15 15 25 15 15 25 15 15 25 15 15 25 15 15 25 15 15 25 15 15 25 15 15 25 15 15 25 15 15 25 15 15 25 15 15 25 15 15 25 15 15 25 15 15 25 15 15 25 15 15 25 15 15 25 15 15 25 15 15 25 15 15 25 15 15 25 15 15 25 15 15 25 15 15 25 15 15 25 15 15 25 15 15 25 15 15 25 15 15 25 15 15 25 15 15 25 15 15 25 15 15 25 15 15 25 15 15 25 15 15 25 15 15 25 15 15 25 15 15 25 15 15 25 15 15 25 15 15 25 15 15 25 15 15 25 15 15 25 15 15 25 15 15 25 15 15 25 15 15 25 15 15 25 15 15 25 15 15 25 15 15 25 15 15 25 15 15 25 15 15 25 15 15 25 15 15 25 15 15 25 15 15 25 15 15 25 15 15 25 15 15 25 15 15 25 15 15 25 15 15 25 15 15 25 15 15 25 15 15 25 15 15 25 15 15 25 15 15 25 15 15 25 15 15 25 15 15 25 15 15 25 15 15 25 15 15 25 15 15 25 15 15 25 15 15 25 15 15 25 15 15 25 15 15 25 15 15 25 15 15 25 15 15 25 15 15 25 15 15 25 15 15 25 15 15 25 15 15 25 15 15 25 255 0 0 15 15 25 15 15 25 15 15 25 15 15 25 15 15 25 15 15 25 15 15 25 15 15 25 15 15 25 15 15 25 15 15 25 15 15 25 15 15 25 15 15 25 
15 15 25 15 15 25 15 15 25 15 15 25 15 15 25 15 15 25 15 15 25 15 15 25 15 15 25 15 15 25 15 15 25 15 15 25 15 15 25 0 255 0 15 15 25 15 15 25 15 15 25 15 15 25 15 15 25 15 15 25 15 15 25 15 15 25 15 15 25 15 15 25 15 15 25 15 15 25 15 15 25 15 15 25 15 15 25 15 15 25 15 15 25 15 15 25 15 15 25 15 15 25 15 15 25 15 15 25 15 15 25 15 15 25 15 15 25 15 15 25 15 15 25 15 15 25 15 15 25 15 15 25 15 15 25 15 15 25 15 15 25 15 15 25 15 15 25 15 15 25 15 15 25 15 15 25 15 15 25 15 15 25 15 15 25 15 15 25 15 15 25 15 15 25 15 15 25 15 15 25 15 15 25 15 15 25 15 15 25 15 15 25 15 15 25 15 15 25 15 15 25 15 15 25 15 15 25 15 15 25 15 15 25 15 15 25 15 15 25 15 15 25 15 15 25 15 15 25 15 15 25 15 15 25 15 15 25 15 15 25 15 15 25 15 15 25 15 15 25 15 15 25 15 15 25 15 15 25 15 15 25 15 15 25 15 15 25 15 15 25 15 15 25 15 15 25 15 15 25 15 15 25 15 15 25 15 15 25 15 15 25 15 15 25 15 15 25 15 15 25 15 15 25 15 15 25 15 15 25 15 15 25 15 15 25 15 15 25 15 15 25 15 15 25 15 15 25 15 15 25 15 15 25 15 15 25 15 15 25 15 15 25 15 15 25 15 15 25 15 15 25 15 15 25 15 15 25 15 15 25 15 15 25 15 15 25 15 15 25 15 15 25 15 15 25 15 15 25 15 15 25 15 15 25 15 15 25 15 15 25 15 15 25 15 15 25 15 15 25 15 15 25 15 15 25 15 15 25 15 15 25 15 15 25 15 15 25 15 15 25 15 15 25 15 15 25 15 15 25 15 15 25 15 15 25 15 15 25 15 15 25 15 15 25 15 15 25 15 15 25 15 15 25 15 15 25 15 15 25 15 15 25 15 15 25 15 15 25 15 15 25 15 15 25 15 15 25 15 15 25 15 15 25 15 15 25 15 15 25 15 15 25 15 15 25 15 15 25 15 15 25 15 15 25 15 15 25 15 15 25 15 15 25 15 15 25 15 15 25 15 15 25 15 15 25 15 15 25 15 15 25 15 15 25 15 15 25 15 15 25 15 15 25 15 15 25 15 15 25 15 15 25 15 15 25 15 15 25 15 15 25 15 15 25 15 15 25 15 15 25 15 15 25 15 15 25 15 15 25 15 15 25 15 15 25 15 15 25 15 15 25 15 15 25 15 15 25 15 15 25 15 15 25 15 15 25 15 15 25 15 15 25 15 15 25 15 15 25 15 15 25 15 15 25 15 15 25 15 15 25 15 15 25 15 15 25 15 15 25 15 15 25 15 15 25 15 15 25 15 15 25 15 15 25 15 15 25 15 15 25 15 15 25 15 15 25 15 15 25 15 15 25 15 15 25 15 15 25 15 15 25 15 15 25 15 15 25 15 15 25 15 15 25 15 15 25 15 15 25 15 15 25 15 15 25 15 15 25 15 15 25 15 15 25 15 15 25 15 15 25 15 15 25 15 15 25 255 0 0 15 15 25 15 15 25 15 15 25 15 15 25 15 15 25 15 15 25 15 15 25 15 15 25 15 15 25 15 15 25 15 15 25 15 15 25 15 15 25 
15 15 25 15 15 25 15 15 25 15 15 25 15 15 25 15 15 25 15 15 25 15 15 25 15 15 25 15 15 25 15 15 25 15 15 25 0 255 0 15 15 25 15 15 25 15 15 25 15 15 25 15 15 25 15 15 25 15 15 25 15 15 25 15 15 25 15 15 25 15 15 25 15 15 25 15 15 25 15 15 25 15 15 25 15 15 25 15 15 25 15 15 25 15 15 25 15 15 25 15 15 25 15 15 25 15 15 25 15 15 25 15 15 25 15 15 25 15 15 25 15 15 25 15 15 25 15 15 25 15 15 25 15 15 25 15 15 25 15 15 25 15 15 25 15 15 25 15 15 25 15 15 25 15 15 25 15 15 25 15 15 25 15 15 25 15 15 25 15 15 25 15 15 25 15 15 25 15 15 25 15 15 25 15 15 25 15 15 25 15 15 25 15 15 25 15 15 25 15 15 25 15 15 25 15 15 25 15 15 25 15 15 25 15 15 25 15 15 25 15 15 25 15 15 25 15 15 25 15 15 25 15 15 25 15 15 25 15 15 25 15 15 25 15 15 25 15 15 25 15 15 25 15 15 25 15 15 25 15 15 25 15 15 25 15 15 25 15 15 25 15 15 25 15 15 25 15 15 25 15 15 25 15 15 25 15 15 25 15 15 25 15 15 25 15 15 25 15 15 25 15 15 25 15 15 25 15 15 25 15 15 25 15 15 25 15 15 25 15 15 25 15 15 25 15 15 25 15 15 25 15 15 25 15 15 25 15 15 25 15 15 25 15 15 25 15 15 25 15 15 25 15 15 25 15 15 25 15 15 25 15 15 25 15 15 25 15 15 25 15 15 25 15 15 25 15 15 25 15 15 25 15 15 25 15 15 25 15 15 25 15 15 25 15 15 25 15 15 25 15 15 25 15 15 25 15 15 25 15 15 25 15 15 25 15 15 25 15 15 25 15 15 25 15 15 25 15 15 25 15 15 25 15 15 25 15 15 25 15 15 25 15 15 25 15 15 25 15 15 25 15 15 25 15 15 25 15 15 25 15 15 25 15 15 25 15 15 25 15 15 25 15 15 25 15 15 25 15 15 25 15 15 25 15 15 25 15 15 25 15 15 25 15 15 25 15 15 25 15 15 25 15 15 25 15 15 25 15 15 25 15 15 25 15 15 25 15 15 25 15 15 25 15 15 25 15 15 25 15 15 25 15 15 25 15 15 25 15 15 25 15 15 25 15 15 25 15 15 25 15 15 25 15 15 25 15 15 25 15 15 25 15 15 25 15 15 25 15 15 25 15 15 25 15 15 25 15 15 25 15 15 25 15 15 25 15 15 25 15 15 25 15 15 25 15 15 25 15 15 25 15 15 25 15 15 25 15 15 25 15 15 25 15 15 25 15 15 25 15 15 25 15 15 25 15 15 25 15 15 25 15 15 25 15 15 25 15 15 25 15 15 25 15 15 25 15 15 25 15 15 25 15 15 25 15 15 25 15 15 25 15 15 25 15 15 25 15 15 25 15 15 25 15 15 25 15 15 25 15 15 25 15 15 25 15 15 25 15 15 25 15 15 25 15 15 25 15 15 25 15 15 25 15 15 25 15 15 25 15 15 25 15 15 25 15 15 25 15 15 25 15 15 25 15 15 25 15 15 25 255 0 0 15 15 25 15 15 25 15 15 25 15 15 25 15 15 25 15 15 25 15 15 25 15 15 25 15 15 25 15 15 25 15 15 25 15 15 25 
15 15 25 15 15 25 15 15 25 15 15 25 15 15 25 15 15 25 15 15 25 15 15 25 15 15 25 15 15 25 15 15 25 0 255 0 15 15 25 15 15 25 15 15 25 15 15 25 15 15 25 15 15 25 15 15 25 15 15 25 15 15 25 15 15 25 15 15 25 15 15 25 15 15 25 15 15 25 15 15 25 15 15 25 15 15 25 15 15 25 15 15 25 15 15 25 15 15 25 15 15 25 15 15 25 15 15 25 15 15 25 15 15 25 15 15 25 15 15 25 15 15 25 15 15 25 15 15 25 15 15 25 15 15 25 15 15 25 15 15 25 15 15 25 15 15 25 15 15 25 15 15 25 15 15 25 15 15 25 15 15 25 15 15 25 15 15 25 15 15 25 15 15 25 15 15 25 15 15 25 15 15 25 15 15 25 15 15 25 15 15 25 15 15 25 15 15 25 15 15 25 15 15 25 15 15 25 15 15 25 15 15 25 15 15 25 15 15 25 15 15 25 15 15 25 15 15 25 15 15 25 15 15 25 15 15 25 15 15 25 15 15 25 15 15 25 15 15 25 15 15 25 15 15 25 15 15 25 15 15 25 15 15 25 15 15 25 15 15 25 15 15 25 15 15 25 15 15 25 15 15 25 15 15 25 15 15 25 15 15 25 15 15 25 15 15 25 15 15 25 15 15 25 15 15 25 15 15 25 15 15 25 15 15 25 15 15 25 15 15 25 15 15 25 15 15 25 15 15 25 15 15 25 15 15 25 15 15 25 15 15 25 15 15 25 15 15 25 15 15 25 15 15 25 15 15 25 15 15 25 15 15 25 15 15 25 15 15 25 15 15 25 15 15 25 15 15 25 15 15 25 15 15 25 15 15 25 15 15 25 15 15 25 15 15 25 15 15 25 15 15 25 15 15 25 15 15 25 15 15 25 15 15 25 15 15 25 15 15 25 15 15 25 15 15 25 15 15 25 15 15 25 15 15 25 15 15 25 15 15 25 15 15 25 15 15 25 15 15 25 15 15 25 15 15 25 15 15 25 15 15 25 15 15 25 15 15 25 15 15 25 15 15 25 15 15 25 15 15 25 15 15 25 15 15 25 15 15 25 15 15 25 15 15 25 15 15 25 15 15 25 15 15 25 15 15 25 15 15 25 15 15 25 15 15 25 15 15 25 15 15 25 15 15 25 15 15 25 15 15 25 15 15 25 15 15 25 15 15 25 15 15 25 15 15 25 15 15 25 15 15 25 15 15 25 15 15 25 15 15 25 15 15 25 15 15 25 15 15 25 15 15 25 15 15 25 15 15 25 15 15 25 15 15 25 15 15 25 15 15 25 15 15 25 15 15 25 15 15 25 15 15 25 15 15 25 15 15 25 15 15 25 15 15 25 15 15 25 15 15 25 15 15 25 15 15 25 15 15 25 15 15 25 15 15 25 15 15 25 15 15 25 15 15 25 15 15 25 15 15 25 15 15 25 15 15 25 15 15 25 15 15 25 15 15 25 15 15 25 15 15 25 15 15 25 15 15 25 15 15 25 15 15 25 15 15 25 15 15 25 15 15 25 15 15 25 15 15 25 15 15 25 15 15 25 15 15 25 15 15 25 15 15 25 15 15 25 15 15 25 15 15 25 15 15 25 15 15 25 15 15 25 255 0 0 15 15 25 15 15 25 15 15 25 15 15 25 15 15 25 15 15 25 15 15 25 15 15 25 15 15 25 15 15 25 15 15 25 
15 15 25 15 15 25 15 15 25 15 15 25 15 15 25 15 15 25 15 15 25 15 15 25 15 15 25 15 15 25 0 255 0 15 15 25 15 15 25 15 15 25 15 15 25 15 15 25 15 15 25 15 15 25 15 15 25 15 15 25 15 15 25 15 15 25 15 15 25 15 15 25 15 15 25 15 15 25 15 15 25 15 15 25 15 15 25 15 15 25 15 15 25 15 15 25 15 15 25 15 15 25 15 15 25 15 15 25 15 15 25 15 15 25 15 15 25 15 15 25 15 15 25 15 15 25 15 15 25 15 15 25 15 15 25 15 15 25 15 15 25 15 15 25 15 15 25 15 15 25 15 15 25 15 15 25 15 15 25 15 15 25 15 15 25 15 15 25 15 15 25 15 15 25 15 15 25 15 15 25 15 15 25 15 15 25 15 15 25 15 15 25 15 15 25 15 15 25 15 15 25 15 15 25 15 15 25 15 15 25 15 15 25 15 15 25 15 15 25 15 15 25 15 15 25 15 15 25 15 15 25 15 15 25 15 15 25 15 15 25 15 15 25 15 15 25 15 15 25 15 15 25 15 15 25 15 15 25 15 15 25 15 15 25 15 15 25 15 15 25 15 15 25 15 15 25 15 15 25 15 15 25 15 15 25 15 15 25 15 15 25 15 15 25 15 15 25 15 15 25 15 15 25 15 15 25 15 15 25 15 15 25 15 15 25 15 15 25 15 15 25 15 15 25 15 15 25 15 15 25 15 15 25 15 15 25 15 15 25 15 15 25 15 15 25 15 15 25 15 15 25 15 15 25 15 15 25 15 15 25 15 15 25 15 15 25 15 15 25 15 15 25 15 15 25 15 15 25 15 15 25 15 15 25 15 15 25 15 15 25 15 15 25 15 15 25 15 15 25 15 15 25 15 15 25 15 15 25 15 15 25 15 15 25 15 15 25 15 15 25 15 15 25 15 15 25 15 15 25 15 15 25 15 15 25 15 15 25 15 15 25 15 15 25 15 15 25 15 15 25 15 15 25 15 15 25 15 15 25 15 15 25 15 15 25 15 15 25 15 15 25 15 15 25 15 15 25 15 15 25 15 15 25 15 15 25 15 15 25 15 15 25 15 15 25 15 15 25 15 15 25 15 15 25 15 15 25 15 15 25 15 15 25 15 15 25 15 15 25 15 15 25 15 15 25 15 15 25 15 15 25 15 15 25 15 15 25 15 15 25 15 15 25 15 15 25 15 15 25 15 15 25 15 15 25 15 15 25 15 15 25 15 15 25 15 15 25 15 15 25 15 15 25 15 15 25 15 15 25 15 15 25 15 15 25 15 15 25 15 15 25 15 15 25 15 15 25 15 15 25 15 15 25 15 15 25 15 15 25 15 15 25 15 15 25 15 15 25 15 15 25 15 15 25 15 15 25 15 15 25 15 15 25 15 15 25 15 15 25 15 15 25 15 15 25 15 15 25 15 15 25 15 15 25 15 15 25 15 15 25 15 15 25 15 15 25 15 15 25 15 15 25 15 15 25 15 15 25 15 15 25 15 15 25 15 15 25 15 15 25 15 15 25 15 15 25 15 15 25 15 15 25 15 15 25 15 15 25 15 15 25 15 15 25 15 15 25 15 15 25 15 15 25 15 15 25 15 15 25 15 15 25 15 15 25 255 0 0 15 15 25 15 15 25 15 15 25 15 15 25 15 15 25 15 15 25 15 15 25 15 15 25 15 15 25 15 15 25 
15 15 25 15 15 25 15 15 25 15 15 25 15 15 25 15 15 25 15 15 25 15 15 25 15 15 25 0 255 0 15 15 25 15 15 25 15 15 25 15 15 25 15 15 25 15 15 25 15 15 25 15 15 25 15 15 25 15 15 25 15 15 25 15 15 25 15 15 25 15 15 25 15 15 25 15 15 25 15 15 25 15 15 25 15 15 25 15 15 25 15 15 25 15 15 25 15 15 25 15 15 25 15 15 25 15 15 25 15 15 25 15 15 25 15 15 25 15 15 25 15 15 25 15 15 25 15 15 25 15 15 25 15 15 25 15 15 25 15 15 25 15 15 25 15 15 25 15 15 25 15 15 25 15 15 25 15 15 25 15 15 25 15 15 25 15 15 25 15 15 25 15 15 25 15 15 25 15 15 25 15 15 25 15 15 25 15 15 25 15 15 25 15 15 25 15 15 25 15 15 25 15 15 25 15 15 25 15 15 25 15 15 25 15 15 25 15 15 25 15 15 25 15 15 25 15 15 25 15 15 25 15 15 25 15 15 25 15 15 25 15 15 25 15 15 25 15 15 25 15 15 25 15 15 25 15 15 25 15 15 25 15 15 25 15 15 25 15 15 25 15 15 25 15 15 25 15 15 25 15 15 25 15 15 25 15 15 25 15 15 25 15 15 25 15 15 25 15 15 25 15 15 25 15 15 25 15 15 25 15 15 25 15 15 25 15 15 25 15 15 25 15 15 25 15 15 25 15 15 25 15 15 25 15 15 25 15 15 25 15 15 25 15 15 25 15 15 25 15 15 25 15 15 25 15 15 25 15 15 25 15 15 25 15 15 25 15 15 25 15 15 25 15 15 25 15 15 25 15 15 25 15 15 25 15 15 25 15 15 25 15 15 25 15 15 25 15 15 25 15 15 25 15 15 25 15 15 25 15 15 25 15 15 25 15 15 25 15 15 25 15 15 25 15 15 25 15 15 25 15 15 25 15 15 25 15 15 25 15 15 25 15 15 25 15 15 25 15 15 25 15 15 25 15 15 25 15 15 25 15 15 25 15 15 25 15 15 25 15 15 25 15 15 25 15 15 25 15 15 25 15 15 25 15 15 25 15 15 25 15 15 25 15 15 25 15 15 25 15 15 25 15 15 25 15 15 25 15 15 25 15 15 25 15 15 25 15 15 25 15 15 25 15 15 25 15 15 25 15 15 25 15 15 25 15 15 25 15 15 25 15 15 25 15 15 25 15 15 25 15 15 25 15 15 25 15 15 25 15 15 25 15 15 25 15 15 25 15 15 25 15 15 25 15 15 25 15 15 25 15 15 25 15 15 25 15 15 25 15 15 25 15 15 25 15 15 25 15 15 25 15 15 25 15 15 25 15 15 25 15 15 25 15 15 25 15 15 25 15 15 25 15 15 25 15 15 25 15 15 25 15 15 25 15 15 25 15 15 25 15 15 25 15 15 25 15 15 25 15 15 25 15 15 25 15 15 25 15 15 25 15 15 25 15 15 25 15 15 25 15 15 25 15 15 25 15 15 25 15 15 25 15 15 25 15 15 25 15 15 25 15 15 25 15 15 25 15 15 25 15 15 25 15 15 25 15 15 25 15 15 25 15 15 25 15 15 25 15 15 25 15 15 25 15 15 25 15 15 25 15 15 25 15 15 25 15 15 25 255 0 0 15 15 25 15 15 25 15 15 25 15 15 25 15 15 25 15 15 25 15 15 25 15 15 25 15 15 25 
15 15 25 15 15 25 15 15 25 15 15 25 15 15 25 15 15 25 15 15 25 15 15 25 0 255 0 15 15 25 15 15 25 15 15 25 15 15 25 15 15 25 15 15 25 15 15 25 15 15 25 15 15 25 15 15 25 15 15 25 15 15 25 15 15 25 15 15 25 15 15 25 15 15 25 15 15 25 15 15 25 15 15 25 15 15 25 15 15 25 15 15 25 15 15 25 15 15 25 15 15 25 15 15 25 15 15 25 15 15 25 15 15 25 15 15 25 15 15 25 15 15 25 15 15 25 15 15 25 15 15 25 15 15 25 15 15 25 15 15 25 15 15 25 15 15 25 15 15 25 15 15 25 15 15 25 15 15 25 15 15 25 15 15 25 15 15 25 15 15 25 15 15 25 15 15 25 15 15 25 15 15 25 15 15 25 15 15 25 15 15 25 15 15 25 15 15 25 15 15 25 15 15 25 15 15 25 15 15 25 15 15 25 15 15 25 15 15 25 15 15 25 15 15 25 15 15 25 15 15 25 15 15 25 15 15 25 15 15 25 15 15 25 15 15 25 15 15 25 15 15 25 15 15 25 15 15 25 15 15 25 15 15 25 15 15 25 15 15 25 15 15 25 15 15 25 15 15 25 15 15 25 15 15 25 15 15 25 15 15 25 15 15 25 15 15 25 15 15 25 15 15 25 15 15 25 15 15 25 15 15 25 15 15 25 15 15 25 15 15 25 15 15 25 15 15 25 15 15 25 15 15 25 15 15 25 15 15 25 15 15 25 15 15 25 15 15 25 15 15 25 15 15 25 15 15 25 15 15 25 15 15 25 15 15 25 15 15 25 15 15 25 15 15 25 15 15 25 15 15 25 15 15 25 15 15 25 15 15 25 15 15 25 15 15 25 15 15 25 15 15 25 15 15 25 15 15 25 15 15 25 15 15 25 15 15 25 15 15 25 15 15 25 15 15 25 15 15 25 15 15 25 15 15 25 15 15 25 15 15 25 15 15 25 15 15 25 15 15 25 15 15 25 15 15 25 15 15 25 15 15 25 15 15 25 15 15 25 15 15 25 15 15 25 15 15 25 15 15 25 15 15 25 15 15 25 15 15 25 15 15 25 15 15 25 15 15 25 15 15 25 15 15 25 15 15 25 15 15 25 15 15 25 15 15 25 15 15 25 15 15 25 15 15 25 15 15 25 15 15 25 15 15 25 15 15 25 15 15 25 15 15 25 15 15 25 15 15 25 15 15 25 15 15 25 15 15 25 15 15 25 15 15 25 15 15 25 15 15 25 15 15 25 15 15 25 15 15 25 15 15 25 15 15 25 15 15 25 15 15 25 15 15 25 15 15 25 15 15 25 15 15 25 15 15 25 15 15 25 15 15 25 15 15 25 15 15 25 15 15 25 15 15 25 15 15 25 15 15 25 15 15 25 15 15 25 15 15 25 15 15 25 15 15 25 15 15 25 15 15 25 15 15 25 15 15 25 15 15 25 15 15 25 15 15 25 15 15 25 15 15 25 15 15 25 15 15 25 15 15 25 15 15 25 15 15 25 15 15 25 15 15 25 15 15 25 15 15 25 15 15 25 15 15 25 15 15 25 15 15 25 15 15 25 15 15 25 15 15 25 15 15 25 15 15 25 15 15 25 15 15 25 15 15 25 15 15 25 15 15 25 255 0 0 15 15 25 15 15 25 15 15 25 15 15 25 15 15 25 15 15 25 15 15 25 15 15 25 
15 15 25 15 15 25 15 15 25 15 15 25 15 15 25 15 15 25 15 15 25 0 255 0 15 15 25 15 15 25 15 15 25 15 15 25 15 15 25 15 15 25 15 15 25 15 15 25 15 15 25 15 15 25 15 15 25 15 15 25 15 15 25 15 15 25 15 15 25 15 15 25 15 15 25 15 15 25 15 15 25 15 15 25 15 15 25 15 15 25 15 15 25 15 15 25 15 15 25 15 15 25 15 15 25 15 15 25 15 15 25 15 15 25 15 15 25 15 15 25 15 15 25 15 15 25 15 15 25 15 15 25 15 15 25 15 15 25 15 15 25 15 15 25 15 15 25 15 15 25 15 15 25 15 15 25 15 15 25 15 15 25 15 15 25 15 15 25 15 15 25 15 15 25 15 15 25 15 15 25 15 15 25 15 15 25 15 15 25 15 15 25 15 15 25 15 15 25 15 15 25 15 15 25 15 15 25 15 15 25 15 15 25 15 15 25 15 15 25 15 15 25 15 15 25 15 15 25 15 15 25 15 15 25 15 15 25 15 15 25 15 15 25 15 15 25 15 15 25 15 15 25 15 15 25 15 15 25 15 15 25 15 15 25 15 15 25 15 15 25 15 15 25 15 15 25 15 15 25 15 15 25 15 15 25 15 15 25 15 15 25 15 15 25 15 15 25 15 15 25 15 15 25 15 15 25 15 15 25 15 15 25 15 15 25 15 15 25 15 15 25 15 15 25 15 15 25 15 15 25 15 15 25 15 15 25 15 15 25 15 15 25 15 15 25 15 15 25 15 15 25 15 15 25 15 15 25 15 15 25 15 15 25 15 15 25 15 15 25 15 15 25 15 15 25 15 15 25 15 15 25 15 15 25 15 15 25 15 15 25 15 15 25 15 15 25 15 15 25 15 15 25 15 15 25 15 15 25 15 15 25 15 15 25 15 15 25 15 15 25 15 15 25 15 15 25 15 15 25 15 15 25 15 15 25 15 15 25 15 15 25 15 15 25 15 15 25 15 15 25 15 15 25 15 15 25 15 15 25 15 15 25 15 15 25 15 15 25 15 15 25 15 15 25 15 15 25 15 15 25 15 15 25 15 15 25 15 15 25 15 15 25 15 15 25 15 15 25 15 15 25 15 15 25 15 15 25 15 15 25 15 15 25 15 15 25 15 15 25 15 15 25 15 15 25 15 15 25 15 15 25 15 15 25 15 15 25 15 15 25 15 15 25 15 15 25 15 15 25 15 15 25 15 15 25 15 15 25 15 15 25 15 15 25 15 15 25 15 15 25 15 15 25 15 15 25 15 15 25 15 15 25 15 15 25 15 15 25 15 15 25 15 15 25 15 15 25 15 15 25 15 15 25 15 15 25 15 15 25 15 15 25 15 15 25 15 15 25 15 15 25 15 15 25 15 15 25 15 15 25 15 15 25 15 15 25 15 15 25 15 15 25 15 15 25 15 15 25 15 15 25 15 15 25 15 15 25 15 15 25 15 15 25 15 15 25 15 15 25 15 15 25 15 15 25 15 15 25 15 15 25 15 15 25 15 15 25 15 15 25 15 15 25 15 15 25 15 15 25 15 15 25 15 15 25 15 15 25 15 15 25 15 15 25 15 15 25 15 15 25 15 15 25 15 15 25 15 15 25 15 15 25 15 15 25 15 15 25 15 15 25 15 15 25 255 0 0 15 15 25 15 15 25 15 15 25 15 15 25 15 15 25 15 15 25 15 15 25 
15 15 25 15 15 25 15 15 25 15 15 25 15 15 25 15 15 25 0 255 0 15 15 25 15 15 25 15 15 25 15 15 25 15 15 25 15 15 25 15 15 25 15 15 25 15 15 25 15 15 25 15 15 25 15 15 25 15 15 25 15 15 25 15 15 25 15 15 25 15 15 25 15 15 25 15 15 25 15 15 25 15 15 25 15 15 25 15 15 25 15 15 25 15 15 25 15 15 25 15 15 25 15 15 25 15 15 25 15 15 25 15 15 25 15 15 25 15 15 25 15 15 25 15 15 25 15 15 25 15 15 25 15 15 25 15 15 25 15 15 25 15 15 25 15 15 25 15 15 25 15 15 25 15 15 25 15 15 25 15 15 25 15 15 25 15 15 25 15 15 25 15 15 25 15 15 25 15 15 25 15 15 25 15 15 25 15 15 25 15 15 25 15 15 25 15 15 25 15 15 25 15 15 25 15 15 25 15 15 25 15 15 25 15 15 25 15 15 25 15 15 25 15 15 25 15 15 25 15 15 25 15 15 25 15 15 25 15 15 25 15 15 25 15 15 25 15 15 25 15 15 25 15 15 25 15 15 25 15 15 25 15 15 25 15 15 25 15 15 25 15 15 25 15 15 25 15 15 25 15 15 25 15 15 25 15 15 25 15 15 25 15 15 25 15 15 25 15 15 25 15 15 25 15 15 25 15 15 25 15 15 25 15 15 25 15 15 25 15 15 25 15 15 25 15 15 25 15 15 25 15 15 25 15 15 25 15 15 25 15 15 25 15 15 25 15 15 25 15 15 25 15 15 25 15 15 25 15 15 25 15 15 25 15 15 25 15 15 25 15 15 25 15 15 25 15 15 25 15 15 25 15 15 25 15 15 25 15 15 25 15 15 25 15 15 25 15 15 25 15 15 25 15 15 25 15 15 25 15 15 25 15 15 25 15 15 25 15 15 25 15 15 25 15 15 25 15 15 25 15 15 25 15 15 25 15 15 25 15 15 25 15 15 25 15 15 25 15 15 25 15 15 25 15 15 25 15 15 25 15 15 25 15 15 25 15 15 25 15 15 25 15 15 25 15 15 25 15 15 25 15 15 25 15 15 25 15 15 25 15 15 25 15 15 25 15 15 25 15 15 25 15 15 25 15 15 25 15 15 25 15 15 25 15 15 25 15 15 25 15 15 25 15 15 25 15 15 25 15 15 25 15 15 25 15 15 25 15 15 25 15 15 25 15 15 25 15 15 25 15 15 25 15 15 25 15 15 25 15 15 25 15 15 25 15 15 25 15 15 25 15 15 25 15 15 25 15 15 25 15 15 25 15 15 25 15 15 25 15 15 25 15 15 25 15 15 25 15 15 25 15 15 25 15 15 25 15 15 25 15 15 25 15 15 25 15 15 25 15 15 25 15 15 25 15 15 25 15 15 25 15 15 25 15 15 25 15 15 25 15 15 25 15 15 25 15 15 25 15 15 25 15 15 25 15 15 25 15 15 25 15 15 25 15 15 25 15 15 25 15 15 25 15 15 25 15 15 25 15 15 25 15 15 25 15 15 25 15 15 25 15 15 25 15 15 25 15 15 25 15 15 25 15 15 25 15 15 25 15 15 25 15 15 25 15 15 25 15 15 25 15 15 25 15 15 25 15 15 25 15 15 25 15 15 25 15 15 25 15 15 25 15 15 25 15 15 25 255 0 0 15 15 25 15 15 25 15 15 25 15 15 25 15 15 25 15 15 25 
15 15 25 15 15 25 15 15 25 15 15 25 15 15 25 0 255 0 15 15 25 15 15 25 15 15 25 15 15 25 15 15 25 15 15 25 15 15 25 15 15 25 15 15 25 15 15 25 15 15 25 15 15 25 15 15 25 15 15 25 15 15 25 15 15 25 15 15 25 15 15 25 15 15 25 15 15 25 15 15 25 15 15 25 15 15 25 15 15 25 15 15 25 15 15 25 15 15 25 15 15 25 15 15 25 15 15 25 15 15 25 15 15 25 15 15 25 15 15 25 15 15 25 15 15 25 15 15 25 15 15 25 15 15 25 15 15 25 15 15 25 15 15 25 15 15 25 15 15 25 15 15 25 15 15 25 15 15 25 15 15 25 15 15 25 15 15 25 15 15 25 15 15 25 15 15 25 15 15 25 15 15 25 15 15 25 15 15 25 15 15 25 15 15 25 15 15 25 15 15 25 15 15 25 15 15 25 15 15 25 15 15 25 15 15 25 15 15 25 15 15 25 15 15 25 15 15 25 15 15 25 15 15 25 15 15 25 15 15 25 15 15 25 15 15 25 15 15 25 15 15 25 15 15 25 15 15 25 15 15 25 15 15 25 15 15 25 15 15 25 15 15 25 15 15 25 15 15 25 15 15 25 15 15 25 15 15 25 15 15 25 15 15 25 15 15 25 15 15 25 15 15 25 15 15 25 15 15 25 15 15 25 15 15 25 15 15 25 15 15 25 15 15 25 15 15 25 15 15 25 15 15 25 15 15 25 15 15 25 15 15 25 15 15 25 15 15 25 15 15 25 15 15 25 15 15 25 15 15 25 15 15 25 15 15 25 15 15 25 15 15 25 15 15 25 15 15 25 15 15 25 15 15 25 15 15 25 15 15 25 15 15 25 15 15 25 15 15 25 15 15 25 15 15 25 15 15 25 15 15 25 15 15 25 15 15 25 15 15 25 15 15 25 15 15 25 15 15 25 15 15 25 15 15 25 15 15 25 15 15 25 15 15 25 15 15 25 15 15 25 15 15 25 15 15 25 15 15 25 15 15 25 15 15 25 15 15 25 15 15 25 15 15 25 15 15 25 15 15 25 15 15 25 15 15 25 15 15 25 15 15 25 15 15 25 15 15 25 15 15 25 15 15 25 15 15 25 15 15 25 15 15 25 15 15 25 15 15 25 15 15 25 15 15 25 15 15 25 15 15 25 15 15 25 15 15 25 15 15 25 15 15 25 15 15 25 15 15 25 15 15 25 15 15 25 15 15 25 15 15 25 15 15 25 15 15 25 15 15 25 15 15 25 15 15 25 15 15 25 15 15 25 15 15 25 15 15 25 15 15 25 15 15 25 15 15 25 15 15 25 15 15 25 15 15 25 15 15 25 15 15 25 15 15 25 15 15 25 15 15 25 15 15 25 15 15 25 15 15 25 15 15 25 15 15 25 15 15 25 15 15 25 15 15 25 15 15 25 15 15 25 15 15 25 15 15 25 15 15 25 15 15 25 15 15 25 15 15 25 15 15 25 15 15 25 15 15 25 15 15 25 15 15 25 15 15 25 15 15 25 15 15 25 15 15 25 15 15 25 15 15 25 15 15 25 15 15 25 15 15 25 15 15 25 15 15 25 15 15 25 15 15 25 15 15 25 15 15 25 15 15 25 15 15 25 15 15 25 15 15 25 15 15 25 15 15 25 15 15 25 255 0 0 15 15 25 15 15 25 15 15 25 15 15 25 15 15 25 
15 15 25 15 15 25 15 15 25 15 15 25 0 255 0 15 15 25 15 15 25 15 15 25 15 15 25 15 15 25 15 15 25 15 15 25 15 15 25 15 15 25 15 15 25 15 15 25 15 15 25 15 15 25 15 15 25 15 15 25 15 15 25 15 15 25 15 15 25 15 15 25 15 15 25 15 15 25 15 15 25 15 15 25 15 15 25 15 15 25 15 15 25 15 15 25 15 15 25 15 15 25 15 15 25 15 15 25 15 15 25 15 15 25 15 15 25 15 15 25 15 15 25 15 15 25 15 15 25 15 15 25 15 15 25 15 15 25 15 15 25 15 15 25 15 15 25 15 15 25 15 15 25 15 15 25 15 15 25 15 15 25 15 15 25 15 15 25 15 15 25 15 15 25 15 15 25 15 15 25 15 15 25 15 15 25 15 15 25 15 15 25 15 15 25 15 15 25 15 15 25 15 15 25 15 15 25 15 15 25 15 15 25 15 15 25 15 15 25 15 15 25 15 15 25 15 15 25 15 15 25 15 15 25 15 15 25 15 15 25 15 15 25 15 15 25 15 15 25 15 15 25 15 15 25 15 15 25 15 15 25 15 15 25 15 15 25 15 15 25 15 15 25 15 15 25 15 15 25 15 15 25 15 15 25 15 15 25 15 15 25 15 15 25 15 15 25 15 15 25 15 15 25 15 15 25 15 15 25 15 15 25 15 15 25 15 15 25 15 15 25 15 15 25 15 15 25 15 15 25 15 15 25 15 15 25 15 15 25 15 15 25 15 15 25 15 15 25 15 15 25 15 15 25 15 15 25 15 15 25 15 15 25 15 15 25 15 15 25 15 15 25 15 15 25 15 15 25 15 15 25 15 15 25 15 15 25 15 15 25 15 15 25 15 15 25 15 15 25 15 15 25 15 15 25 15 15 25 15 15 25 15 15 25 15 15 25 15 15 25 15 15 25 15 15 25 15 15 25 15 15 25 15 15 25 15 15 25 15 15 25 15 15 25 15 15 25 15 15 25 15 15 25 15 15 25 15 15 25 15 15 25 15 15 25 15 15 25 15 15 25 15 15 25 15 15 25 15 15 25 15 15 25 15 15 25 15 15 25 15 15 25 15 15 25 15 15 25 15 15 25 15 15 25 15 15 25 15 15 25 15 15 25 15 15 25 15 15 25 15 15 25 15 15 25 15 15 25 15 15 25 15 15 25 15 15 25 15 15 25 15 15 25 15 15 25 15 15 25 15 15 25 15 15 25 15 15 25 15 15 25 15 15 25 15 15 25 15 15 25 15 15 25 15 15 25 15 15 25 15 15 25 15 15 25 15 15 25 15 15 25 15 15 25 15 15 25 15 15 25 15 15 25 15 15 25 15 15 25 15 15 25 15 15 25 15 15 25 15 15 25 15 15 25 15 15 25 15 15 25 15 15 25 15 15 25 15 15 25 15 15 25 15 15 25 15 15 25 15 15 25 15 15 25 15 15 25 15 15 25 15 15 25 15 15 25 15 15 25 15 15 25 15 15 25 15 15 25 15 15 25 15 15 25 15 15 25 15 15 25 15 15 25 15 15 25 15 15 25 15 15 25 15 15 25 15 15 25 15 15 25 15 15 25 15 15 25 15 15 25 15 15 25 15 15 25 15 15 25 15 15 25 15 15 25 15 15 25 15 15 25 15 15 25 15 15 25 15 15 25 15 15 25 255 0 0 15 15 25 15 15 25 15 15 25 15 15 25 
15 15 25 15 15 25 15 15 25 0 255 0 15 15 25 15 15 25 15 15 25 15 15 25 15 15 25 15 15 25 15 15 25 15 15 25 15 15 25 15 15 25 15 15 25 15 15 25 15 15 25 15 15 25 15 15 25 15 15 25 15 15 25 15 15 25 15 15 25 15 15 25 15 15 25 15 15 25 15 15 25 15 15 25 15 15 25 15 15 25 15 15 25 15 15 25 15 15 25 15 15 25 15 15 25 15 15 25 15 15 25 15 15 25 15 15 25 15 15 25 15 15 25 15 15 25 15 15 25 15 15 25 15 15 25 15 15 25 15 15 25 15 15 25 15 15 25 15 15 25 15 15 25 15 15 25 15 15 25 15 15 25 15 15 25 15 15 25 15 15 25 15 15 25 15 15 25 15 15 25 15 15 25 15 15 25 15 15 25 15 15 25 15 15 25 15 15 25 15 15 25 15 15 25 15 15 25 15 15 25 15 15 25 15 15 25 15 15 25 15 15 25 15 15 25 15 15 25 15 15 25 15 15 25 15 15 25 15 15 25 15 15 25 15 15 25 15 15 25 15 15 25 15 15 25 15 15 25 15 15 25 15 15 25 15 15 25 15 15 25 15 15 25 15 15 25 15 15 25 15 15 25 15 15 25 15 15 25 15 15 25 15 15 25 15 15 25 15 15 25 15 15 25 15 15 25 15 15 25 15 15 25 15 15 25 15 15 25 15 15 25 15 15 25 15 15 25 15 15 25 15 15 25 15 15 25 15 15 25 15 15 25 15 15 25 15 15 25 15 15 25 15 15 25 15 15 25 15 15 25 15 15 25 15 15 25 15 15 25 15 15 25 15 15 25 15 15 25 15 15 25 15 15 25 15 15 25 15 15 25 15 15 25 15 15 25 15 15 25 15 15 25 15 15 25 15 15 25 15 15 25 15 15 25 15 15 25 15 15 25 15 15 25 15 15 25 15 15 25 15 15 25 15 15 25 15 15 25 15 15 25 15 15 25 15 15 25 15 15 25 15 15 25 15 15 25 15 15 25 15 15 25 15 15 25 15 15 25 15 15 25 15 15 25 15 15 25 15 15 25 15 15 25 15 15 25 15 15 25 15 15 25 15 15 25 15 15 25 15 15 25 15 15 25 15 15 25 15 15 25 15 15 25 15 15 25 15 15 25 15 15 25 15 15 25 15 15 25 15 15 25 15 15 25 15 15 25 15 15 25 15 15 25 15 15 25 15 15 25 15 15 25 15 15 25 15 15 25 15 15 25 15 15 25 15 15 25 15 15 25 15 15 25 15 15 25 15 15 25 15 15 25 15 15 25 15 15 25 15 15 25 15 15 25 15 15 25 15 15 25 15 15 25 15 15 25 15 15 25 15 15 25 15 15 25 15 15 25 15 15 25 15 15 25 15 15 25 15 15 25 15 15 25 15 15 25 15 15 25 15 15 25 15 15 25 15 15 25 15 15 25 15 15 25 15 15 25 15 15 25 15 15 25 15 15 25 15 15 25 15 15 25 15 15 25 15 15 25 15 15 25 15 15 25 15 15 25 15 15 25 15 15 25 15 15 25 15 15 25 15 15 25 15 15 25 15 15 25 15 15 25 15 15 25 15 15 25 15 15 25 15 15 25 15 15 25 15 15 25 15 15 25 15 15 25 15 15 25 15 15 25 15 15 25 15 15 25 15 15 25 15 15 25 15 15 25 255 0 0 15 15 25 15 15 25 15 15 25 
15 15 25 15 15 25 0 255 0 15 15 25 15 15 25 15 15 25 15 15 25 15 15 25 15 15 25 15 15 25 15 15 25 15 15 25 15 15 25 15 15 25 15 15 25 15 15 25 15 15 25 15 15 25 15 15 25 15 15 25 15 15 25 15 15 25 15 15 25 15 15 25 15 15 25 15 15 25 15 15 25 15 15 25 15 15 25 15 15 25 15 15 25 15 15 25 15 15 25 15 15 25 15 15 25 15 15 25 15 15 25 15 15 25 15 15 25 15 15 25 15 15 25 15 15 25 15 15 25 15 15 25 15 15 25 15 15 25 15 15 25 15 15 25 15 15 25 15 15 25 15 15 25 15 15 25 15 15 25 15 15 25 15 15 25 15 15 25 15 15 25 15 15 25 15 15 25 15 15 25 15 15 25 15 15 25 15 15 25 15 15 25 15 15 25 15 15 25 15 15 25 15 15 25 15 15 25 15 15 25 15 15 25 15 15 25 15 15 25 15 15 25 15 15 25 15 15 25 15 15 25 15 15 25 15 15 25 15 15 25 15 15 25 15 15 25 15 15 25 15 15 25 15 15 25 15 15 25 15 15 25 15 15 25 15 15 25 15 15 25 15 15 25 15 15 25 15 15 25 15 15 25 15 15 25 15 15 25 15 15 25 15 15 25 15 15 25 15 15 25 15 15 25 15 15 25 15 15 25 15 15 25 15 15 25 15 15 25 15 15 25 15 15 25 15 15 25 15 15 25 15 15 25 15 15 25 15 15 25 15 15 25 15 15 25 15 15 25 15 15 25 15 15 25 15 15 25 15 15 25 15 15 25 15 15 25 15 15 25 15 15 25 15 15 25 15 15 25 15 15 25 15 15 25 15 15 25 15 15 25 15 15 25 15 15 25 15 15 25 15 15 25 15 15 25 15 15 25 15 15 25 15 15 25 15 15 25 15 15 25 15 15 25 15 15 25 15 15 25 15 15 25 15 15 25 15 15 25 15 15 25 15 15 25 15 15 25 15 15 25 15 15 25 15 15 25 15 15 25 15 15 25 15 15 25 15 15 25 15 15 25 15 15 25 15 15 25 15 15 25 15 15 25 15 15 25 15 15 25 15 15 25 15 15 25 15 15 25 15 15 25 15 15 25 15 15 25 15 15 25 15 15 25 15 15 25 15 15 25 15 15 25 15 15 25 15 15 25 15 15 25 15 15 25 15 15 25 15 15 25 15 15 25 15 15 25 15 15 25 15 15 25 15 15 25 15 15 25 15 15 25 15 15 25 15 15 25 15 15 25 15 15 25 15 15 25 15 15 25 15 15 25 15 15 25 15 15 25 15 15 25 15 15 25 15 15 25 15 15 25 15 15 25 15 15 25 15 15 25 15 15 25 15 15 25 15 15 25 15 15 25 15 15 25 15 15 25 15 15 25 15 15 25 15 15 25 15 15 25 15 15 25 15 15 25 15 15 25 15 15 25 15 15 25 15 15 25 15 15 25 15 15 25 15 15 25 15 15 25 15 15 25 15 15 25 15 15 25 15 15 25 15 15 25 15 15 25 15 15 25 15 15 25 15 15 25 15 15 25 15 15 25 15 15 25 15 15 25 15 15 25 15 15 25 15 15 25 15 15 25 15 15 25 15 15 25 15 15 25 15 15 25 15 15 25 15 15 25 15 15 25 15 15 25 15 15 25 15 15 25 15 15 25 15 15 25 15 15 25 255 0 0 15 15 25 15 15 25 
15 15 25 0 255 0 15 15 25 15 15 25 15 15 25 15 15 25 15 15 25 15 15 25 15 15 25 15 15 25 15 15 25 15 15 25 15 15 25 15 15 25 15 15 25 15 15 25 15 15 25 15 15 25 15 15 25 15 15 25 15 15 25 15 15 25 15 15 25 15 15 25 15 15 25 15 15 25 15 15 25 15 15 25 15 15 25 15 15 25 15 15 25 15 15 25 15 15 25 15 15 25 15 15 25 15 15 25 15 15 25 15 15 25 15 15 25 15 15 25 15 15 25 15 15 25 15 15 25 15 15 25 15 15 25 15 15 25 15 15 25 15 15 25 15 15 25 15 15 25 15 15 25 15 15 25 15 15 25 15 15 25 15 15 25 15 15 25 15 15 25 15 15 25 15 15 25 15 15 25 15 15 25 15 15 25 15 15 25 15 15 25 15 15 25 15 15 25 15 15 25 15 15 25 15 15 25 15 15 25 15 15 25 15 15 25 15 15 25 15 15 25 15 15 25 15 15 25 15 15 25 15 15 25 15 15 25 15 15 25 15 15 25 15 15 25 15 15 25 15 15 25 15 15 25 15 15 25 15 15 25 15 15 25 15 15 25 15 15 25 15 15 25 15 15 25 15 15 25 15 15 25 15 15 25 15 15 25 15 15 25 15 15 25 15 15 25 15 15 25 15 15 25 15 15 25 15 15 25 15 15 25 15 15 25 15 15 25 15 15 25 15 15 25 15 15 25 15 15 25 15 15 25 15 15 25 15 15 25 15 15 25 15 15 25 15 15 25 15 15 25 15 15 25 15 15 25 15 15 25 15 15 25 15 15 25 15 15 25 15 15 25 15 15 25 15 15 25 15 15 25 15 15 25 15 15 25 15 15 25 15 15 25 15 15 25 15 15 25 15 15 25 15 15 25 15 15 25 15 15 25 15 15 25 15 15 25 15 15 25 15 15 25 15 15 25 15 15 25 15 15 25 15 15 25 15 15 25 15 15 25 15 15 25 15 15 25 15 15 25 15 15 25 15 15 25 15 15 25 15 15 25 15 15 25 15 15 25 15 15 25 15 15 25 15 15 25 15 15 25 15 15 25 15 15 25 15 15 25 15 15 25 15 15 25 15 15 25 15 15 25 15 15 25 15 15 25 15 15 25 15 15 25 15 15 25 15 15 25 15 15 25 15 15 25 15 15 25 15 15 25 15 15 25 15 15 25 15 15 25 15 15 25 15 15 25 15 15 25 15 15 25 15 15 25 15 15 25 15 15 25 15 15 25 15 15 25 15 15 25 15 15 25 15 15 25 15 15 25 15 15 25 15 15 25 15 15 25 15 15 25 15 15 25 15 15 25 15 15 25 15 15 25 15 15 25 15 15 25 15 15 25 15 15 25 15 15 25 15 15 25 15 15 25 15 15 25 15 15 25 15 15 25 15 15 25 15 15 25 15 15 25 15 15 25 15 15 25 15 15 25 15 15 25 15 15 25 15 15 25 15 15 25 15 15 25 15 15 25 15 15 25 15 15 25 15 15 25 15 15 25 15 15 25 15 15 25 15 15 25 15 15 25 15 15 25 15 15 25 15 15 25 15 15 25 15 15 25 15 15 25 15 15 25 15 15 25 15 15 25 15 15 25 15 15 25 15 15 25 15 15 25 15 15 25 15 15 25 15 15 25 15 15 25 15 15 25 15 15 25 15 15 25 15 15 25 15 15 25 15 15 25 255 0 0 15 15 25 
0 255 0 15 15 25 15 15 25 15 15 25 15 15 25 15 15 25 15 15 25 15 15 25 15 15 25 15 15 25 15 15 25 15 15 25 15 15 25 15 15 25 15 15 25 15 15 25 15 15 25 15 15 25 15 15 25 15 15 25 15 15 25 15 15 25 15 15 25 15 15 25 15 15 25 15 15 25 15 15 25 15 15 25 15 15 25 15 15 25 15 15 25 15 15 25 15 15 25 15 15 25 15 15 25 15 15 25 15 15 25 15 15 25 15 15 25 15 15 25 15 15 25 15 15 25 15 15 25 15 15 25 15 15 25 15 15 25 15 15 25 15 15 25 15 15 25 15 15 25 15 15 25 15 15 25 15 15 25 15 15 25 15 15 25 15 15 25 15 15 25 15 15 25 15 15 25 15 15 25 15 15 25 15 15 25 15 15 25 15 15 25 15 15 25 15 15 25 15 15 25 15 15 25 15 15 25 15 15 25 15 15 25 15 15 25 15 15 25 15 15 25 15 15 25 15 15 25 15 15 25 15 15 25 15 15 25 15 15 25 15 15 25 15 15 25 15 15 25 15 15 25 15 15 25 15 15 25 15 15 25 15 15 25 15 15 25 15 15 25 15 15 25 15 15 25 15 15 25 15 15 25 15 15 25 15 15 25 15 15 25 15 15 25 15 15 25 15 15 25 15 15 25 15 15 25 15 15 25 15 15 25 15 15 25 15 15 25 15 15 25 15 15 25 15 15 25 15 15 25 15 15 25 15 15 25 15 15 25 15 15 25 15 15 25 15 15 25 15 15 25 15 15 25 15 15 25 15 15 25 15 15 25 15 15 25 15 15 25 15 15 25 15 15 25 15 15 25 15 15 25 15 15 25 15 15 25 15 15 25 15 15 25 15 15 25 15 15 25 15 15 25 15 15 25 15 15 25 15 15 25 15 15 25 15 15 25 15 15 25 15 15 25 15 15 25 15 15 25 15 15 25 15 15 25 15 15 25 15 15 25 15 15 25 15 15 25 15 15 25 15 15 25 15 15 25 15 15 25 15 15 25 15 15 25 15 15 25 15 15 25 15 15 25 15 15 25 15 15 25 15 15 25 15 15 25 15 15 25 15 15 25 15 15 25 15 15 25 15 15 25 15 15 25 15 15 25 15 15 25 15 15 25 15 15 25 15 15 25 15 15 25 15 15 25 15 15 25 15 15 25 15 15 25 15 15 25 15 15 25 15 15 25 15 15 25 15 15 25 15 15 25 15 15 25 15 15 25 15 15 25 15 15 25 15 15 25 15 15 25 15 15 25 15 15 25 15 15 25 15 15 25 15 15 25 15 15 25 15 15 25 15 15 25 15 15 25 15 15 25 15 15 25 15 15 25 15 15 25 15 15 25 15 15 25 15 15 25 15 15 25 15 15 25 15 15 25 15 15 25 15 15 25 15 15 25 15 15 25 15 15 25 15 15 25 15 15 25 15 15 25 15 15 25 15 15 25 15 15 25 15 15 25 15 15 25 15 15 25 15 15 25 15 15 25 15 15 25 15 15 25 15 15 25 15 15 25 15 15 25 15 15 25 15 15 25 15 15 25 15 15 25 15 15 25 15 15 25 15 15 25 15 15 25 15 15 25 15 15 25 15 15 25 15 15 25 15 15 25 15 15 25 15 15 25 15 15 25 15 15 25 15 15 25 15 15 25 15 15 25 15 15 25 15 15 25 15 15 25 15 15 25 15 15 25 255 0 0 
